(PP_NAME=	  PP_Din)
(PP_VERSION=	  4.0)
(PP_INI_NAME=	  GC_PLASMA_4.5.ini)
(PP_INI_VERSION=  2014-02-26)
(PLANNAME=        baluster-fod 2)
(MACHINE= 	  PowerMAX105_MS_45)
(MATERIAL= 	  S235JR)
(THICKNESS= 	  3)
#CONTOUR MODE [DEV PATH_DEV=0.2 RELEVANT_PATH=0.1]
#TRC [CONV_CIR_TO_LIN=1]
G71
G90
#CS ON [V.A.ABS.X, V.A.ABS.Y, 0, 0, 0, V.E.ROTATION]
M190
G162
G141
G237
G00 X662.68 Y-131.98
M64
T21
M65
M94 F2750
G41 D21
N1 M07
G01 X662.69 Y-126.38
G02 X661.92 Y-126.31 I0.01 J3.89
G01 X563.87 Y-105.97
G02 X563.17 Y-105.74 I0.77 J3.64
G01 X530.15 Y-91.12
G01 X530.15 Y-45.65
G01 X563.17 Y-31.03
G02 X563.87 Y-30.80 I1.32 J-2.94
G01 X661.92 Y-10.46
G02 X662.69 Y-10.38 I0.76 J-3.61
G01 X711.54 Y-10.38
G01 X711.54 Y-43.38
G01 X562.81 Y-43.38
G01 X562.81 Y-93.38
G01 X711.54 Y-93.38
G01 X711.54 Y-126.38
G01 X663.79 Y-126.38
M50
G01 X662.69 Y-126.38
G03 X660.69 Y-128.38 I0.00 J-2.00
M08
G40
M51
M93
G00 X363.03 Y-132.47
M94 F2750
G41 D21
N2 M07
G01 X363.05 Y-126.87
G02 X362.27 Y-126.79 I0.01 J3.89
G01 X264.23 Y-106.45
G02 X263.52 Y-106.23 I0.77 J3.64
G01 X230.50 Y-91.61
G01 X230.50 Y-46.13
G01 X263.52 Y-31.51
G02 X264.23 Y-31.29 I1.32 J-2.94
G01 X362.27 Y-10.95
G02 X363.05 Y-10.87 I0.76 J-3.61
G01 X411.89 Y-10.87
G01 X411.89 Y-43.87
G01 X263.16 Y-43.87
G01 X263.16 Y-93.87
G01 X411.89 Y-93.87
G01 X411.89 Y-126.87
G01 X364.15 Y-126.87
M50
G01 X363.05 Y-126.87
G03 X361.05 Y-128.87 I0.00 J-2.00
M08
G40
M51
M93
G00 X142.78 Y-133.92
M94 F2750
G41 D21
N3 M07
G01 X142.79 Y-128.32
G02 X142.02 Y-128.24 I0.01 J3.89
G01 X43.97 Y-107.90
G02 X43.27 Y-107.68 I0.77 J3.64
G01 X10.25 Y-93.06
G01 X10.25 Y-47.58
G01 X43.27 Y-32.96
G02 X43.97 Y-32.74 I1.32 J-2.94
G01 X142.02 Y-12.40
G02 X142.79 Y-12.32 I0.76 J-3.61
G01 X191.64 Y-12.32
G01 X191.64 Y-45.32
G01 X42.91 Y-45.32
G01 X42.91 Y-95.32
G01 X191.64 Y-95.32
G01 X191.64 Y-128.32
G01 X143.89 Y-128.32
M50
G01 X142.79 Y-128.32
G03 X140.79 Y-130.32 I0.00 J-2.00
M08
G40
M51
M93
G00 X435.94 Y-153.36
M94 F2750
G41 D21
N4 M07
G01 X434.81 Y-147.87
G01 X336.76 Y-168.21
G02 X335.99 Y-168.29 I-0.76 J3.61
G01 X287.14 Y-168.29
G01 X287.14 Y-135.29
G01 X435.87 Y-135.29
G01 X435.87 Y-85.29
G01 X287.14 Y-85.29
G01 X287.14 Y-52.29
G01 X335.99 Y-52.29
G02 X336.76 Y-52.37 I-0.01 J-3.89
G01 X434.81 Y-72.71
G02 X435.51 Y-72.93 I-0.77 J-3.64
G01 X468.53 Y-87.55
G01 X468.53 Y-133.03
G01 X435.51 Y-147.65
G02 X434.84 Y-147.87 I-1.32 J2.94
G01 X434.82 Y-147.87
M50
G01 X434.81 Y-147.87
G03 X433.26 Y-150.24 I0.41 J-1.96
M08
G40
M51
M93
G00 X194.87 Y-154.81
M94 F2750
G41 D21
N5 M07
G01 X193.73 Y-149.33
G01 X95.69 Y-169.66
G02 X94.91 Y-169.74 I-0.76 J3.61
G01 X46.07 Y-169.74
G01 X46.07 Y-136.74
G01 X194.80 Y-136.74
G01 X194.80 Y-86.74
G01 X46.07 Y-86.74
G01 X46.07 Y-53.74
G01 X94.91 Y-53.74
G02 X95.69 Y-53.82 I-0.01 J-3.89
G01 X193.73 Y-74.16
G02 X194.44 Y-74.38 I-0.77 J-3.64
G01 X227.46 Y-89.01
G01 X227.46 Y-134.48
G01 X194.44 Y-149.10
G02 X193.76 Y-149.32 I-1.32 J2.94
G01 X193.74 Y-149.32
M50
G01 X193.73 Y-149.33
G03 X192.18 Y-151.69 I0.41 J-1.96
M08
G40
M51
M93
G00 X738.98 Y-154.81
M94 F2750
G41 D21
N6 M07
G01 X737.84 Y-149.33
G01 X639.79 Y-169.66
G02 X639.02 Y-169.74 I-0.76 J3.61
G01 X590.18 Y-169.74
G01 X590.18 Y-136.74
G01 X738.91 Y-136.74
G01 X738.91 Y-86.74
G01 X590.18 Y-86.74
G01 X590.18 Y-53.74
G01 X639.02 Y-53.74
G02 X639.79 Y-53.82 I-0.01 J-3.89
G01 X737.84 Y-74.16
G02 X738.55 Y-74.38 I-0.77 J-3.64
G01 X771.57 Y-89.01
G01 X771.57 Y-134.48
G01 X738.55 Y-149.10
G02 X737.87 Y-149.32 I-1.32 J2.94
G01 X737.85 Y-149.32
M50
G01 X737.84 Y-149.33
G03 X736.29 Y-151.69 I0.41 J-1.96
M08
G40
M51
M93
G00 X607.46 Y-242.40
M94 F2750
G41 D21
N7 M07
G01 X601.86 Y-242.40
G01 X601.86 Y-291.25
G01 X568.86 Y-291.25
G01 X568.86 Y-142.52
G01 X518.86 Y-142.52
G01 X518.86 Y-291.25
G01 X485.86 Y-291.25
G01 X485.86 Y-242.40
G02 X485.94 Y-241.63 I3.89 J-0.01
G01 X506.28 Y-143.58
G02 X506.50 Y-142.88 I3.64 J-0.77
G01 X521.12 Y-109.86
G01 X566.60 Y-109.86
G01 X581.22 Y-142.88
G02 X581.44 Y-143.58 I-2.94 J-1.32
G01 X601.78 Y-241.63
G02 X601.86 Y-242.37 I-3.61 J-0.76
G01 X601.86 Y-242.39
M50
G01 X601.86 Y-242.40
G03 X603.86 Y-244.40 I2.00 J0.00
M08
G40
M51
M93
G00 X312.17 Y-273.38
M94 F2750
G41 D21
N8 M07
G01 X306.57 Y-273.38
G01 X306.57 Y-322.23
G01 X273.57 Y-322.23
G01 X273.57 Y-173.50
G01 X223.57 Y-173.50
G01 X223.57 Y-322.23
G01 X190.57 Y-322.23
G01 X190.57 Y-273.38
G02 X190.65 Y-272.61 I3.89 J-0.01
G01 X210.99 Y-174.56
G02 X211.21 Y-173.86 I3.64 J-0.77
G01 X225.83 Y-140.84
G01 X271.31 Y-140.84
G01 X285.93 Y-173.86
G02 X286.15 Y-174.56 I-2.94 J-1.32
G01 X306.49 Y-272.61
G02 X306.57 Y-273.35 I-3.61 J-0.76
G01 X306.57 Y-273.37
M50
G01 X306.57 Y-273.38
G03 X308.57 Y-275.38 I2.00 J0.00
M08
G40
M51
M93
G00 X550.89 Y-294.50
M94 F2750
G41 D21
N9 M07
G01 X545.41 Y-293.35
G02 X545.19 Y-294.05 I-3.64 J0.77
G01 X530.57 Y-327.07
G01 X485.09 Y-327.07
G01 X470.47 Y-294.05
G02 X470.25 Y-293.35 I2.94 J1.32
G01 X449.91 Y-195.30
G02 X449.83 Y-194.53 I3.61 J0.76
G01 X449.83 Y-145.68
G01 X482.83 Y-145.68
G01 X482.83 Y-294.41
G01 X532.83 Y-294.41
G01 X532.83 Y-145.68
G01 X565.83 Y-145.68
G01 X565.83 Y-194.53
G02 X565.75 Y-195.29 I-3.89 J0.01
G01 X565.75 Y-195.30
G01 X545.64 Y-292.27
M50
G01 X545.41 Y-293.35
G03 X546.97 Y-295.71 I1.96 J-0.41
M08
G40
M51
M93
G00 X467.56 Y-295.17
M94 F2750
G41 D21
N10 M07
G01 X461.96 Y-295.17
G01 X461.96 Y-344.01
G01 X428.96 Y-344.01
G01 X428.96 Y-195.28
G01 X378.96 Y-195.28
G01 X378.96 Y-344.01
G01 X345.96 Y-344.01
G01 X345.96 Y-295.17
G02 X346.04 Y-294.39 I3.89 J-0.01
G01 X366.38 Y-196.35
G02 X366.60 Y-195.64 I3.64 J-0.77
G01 X381.22 Y-162.62
G01 X426.70 Y-162.62
G01 X441.32 Y-195.64
G02 X441.54 Y-196.35 I-2.94 J-1.32
G01 X461.88 Y-294.39
G02 X461.96 Y-295.14 I-3.61 J-0.76
G01 X461.96 Y-295.16
M50
G01 X461.96 Y-295.17
G03 X463.97 Y-297.16 I2.00 J0.00
M08
G40
M51
M93
G00 X167.92 Y-305.33
M94 F2750
G41 D21
N11 M07
G01 X162.32 Y-305.33
G01 X162.32 Y-354.18
G01 X129.32 Y-354.18
G01 X129.32 Y-205.45
G01 X79.32 Y-205.45
G01 X79.32 Y-354.18
G01 X46.32 Y-354.18
G01 X46.32 Y-305.33
G02 X46.39 Y-304.56 I3.89 J-0.01
G01 X66.73 Y-206.51
G02 X66.96 Y-205.81 I3.64 J-0.77
G01 X81.58 Y-172.79
G01 X127.05 Y-172.79
G01 X141.67 Y-205.81
G02 X141.90 Y-206.51 I-2.94 J-1.32
G01 X162.24 Y-304.56
G02 X162.32 Y-305.30 I-3.61 J-0.76
G01 X162.32 Y-305.32
M50
G01 X162.32 Y-305.33
G03 X164.32 Y-307.33 I2.00 J0.00
M08
G40
M51
M93
G00 X768.18 Y-305.33
M94 F2750
G41 D21
N12 M07
G01 X762.58 Y-305.33
G01 X762.58 Y-354.18
G01 X729.58 Y-354.18
G01 X729.58 Y-205.45
G01 X679.58 Y-205.45
G01 X679.58 Y-354.18
G01 X646.58 Y-354.18
G01 X646.58 Y-305.33
G02 X646.66 Y-304.56 I3.89 J-0.01
G01 X666.99 Y-206.51
G02 X667.22 Y-205.81 I3.64 J-0.77
G01 X681.84 Y-172.79
G01 X727.31 Y-172.79
G01 X741.94 Y-205.81
G02 X742.16 Y-206.51 I-2.94 J-1.32
G01 X762.50 Y-304.56
G02 X762.58 Y-305.30 I-3.61 J-0.76
G01 X762.58 Y-305.32
M50
G01 X762.58 Y-305.33
G03 X764.58 Y-307.33 I2.00 J0.00
M08
G40
M51
M93
G00 X255.60 Y-325.48
M94 F2750
G41 D21
N13 M07
G01 X250.12 Y-324.33
G02 X249.90 Y-325.03 I-3.64 J0.77
G01 X235.28 Y-358.05
G01 X189.80 Y-358.05
G01 X175.18 Y-325.03
G02 X174.96 Y-324.33 I2.94 J1.32
G01 X154.62 Y-226.28
G02 X154.54 Y-225.51 I3.61 J0.76
G01 X154.54 Y-176.66
G01 X187.54 Y-176.66
G01 X187.54 Y-325.39
G01 X237.54 Y-325.39
G01 X237.54 Y-176.66
G01 X270.54 Y-176.66
G01 X270.54 Y-225.51
G02 X270.46 Y-226.27 I-3.89 J0.01
G01 X270.46 Y-226.28
G01 X250.35 Y-323.25
M50
G01 X250.12 Y-324.33
G03 X251.68 Y-326.69 I1.96 J-0.41
M08
G40
M51
M93
G00 X410.99 Y-347.26
M94 F2750
G41 D21
N14 M07
G01 X405.51 Y-346.11
G02 X405.29 Y-346.81 I-3.64 J0.77
G01 X390.67 Y-379.83
G01 X345.19 Y-379.83
G01 X330.57 Y-346.81
G02 X330.35 Y-346.11 I2.94 J1.32
G01 X310.01 Y-248.06
G02 X309.93 Y-247.29 I3.61 J0.76
G01 X309.93 Y-198.45
G01 X342.93 Y-198.45
G01 X342.93 Y-347.17
G01 X392.93 Y-347.17
G01 X392.93 Y-198.45
G01 X425.93 Y-198.45
G01 X425.93 Y-247.29
G02 X425.85 Y-248.05 I-3.89 J0.01
G01 X425.85 Y-248.06
G01 X405.74 Y-345.03
M50
G01 X405.51 Y-346.11
G03 X407.07 Y-348.47 I1.96 J-0.41
M08
G40
M51
M93
G00 X111.35 Y-357.43
M94 F2750
G41 D21
N15 M07
G01 X105.87 Y-356.28
G02 X105.64 Y-356.98 I-3.64 J0.77
G01 X91.02 Y-390.00
G01 X45.55 Y-390.00
G01 X30.93 Y-356.98
G02 X30.70 Y-356.28 I2.94 J1.32
G01 X10.36 Y-258.23
G02 X10.28 Y-257.46 I3.61 J0.76
G01 X10.28 Y-208.61
G01 X43.28 Y-208.61
G01 X43.28 Y-357.34
G01 X93.28 Y-357.34
G01 X93.28 Y-208.61
G01 X126.28 Y-208.61
G01 X126.28 Y-257.46
G02 X126.21 Y-258.22 I-3.89 J0.01
G01 X126.21 Y-258.23
G01 X106.09 Y-355.20
M50
G01 X105.87 Y-356.28
G03 X107.42 Y-358.64 I1.96 J-0.41
M08
G40
M51
M93
G00 X711.61 Y-357.43
M94 F2750
G41 D21
N16 M07
G01 X706.13 Y-356.28
G02 X705.90 Y-356.98 I-3.64 J0.77
G01 X691.28 Y-390.00
G01 X645.81 Y-390.00
G01 X631.19 Y-356.98
G02 X630.96 Y-356.28 I2.94 J1.32
G01 X610.62 Y-258.23
G02 X610.55 Y-257.46 I3.61 J0.76
G01 X610.55 Y-208.61
G01 X643.55 Y-208.61
G01 X643.55 Y-357.34
G01 X693.55 Y-357.34
G01 X693.55 Y-208.61
G01 X726.55 Y-208.61
G01 X726.55 Y-257.46
G02 X726.47 Y-258.22 I-3.89 J0.01
G01 X726.47 Y-258.23
G01 X706.35 Y-355.20
M50
G01 X706.13 Y-356.28
G03 X707.68 Y-358.64 I1.96 J-0.41
M08
G40
M51
M93
(PlanFooterCommand)
M64
T0
M65
#CS OFF
M30
