(PP_NAME=	  PP_Din)
(PP_VERSION=	  4.0)
(PP_INI_NAME=	  GC_PLASMA_4.5.ini)
(PP_INI_VERSION=  2014-02-26)
(PLANNAME=        lasker)
(MACHINE= 	  PowerMAX105_MS_45)
(MATERIAL= 	  S235JR)
(THICKNESS= 	  5)
#CONTOUR MODE [DEV PATH_DEV=0.2 RELEVANT_PATH=0.1]
#TRC [CONV_CIR_TO_LIN=1]
G71
G90
#CS ON [V.A.ABS.X, V.A.ABS.Y, 0, 0, 0, V.E.ROTATION]
M190
G162
G141
G237
G00 X188.63 Y-96.77
M64
T21
M65
M94 F1222
G41 D21
N1 M07
G01 X194.08 Y-91.33
M50
G03 X189.48 Y-89.42 I-4.60 J-4.60
G03 X182.98 Y-95.92 I0.00 J-6.50
G03 X189.48 Y-102.42 I6.50 J0.00
G03 X195.98 Y-95.92 I0.00 J6.50
G03 X194.08 Y-91.33 I-6.50 J0.00
G03 X192.82 Y-90.34 I-4.60 J-4.60
M08
G40
M51
M93
G00 X188.63 Y-44.77
M94 F1222
G41 D21
N2 M07
G01 X194.08 Y-39.33
M50
G03 X189.48 Y-37.42 I-4.60 J-4.60
G03 X182.98 Y-43.92 I0.00 J-6.50
G03 X189.48 Y-50.42 I6.50 J0.00
G03 X195.98 Y-43.92 I0.00 J6.50
G03 X194.08 Y-39.33 I-6.50 J0.00
G03 X192.82 Y-38.34 I-4.60 J-4.60
M08
G40
M51
M93
G00 X46.19 Y-161.73
M94 F1700
G41 D21
N3 M07
G01 X51.63 Y-156.29
G03 X41.03 Y-151.90 I-10.61 J-10.61
G03 X26.03 Y-166.90 I0.00 J-15.00
G03 X41.03 Y-181.90 I15.00 J0.00
G03 X56.03 Y-166.90 I0.00 J15.00
G03 X52.64 Y-157.40 I-15.00 J0.00
M50
G03 X51.63 Y-156.29 I-11.61 J-9.49
G03 X50.44 Y-155.22 I-10.61 J-10.61
M08
G40
M51
M93
G00 X40.18 Y-44.77
M94 F1222
G41 D21
N4 M07
G01 X45.62 Y-39.33
M50
G03 X41.03 Y-37.42 I-4.60 J-4.60
G03 X34.53 Y-43.92 I0.00 J-6.50
G03 X41.03 Y-50.42 I6.50 J0.00
G03 X47.53 Y-43.92 I0.00 J6.50
G03 X45.62 Y-39.33 I-6.50 J0.00
G03 X44.36 Y-38.34 I-4.60 J-4.60
M08
G40
M51
M93
G00 X40.18 Y-96.77
M94 F1222
G41 D21
N5 M07
G01 X45.62 Y-91.33
M50
G03 X41.03 Y-89.42 I-4.60 J-4.60
G03 X34.53 Y-95.92 I0.00 J-6.50
G03 X41.03 Y-102.42 I6.50 J0.00
G03 X47.53 Y-95.92 I0.00 J6.50
G03 X45.62 Y-91.33 I-6.50 J-0.00
G03 X44.36 Y-90.34 I-4.60 J-4.60
M08
G40
M51
M93
G00 X221.04 Y-10.22
M94 F1700
G41 D21
N6 M07
G01 X221.04 Y-17.92
G01 X221.04 Y-197.92
G01 X10.00 Y-197.92
G01 X10.00 Y-17.92
G01 X103.97 Y-17.92
G02 X113.97 Y-27.92 I0.00 J-10.00
G01 X113.97 Y-29.75
G03 X132.47 Y-48.25 I18.50 J-0.00
G03 X150.97 Y-29.75 I0.00 J18.50
G01 X150.97 Y-27.92
G02 X155.85 Y-19.33 I10.00 J-0.00
G02 X157.93 Y-18.21 I4.66 J-6.15
G01 X160.38 Y-17.92
G01 X219.54 Y-17.92
M50
G01 X221.04 Y-17.92
G03 X222.84 Y-16.12 I0.00 J1.80
M08
G40
M51
M93
G00 X403.87 Y-99.81
M94 F1222
G41 D21
N7 M07
G01 X409.32 Y-94.37
M50
G03 X404.72 Y-92.46 I-4.60 J-4.60
G03 X398.22 Y-98.96 I0.00 J-6.50
G03 X404.72 Y-105.46 I6.50 J0.00
G03 X411.22 Y-98.96 I0.00 J6.50
G03 X409.32 Y-94.37 I-6.50 J-0.00
G03 X408.06 Y-93.39 I-4.60 J-4.60
M08
G40
M51
M93
G00 X403.87 Y-47.81
M94 F1222
G41 D21
N8 M07
G01 X409.32 Y-42.37
M50
G03 X404.72 Y-40.46 I-4.60 J-4.60
G03 X398.22 Y-46.96 I0.00 J-6.50
G03 X404.72 Y-53.46 I6.50 J0.00
G03 X411.22 Y-46.96 I0.00 J6.50
G03 X409.32 Y-42.37 I-6.50 J-0.00
G03 X408.06 Y-41.39 I-4.60 J-4.60
M08
G40
M51
M93
G00 X261.42 Y-164.77
M94 F1700
G41 D21
N9 M07
G01 X266.87 Y-159.33
G03 X256.26 Y-154.94 I-10.61 J-10.61
G03 X241.26 Y-169.94 I0.00 J-15.00
G03 X256.26 Y-184.94 I15.00 J0.00
G03 X271.26 Y-169.94 I0.00 J15.00
G03 X267.87 Y-160.44 I-15.00 J0.00
M50
G03 X266.87 Y-159.33 I-11.61 J-9.49
G03 X265.68 Y-158.26 I-10.61 J-10.61
M08
G40
M51
M93
G00 X255.41 Y-47.81
M94 F1222
G41 D21
N10 M07
G01 X260.86 Y-42.37
M50
G03 X256.26 Y-40.46 I-4.60 J-4.60
G03 X249.76 Y-46.96 I0.00 J-6.50
G03 X256.26 Y-53.46 I6.50 J0.00
G03 X262.76 Y-46.96 I0.00 J6.50
G03 X260.86 Y-42.37 I-6.50 J-0.00
G03 X259.60 Y-41.39 I-4.60 J-4.60
M08
G40
M51
M93
G00 X255.41 Y-99.81
M94 F1222
G41 D21
N11 M07
G01 X260.86 Y-94.37
M50
G03 X256.26 Y-92.46 I-4.60 J-4.60
G03 X249.76 Y-98.96 I0.00 J-6.50
G03 X256.26 Y-105.46 I6.50 J0.00
G03 X262.76 Y-98.96 I0.00 J6.50
G03 X260.86 Y-94.37 I-6.50 J-0.00
G03 X259.60 Y-93.39 I-4.60 J-4.60
M08
G40
M51
M93
G00 X436.27 Y-13.26
M94 F1700
G41 D21
N12 M07
G01 X436.27 Y-20.96
G01 X436.27 Y-200.96
G01 X225.24 Y-200.96
G01 X225.24 Y-20.96
G01 X319.20 Y-20.96
G02 X329.20 Y-30.96 I0.00 J-10.00
G01 X329.20 Y-32.79
G03 X347.70 Y-51.29 I18.50 J0.00
G03 X366.20 Y-32.79 I0.00 J18.50
G01 X366.20 Y-30.96
G02 X371.09 Y-22.37 I10.00 J-0.00
G02 X373.16 Y-21.25 I4.66 J-6.15
G01 X375.61 Y-20.96
G01 X434.77 Y-20.96
M50
G01 X436.27 Y-20.96
G03 X438.07 Y-19.16 I0.00 J1.80
M08
G40
M51
M93
G00 X619.11 Y-102.85
M94 F1222
G41 D21
N13 M07
G01 X624.55 Y-97.41
M50
G03 X619.96 Y-95.50 I-4.60 J-4.60
G03 X613.46 Y-102.00 I0.00 J-6.50
G03 X619.96 Y-108.50 I6.50 J0.00
G03 X626.46 Y-102.00 I0.00 J6.50
G03 X624.55 Y-97.41 I-6.50 J-0.00
G03 X623.29 Y-96.43 I-4.60 J-4.60
M08
G40
M51
M93
G00 X619.11 Y-50.85
M94 F1222
G41 D21
N14 M07
G01 X624.55 Y-45.41
M50
G03 X619.96 Y-43.50 I-4.60 J-4.60
G03 X613.46 Y-50.00 I0.00 J-6.50
G03 X619.96 Y-56.50 I6.50 J0.00
G03 X626.46 Y-50.00 I0.00 J6.50
G03 X624.55 Y-45.41 I-6.50 J-0.00
G03 X623.29 Y-44.43 I-4.60 J-4.60
M08
G40
M51
M93
G00 X476.66 Y-167.82
M94 F1700
G41 D21
N15 M07
G01 X482.11 Y-162.37
G03 X471.50 Y-157.98 I-10.61 J-10.61
G03 X456.50 Y-172.98 I0.00 J-15.00
G03 X471.50 Y-187.98 I15.00 J0.00
G03 X486.50 Y-172.98 I0.00 J15.00
G03 X483.11 Y-163.48 I-15.00 J0.00
M50
G03 X482.11 Y-162.37 I-11.61 J-9.49
G03 X480.92 Y-161.30 I-10.61 J-10.61
M08
G40
M51
M93
G00 X470.65 Y-50.85
M94 F1222
G41 D21
N16 M07
G01 X476.09 Y-45.41
M50
G03 X471.50 Y-43.50 I-4.60 J-4.60
G03 X465.00 Y-50.00 I0.00 J-6.50
G03 X471.50 Y-56.50 I6.50 J0.00
G03 X478.00 Y-50.00 I0.00 J6.50
G03 X476.09 Y-45.41 I-6.50 J-0.00
G03 X474.84 Y-44.43 I-4.60 J-4.60
M08
G40
M51
M93
G00 X470.65 Y-102.85
M94 F1222
G41 D21
N17 M07
G01 X476.09 Y-97.41
M50
G03 X471.50 Y-95.50 I-4.60 J-4.60
G03 X465.00 Y-102.00 I0.00 J-6.50
G03 X471.50 Y-108.50 I6.50 J0.00
G03 X478.00 Y-102.00 I0.00 J6.50
G03 X476.09 Y-97.41 I-6.50 J-0.00
G03 X474.84 Y-96.43 I-4.60 J-4.60
M08
G40
M51
M93
G00 X651.51 Y-16.30
M94 F1700
G41 D21
N18 M07
G01 X651.51 Y-24.00
G01 X651.51 Y-204.00
G01 X440.47 Y-204.00
G01 X440.47 Y-24.00
G01 X534.44 Y-24.00
G02 X544.44 Y-34.00 I0.00 J-10.00
G01 X544.44 Y-35.83
G03 X562.94 Y-54.33 I18.50 J0.00
G03 X581.44 Y-35.83 I0.00 J18.50
G01 X581.44 Y-34.00
G02 X586.32 Y-25.41 I10.00 J-0.00
G02 X588.40 Y-24.29 I4.66 J-6.15
G01 X590.85 Y-24.00
G01 X650.01 Y-24.00
M50
G01 X651.51 Y-24.00
G03 X653.31 Y-22.20 I0.00 J1.80
M08
G40
M51
M93
G00 X834.34 Y-105.89
M94 F1222
G41 D21
N19 M07
G01 X839.79 Y-100.45
M50
G03 X835.19 Y-98.54 I-4.60 J-4.60
G03 X828.69 Y-105.04 I0.00 J-6.50
G03 X835.19 Y-111.54 I6.50 J0.00
G03 X841.69 Y-105.04 I0.00 J6.50
G03 X839.79 Y-100.45 I-6.50 J-0.00
G03 X838.53 Y-99.47 I-4.60 J-4.60
M08
G40
M51
M93
G00 X834.34 Y-53.89
M94 F1222
G41 D21
N20 M07
G01 X839.79 Y-48.45
M50
G03 X835.19 Y-46.54 I-4.60 J-4.60
G03 X828.69 Y-53.04 I0.00 J-6.50
G03 X835.19 Y-59.54 I6.50 J0.00
G03 X841.69 Y-53.04 I0.00 J6.50
G03 X839.79 Y-48.45 I-6.50 J-0.00
G03 X838.53 Y-47.47 I-4.60 J-4.60
M08
G40
M51
M93
G00 X691.90 Y-170.86
M94 F1700
G41 D21
N21 M07
G01 X697.34 Y-165.41
G03 X686.74 Y-161.02 I-10.61 J-10.61
G03 X671.74 Y-176.02 I0.00 J-15.00
G03 X686.74 Y-191.02 I15.00 J0.00
G03 X701.74 Y-176.02 I0.00 J15.00
G03 X698.35 Y-166.52 I-15.00 J-0.00
M50
G03 X697.34 Y-165.41 I-11.61 J-9.49
G03 X696.15 Y-164.34 I-10.61 J-10.61
M08
G40
M51
M93
G00 X685.89 Y-53.89
M94 F1222
G41 D21
N22 M07
G01 X691.33 Y-48.45
M50
G03 X686.74 Y-46.54 I-4.60 J-4.60
G03 X680.24 Y-53.04 I0.00 J-6.50
G03 X686.74 Y-59.54 I6.50 J0.00
G03 X693.24 Y-53.04 I0.00 J6.50
G03 X691.33 Y-48.45 I-6.50 J-0.00
G03 X690.07 Y-47.47 I-4.60 J-4.60
M08
G40
M51
M93
G00 X685.89 Y-105.89
M94 F1222
G41 D21
N23 M07
G01 X691.33 Y-100.45
M50
G03 X686.74 Y-98.54 I-4.60 J-4.60
G03 X680.24 Y-105.04 I0.00 J-6.50
G03 X686.74 Y-111.54 I6.50 J0.00
G03 X693.24 Y-105.04 I0.00 J6.50
G03 X691.33 Y-100.45 I-6.50 J-0.00
G03 X690.07 Y-99.47 I-4.60 J-4.60
M08
G40
M51
M93
G00 X866.75 Y-19.34
M94 F1700
G41 D21
N24 M07
G01 X866.75 Y-27.04
G01 X866.75 Y-207.04
G01 X655.71 Y-207.04
G01 X655.71 Y-27.04
G01 X749.67 Y-27.04
G02 X759.67 Y-37.04 I0.00 J-10.00
G01 X759.67 Y-38.87
G03 X778.17 Y-57.37 I18.50 J0.00
G03 X796.67 Y-38.87 I0.00 J18.50
G01 X796.67 Y-37.04
G02 X801.56 Y-28.45 I10.00 J0.00
G02 X803.64 Y-27.33 I4.66 J-6.15
G01 X806.09 Y-27.04
G01 X865.25 Y-27.04
M50
G01 X866.75 Y-27.04
G03 X868.55 Y-25.24 I0.00 J1.80
M08
G40
M51
M93
G00 X188.63 Y-288.69
M94 F1222
G41 D21
N25 M07
G01 X194.08 Y-283.25
M50
G03 X189.48 Y-281.34 I-4.60 J-4.60
G03 X182.98 Y-287.84 I0.00 J-6.50
G03 X189.48 Y-294.34 I6.50 J0.00
G03 X195.98 Y-287.84 I0.00 J6.50
G03 X194.08 Y-283.25 I-6.50 J0.00
G03 X192.82 Y-282.27 I-4.60 J-4.60
M08
G40
M51
M93
G00 X188.63 Y-236.69
M94 F1222
G41 D21
N26 M07
G01 X194.08 Y-231.25
M50
G03 X189.48 Y-229.34 I-4.60 J-4.60
G03 X182.98 Y-235.84 I0.00 J-6.50
G03 X189.48 Y-242.34 I6.50 J0.00
G03 X195.98 Y-235.84 I0.00 J6.50
G03 X194.08 Y-231.25 I-6.50 J0.00
G03 X192.82 Y-230.27 I-4.60 J-4.60
M08
G40
M51
M93
G00 X46.19 Y-353.66
M94 F1700
G41 D21
N27 M07
G01 X51.63 Y-348.21
G03 X41.03 Y-343.82 I-10.61 J-10.61
G03 X26.03 Y-358.82 I0.00 J-15.00
G03 X41.03 Y-373.82 I15.00 J0.00
G03 X56.03 Y-358.82 I0.00 J15.00
G03 X52.64 Y-349.32 I-15.00 J0.00
M50
G03 X51.63 Y-348.21 I-11.61 J-9.49
G03 X50.44 Y-347.14 I-10.61 J-10.61
M08
G40
M51
M93
G00 X40.18 Y-236.69
M94 F1222
G41 D21
N28 M07
G01 X45.62 Y-231.25
M50
G03 X41.03 Y-229.34 I-4.60 J-4.60
G03 X34.53 Y-235.84 I0.00 J-6.50
G03 X41.03 Y-242.34 I6.50 J0.00
G03 X47.53 Y-235.84 I0.00 J6.50
G03 X45.62 Y-231.25 I-6.50 J0.00
G03 X44.36 Y-230.27 I-4.60 J-4.60
M08
G40
M51
M93
G00 X40.18 Y-288.69
M94 F1222
G41 D21
N29 M07
G01 X45.62 Y-283.25
M50
G03 X41.03 Y-281.34 I-4.60 J-4.60
G03 X34.53 Y-287.84 I0.00 J-6.50
G03 X41.03 Y-294.34 I6.50 J0.00
G03 X47.53 Y-287.84 I0.00 J6.50
G03 X45.62 Y-283.25 I-6.50 J0.00
G03 X44.36 Y-282.27 I-4.60 J-4.60
M08
G40
M51
M93
G00 X221.04 Y-202.14
M94 F1700
G41 D21
N30 M07
G01 X221.04 Y-209.84
G01 X221.04 Y-389.84
G01 X10.00 Y-389.84
G01 X10.00 Y-209.84
G01 X103.97 Y-209.84
G02 X113.97 Y-219.84 I0.00 J-10.00
G01 X113.97 Y-221.67
G03 X132.47 Y-240.17 I18.50 J0.00
G03 X150.97 Y-221.67 I0.00 J18.50
G01 X150.97 Y-219.84
G02 X155.85 Y-211.25 I10.00 J-0.00
G02 X157.93 Y-210.13 I4.66 J-6.15
G01 X160.38 Y-209.84
G01 X219.54 Y-209.84
M50
G01 X221.04 Y-209.84
G03 X222.84 Y-208.04 I0.00 J1.80
M08
G40
M51
M93
G00 X403.87 Y-291.73
M94 F1222
G41 D21
N31 M07
G01 X409.32 Y-286.29
M50
G03 X404.72 Y-284.38 I-4.60 J-4.60
G03 X398.22 Y-290.88 I0.00 J-6.50
G03 X404.72 Y-297.38 I6.50 J0.00
G03 X411.22 Y-290.88 I0.00 J6.50
G03 X409.32 Y-286.29 I-6.50 J-0.00
G03 X408.06 Y-285.31 I-4.60 J-4.60
M08
G40
M51
M93
G00 X403.87 Y-239.73
M94 F1222
G41 D21
N32 M07
G01 X409.32 Y-234.29
M50
G03 X404.72 Y-232.38 I-4.60 J-4.60
G03 X398.22 Y-238.88 I0.00 J-6.50
G03 X404.72 Y-245.38 I6.50 J0.00
G03 X411.22 Y-238.88 I0.00 J6.50
G03 X409.32 Y-234.29 I-6.50 J-0.00
G03 X408.06 Y-233.31 I-4.60 J-4.60
M08
G40
M51
M93
G00 X261.42 Y-356.70
M94 F1700
G41 D21
N33 M07
G01 X266.87 Y-351.25
G03 X256.26 Y-346.86 I-10.61 J-10.61
G03 X241.26 Y-361.86 I0.00 J-15.00
G03 X256.26 Y-376.86 I15.00 J0.00
G03 X271.26 Y-361.86 I0.00 J15.00
G03 X267.87 Y-352.36 I-15.00 J0.00
M50
G03 X266.87 Y-351.25 I-11.61 J-9.49
G03 X265.68 Y-350.18 I-10.61 J-10.61
M08
G40
M51
M93
G00 X255.41 Y-239.73
M94 F1222
G41 D21
N34 M07
G01 X260.86 Y-234.29
M50
G03 X256.26 Y-232.38 I-4.60 J-4.60
G03 X249.76 Y-238.88 I0.00 J-6.50
G03 X256.26 Y-245.38 I6.50 J0.00
G03 X262.76 Y-238.88 I0.00 J6.50
G03 X260.86 Y-234.29 I-6.50 J-0.00
G03 X259.60 Y-233.31 I-4.60 J-4.60
M08
G40
M51
M93
G00 X255.41 Y-291.73
M94 F1222
G41 D21
N35 M07
G01 X260.86 Y-286.29
M50
G03 X256.26 Y-284.38 I-4.60 J-4.60
G03 X249.76 Y-290.88 I0.00 J-6.50
G03 X256.26 Y-297.38 I6.50 J0.00
G03 X262.76 Y-290.88 I0.00 J6.50
G03 X260.86 Y-286.29 I-6.50 J-0.00
G03 X259.60 Y-285.31 I-4.60 J-4.60
M08
G40
M51
M93
G00 X436.27 Y-205.18
M94 F1700
G41 D21
N36 M07
G01 X436.27 Y-212.88
G01 X436.27 Y-392.88
G01 X225.24 Y-392.88
G01 X225.24 Y-212.88
G01 X319.20 Y-212.88
G02 X329.20 Y-222.88 I0.00 J-10.00
G01 X329.20 Y-224.71
G03 X347.70 Y-243.21 I18.50 J0.00
G03 X366.20 Y-224.71 I0.00 J18.50
G01 X366.20 Y-222.88
G02 X371.09 Y-214.29 I10.00 J-0.00
G02 X373.16 Y-213.17 I4.66 J-6.15
G01 X375.61 Y-212.88
G01 X434.77 Y-212.88
M50
G01 X436.27 Y-212.88
G03 X438.07 Y-211.08 I0.00 J1.80
M08
G40
M51
M93
G00 X619.11 Y-294.77
M94 F1222
G41 D21
N37 M07
G01 X624.55 Y-289.33
M50
G03 X619.96 Y-287.43 I-4.60 J-4.60
G03 X613.46 Y-293.93 I0.00 J-6.50
G03 X619.96 Y-300.43 I6.50 J0.00
G03 X626.46 Y-293.93 I0.00 J6.50
G03 X624.55 Y-289.33 I-6.50 J-0.00
G03 X623.29 Y-288.35 I-4.60 J-4.60
M08
G40
M51
M93
G00 X619.11 Y-242.77
M94 F1222
G41 D21
N38 M07
G01 X624.55 Y-237.33
M50
G03 X619.96 Y-235.43 I-4.60 J-4.60
G03 X613.46 Y-241.93 I0.00 J-6.50
G03 X619.96 Y-248.43 I6.50 J0.00
G03 X626.46 Y-241.93 I0.00 J6.50
G03 X624.55 Y-237.33 I-6.50 J0.00
G03 X623.29 Y-236.35 I-4.60 J-4.60
M08
G40
M51
M93
G00 X476.66 Y-359.74
M94 F1700
G41 D21
N39 M07
G01 X482.11 Y-354.29
G03 X471.50 Y-349.90 I-10.61 J-10.61
G03 X456.50 Y-364.90 I0.00 J-15.00
G03 X471.50 Y-379.90 I15.00 J0.00
G03 X486.50 Y-364.90 I0.00 J15.00
G03 X483.11 Y-355.40 I-15.00 J-0.00
M50
G03 X482.11 Y-354.29 I-11.61 J-9.49
G03 X480.92 Y-353.22 I-10.61 J-10.61
M08
G40
M51
M93
G00 X470.65 Y-242.77
M94 F1222
G41 D21
N40 M07
G01 X476.09 Y-237.33
M50
G03 X471.50 Y-235.43 I-4.60 J-4.60
G03 X465.00 Y-241.93 I0.00 J-6.50
G03 X471.50 Y-248.43 I6.50 J0.00
G03 X478.00 Y-241.93 I0.00 J6.50
G03 X476.09 Y-237.33 I-6.50 J0.00
G03 X474.84 Y-236.35 I-4.60 J-4.60
M08
G40
M51
M93
G00 X470.65 Y-294.77
M94 F1222
G41 D21
N41 M07
G01 X476.09 Y-289.33
M50
G03 X471.50 Y-287.43 I-4.60 J-4.60
G03 X465.00 Y-293.93 I0.00 J-6.50
G03 X471.50 Y-300.43 I6.50 J0.00
G03 X478.00 Y-293.93 I0.00 J6.50
G03 X476.09 Y-289.33 I-6.50 J-0.00
G03 X474.84 Y-288.35 I-4.60 J-4.60
M08
G40
M51
M93
G00 X651.51 Y-208.23
M94 F1700
G41 D21
N42 M07
G01 X651.51 Y-215.93
G01 X651.51 Y-395.93
G01 X440.47 Y-395.93
G01 X440.47 Y-215.93
G01 X534.44 Y-215.93
G02 X544.44 Y-225.93 I0.00 J-10.00
G01 X544.44 Y-227.75
G03 X562.94 Y-246.25 I18.50 J0.00
G03 X581.44 Y-227.75 I0.00 J18.50
G01 X581.44 Y-225.93
G02 X586.32 Y-217.33 I10.00 J-0.00
G02 X588.40 Y-216.21 I4.66 J-6.15
G01 X590.85 Y-215.93
G01 X650.01 Y-215.93
M50
G01 X651.51 Y-215.93
G03 X653.31 Y-214.13 I0.00 J1.80
M08
G40
M51
M93
G00 X834.34 Y-297.82
M94 F1222
G41 D21
N43 M07
G01 X839.79 Y-292.37
M50
G03 X835.19 Y-290.47 I-4.60 J-4.60
G03 X828.69 Y-296.97 I0.00 J-6.50
G03 X835.19 Y-303.47 I6.50 J0.00
G03 X841.69 Y-296.97 I0.00 J6.50
G03 X839.79 Y-292.37 I-6.50 J-0.00
G03 X838.53 Y-291.39 I-4.60 J-4.60
M08
G40
M51
M93
G00 X834.34 Y-245.82
M94 F1222
G41 D21
N44 M07
G01 X839.79 Y-240.37
M50
G03 X835.19 Y-238.47 I-4.60 J-4.60
G03 X828.69 Y-244.97 I0.00 J-6.50
G03 X835.19 Y-251.47 I6.50 J0.00
G03 X841.69 Y-244.97 I0.00 J6.50
G03 X839.79 Y-240.37 I-6.50 J0.00
G03 X838.53 Y-239.39 I-4.60 J-4.60
M08
G40
M51
M93
G00 X691.90 Y-362.78
M94 F1700
G41 D21
N45 M07
G01 X697.34 Y-357.33
G03 X686.74 Y-352.94 I-10.61 J-10.61
G03 X671.74 Y-367.94 I0.00 J-15.00
G03 X686.74 Y-382.94 I15.00 J0.00
G03 X701.74 Y-367.94 I0.00 J15.00
G03 X698.35 Y-358.45 I-15.00 J-0.00
M50
G03 X697.34 Y-357.33 I-11.61 J-9.49
G03 X696.15 Y-356.27 I-10.61 J-10.61
M08
G40
M51
M93
G00 X685.89 Y-245.82
M94 F1222
G41 D21
N46 M07
G01 X691.33 Y-240.37
M50
G03 X686.74 Y-238.47 I-4.60 J-4.60
G03 X680.24 Y-244.97 I0.00 J-6.50
G03 X686.74 Y-251.47 I6.50 J0.00
G03 X693.24 Y-244.97 I0.00 J6.50
G03 X691.33 Y-240.37 I-6.50 J0.00
G03 X690.07 Y-239.39 I-4.60 J-4.60
M08
G40
M51
M93
G00 X685.89 Y-297.82
M94 F1222
G41 D21
N47 M07
G01 X691.33 Y-292.37
M50
G03 X686.74 Y-290.47 I-4.60 J-4.60
G03 X680.24 Y-296.97 I0.00 J-6.50
G03 X686.74 Y-303.47 I6.50 J0.00
G03 X693.24 Y-296.97 I0.00 J6.50
G03 X691.33 Y-292.37 I-6.50 J-0.00
G03 X690.07 Y-291.39 I-4.60 J-4.60
M08
G40
M51
M93
G00 X866.75 Y-211.27
M94 F1700
G41 D21
N48 M07
G01 X866.75 Y-218.97
G01 X866.75 Y-398.97
G01 X655.71 Y-398.97
G01 X655.71 Y-218.97
G01 X749.67 Y-218.97
G02 X759.67 Y-228.97 I0.00 J-10.00
G01 X759.67 Y-230.79
G03 X778.17 Y-249.29 I18.50 J0.00
G03 X796.67 Y-230.79 I0.00 J18.50
G01 X796.67 Y-228.97
G02 X801.56 Y-220.37 I10.00 J0.00
G02 X803.64 Y-219.25 I4.66 J-6.15
G01 X806.09 Y-218.97
G01 X865.25 Y-218.97
M50
G01 X866.75 Y-218.97
G03 X868.55 Y-217.17 I0.00 J1.80
M08
G40
M51
M93
G00 X188.63 Y-480.61
M94 F1222
G41 D21
N49 M07
G01 X194.08 Y-475.17
M50
G03 X189.48 Y-473.27 I-4.60 J-4.60
G03 X182.98 Y-479.77 I0.00 J-6.50
G03 X189.48 Y-486.27 I6.50 J0.00
G03 X195.98 Y-479.77 I0.00 J6.50
G03 X194.08 Y-475.17 I-6.50 J0.00
G03 X192.82 Y-474.19 I-4.60 J-4.60
M08
G40
M51
M93
G00 X188.63 Y-428.61
M94 F1222
G41 D21
N50 M07
G01 X194.08 Y-423.17
M50
G03 X189.48 Y-421.27 I-4.60 J-4.60
G03 X182.98 Y-427.77 I0.00 J-6.50
G03 X189.48 Y-434.27 I6.50 J0.00
G03 X195.98 Y-427.77 I0.00 J6.50
G03 X194.08 Y-423.17 I-6.50 J0.00
G03 X192.82 Y-422.19 I-4.60 J-4.60
M08
G40
M51
M93
G00 X46.19 Y-545.58
M94 F1700
G41 D21
N51 M07
G01 X51.63 Y-540.13
G03 X41.03 Y-535.74 I-10.61 J-10.61
G03 X26.03 Y-550.74 I0.00 J-15.00
G03 X41.03 Y-565.74 I15.00 J0.00
G03 X56.03 Y-550.74 I0.00 J15.00
G03 X52.64 Y-541.24 I-15.00 J0.00
M50
G03 X51.63 Y-540.13 I-11.61 J-9.49
G03 X50.44 Y-539.06 I-10.61 J-10.61
M08
G40
M51
M93
G00 X40.18 Y-428.61
M94 F1222
G41 D21
N52 M07
G01 X45.62 Y-423.17
M50
G03 X41.03 Y-421.27 I-4.60 J-4.60
G03 X34.53 Y-427.77 I0.00 J-6.50
G03 X41.03 Y-434.27 I6.50 J0.00
G03 X47.53 Y-427.77 I0.00 J6.50
G03 X45.62 Y-423.17 I-6.50 J0.00
G03 X44.36 Y-422.19 I-4.60 J-4.60
M08
G40
M51
M93
G00 X40.18 Y-480.61
M94 F1222
G41 D21
N53 M07
G01 X45.62 Y-475.17
M50
G03 X41.03 Y-473.27 I-4.60 J-4.60
G03 X34.53 Y-479.77 I0.00 J-6.50
G03 X41.03 Y-486.27 I6.50 J0.00
G03 X47.53 Y-479.77 I0.00 J6.50
G03 X45.62 Y-475.17 I-6.50 J0.00
G03 X44.36 Y-474.19 I-4.60 J-4.60
M08
G40
M51
M93
G00 X221.04 Y-394.07
M94 F1700
G41 D21
N54 M07
G01 X221.04 Y-401.77
G01 X221.04 Y-581.77
G01 X10.00 Y-581.77
G01 X10.00 Y-401.77
G01 X103.97 Y-401.77
G02 X113.97 Y-411.77 I0.00 J-10.00
G01 X113.97 Y-413.59
G03 X132.47 Y-432.09 I18.50 J0.00
G03 X150.97 Y-413.59 I0.00 J18.50
G01 X150.97 Y-411.77
G02 X155.85 Y-403.17 I10.00 J-0.00
G02 X157.93 Y-402.05 I4.66 J-6.15
G01 X160.38 Y-401.77
G01 X219.54 Y-401.77
M50
G01 X221.04 Y-401.77
G03 X222.84 Y-399.97 I0.00 J1.80
M08
G40
M51
M93
G00 X403.87 Y-483.66
M94 F1222
G41 D21
N55 M07
G01 X409.32 Y-478.21
M50
G03 X404.72 Y-476.31 I-4.60 J-4.60
G03 X398.22 Y-482.81 I0.00 J-6.50
G03 X404.72 Y-489.31 I6.50 J0.00
G03 X411.22 Y-482.81 I0.00 J6.50
G03 X409.32 Y-478.21 I-6.50 J-0.00
G03 X408.06 Y-477.23 I-4.60 J-4.60
M08
G40
M51
M93
G00 X403.87 Y-431.66
M94 F1222
G41 D21
N56 M07
G01 X409.32 Y-426.21
M50
G03 X404.72 Y-424.31 I-4.60 J-4.60
G03 X398.22 Y-430.81 I0.00 J-6.50
G03 X404.72 Y-437.31 I6.50 J0.00
G03 X411.22 Y-430.81 I0.00 J6.50
G03 X409.32 Y-426.21 I-6.50 J-0.00
G03 X408.06 Y-425.23 I-4.60 J-4.60
M08
G40
M51
M93
G00 X261.42 Y-548.62
M94 F1700
G41 D21
N57 M07
G01 X266.87 Y-543.17
G03 X256.26 Y-538.78 I-10.61 J-10.61
G03 X241.26 Y-553.78 I0.00 J-15.00
G03 X256.26 Y-568.78 I15.00 J0.00
G03 X271.26 Y-553.78 I0.00 J15.00
G03 X267.87 Y-544.29 I-15.00 J-0.00
M50
G03 X266.87 Y-543.17 I-11.61 J-9.49
G03 X265.68 Y-542.11 I-10.61 J-10.61
M08
G40
M51
M93
G00 X255.41 Y-431.66
M94 F1222
G41 D21
N58 M07
G01 X260.86 Y-426.21
M50
G03 X256.26 Y-424.31 I-4.60 J-4.60
G03 X249.76 Y-430.81 I0.00 J-6.50
G03 X256.26 Y-437.31 I6.50 J0.00
G03 X262.76 Y-430.81 I0.00 J6.50
G03 X260.86 Y-426.21 I-6.50 J-0.00
G03 X259.60 Y-425.23 I-4.60 J-4.60
M08
G40
M51
M93
G00 X255.41 Y-483.66
M94 F1222
G41 D21
N59 M07
G01 X260.86 Y-478.21
M50
G03 X256.26 Y-476.31 I-4.60 J-4.60
G03 X249.76 Y-482.81 I0.00 J-6.50
G03 X256.26 Y-489.31 I6.50 J0.00
G03 X262.76 Y-482.81 I0.00 J6.50
G03 X260.86 Y-478.21 I-6.50 J-0.00
G03 X259.60 Y-477.23 I-4.60 J-4.60
M08
G40
M51
M93
G00 X436.27 Y-397.11
M94 F1700
G41 D21
N60 M07
G01 X436.27 Y-404.81
G01 X436.27 Y-584.81
G01 X225.24 Y-584.81
G01 X225.24 Y-404.81
G01 X319.20 Y-404.81
G02 X329.20 Y-414.81 I0.00 J-10.00
G01 X329.20 Y-416.63
G03 X347.70 Y-435.13 I18.50 J0.00
G03 X366.20 Y-416.63 I0.00 J18.50
G01 X366.20 Y-414.81
G02 X371.09 Y-406.21 I10.00 J-0.00
G02 X373.16 Y-405.09 I4.66 J-6.15
G01 X375.61 Y-404.81
G01 X434.77 Y-404.81
M50
G01 X436.27 Y-404.81
G03 X438.07 Y-403.01 I0.00 J1.80
M08
G40
M51
M93
G00 X619.11 Y-486.70
M94 F1222
G41 D21
N61 M07
G01 X624.55 Y-481.25
M50
G03 X619.96 Y-479.35 I-4.60 J-4.60
G03 X613.46 Y-485.85 I0.00 J-6.50
G03 X619.96 Y-492.35 I6.50 J0.00
G03 X626.46 Y-485.85 I0.00 J6.50
G03 X624.55 Y-481.25 I-6.50 J-0.00
G03 X623.29 Y-480.27 I-4.60 J-4.60
M08
G40
M51
M93
G00 X619.11 Y-434.70
M94 F1222
G41 D21
N62 M07
G01 X624.55 Y-429.25
M50
G03 X619.96 Y-427.35 I-4.60 J-4.60
G03 X613.46 Y-433.85 I0.00 J-6.50
G03 X619.96 Y-440.35 I6.50 J0.00
G03 X626.46 Y-433.85 I0.00 J6.50
G03 X624.55 Y-429.25 I-6.50 J-0.00
G03 X623.29 Y-428.27 I-4.60 J-4.60
M08
G40
M51
M93
G00 X476.66 Y-551.66
M94 F1700
G41 D21
N63 M07
G01 X482.11 Y-546.21
G03 X471.50 Y-541.82 I-10.61 J-10.61
G03 X456.50 Y-556.82 I0.00 J-15.00
G03 X471.50 Y-571.82 I15.00 J0.00
G03 X486.50 Y-556.82 I0.00 J15.00
G03 X483.11 Y-547.33 I-15.00 J-0.00
M50
G03 X482.11 Y-546.21 I-11.61 J-9.49
G03 X480.92 Y-545.15 I-10.61 J-10.61
M08
G40
M51
M93
G00 X470.65 Y-434.70
M94 F1222
G41 D21
N64 M07
G01 X476.09 Y-429.25
M50
G03 X471.50 Y-427.35 I-4.60 J-4.60
G03 X465.00 Y-433.85 I0.00 J-6.50
G03 X471.50 Y-440.35 I6.50 J0.00
G03 X478.00 Y-433.85 I0.00 J6.50
G03 X476.09 Y-429.25 I-6.50 J-0.00
G03 X474.84 Y-428.27 I-4.60 J-4.60
M08
G40
M51
M93
G00 X470.65 Y-486.70
M94 F1222
G41 D21
N65 M07
G01 X476.09 Y-481.25
M50
G03 X471.50 Y-479.35 I-4.60 J-4.60
G03 X465.00 Y-485.85 I0.00 J-6.50
G03 X471.50 Y-492.35 I6.50 J0.00
G03 X478.00 Y-485.85 I0.00 J6.50
G03 X476.09 Y-481.25 I-6.50 J-0.00
G03 X474.84 Y-480.27 I-4.60 J-4.60
M08
G40
M51
M93
G00 X651.51 Y-400.15
M94 F1700
G41 D21
N66 M07
G01 X651.51 Y-407.85
G01 X651.51 Y-587.85
G01 X440.47 Y-587.85
G01 X440.47 Y-407.85
G01 X534.44 Y-407.85
G02 X544.44 Y-417.85 I0.00 J-10.00
G01 X544.44 Y-419.68
G03 X562.94 Y-438.18 I18.50 J0.00
G03 X581.44 Y-419.68 I0.00 J18.50
G01 X581.44 Y-417.85
G02 X586.32 Y-409.26 I10.00 J-0.00
G02 X588.40 Y-408.13 I4.66 J-6.15
G01 X590.85 Y-407.85
G01 X650.01 Y-407.85
M50
G01 X651.51 Y-407.85
G03 X653.31 Y-406.05 I0.00 J1.80
M08
G40
M51
M93
G00 X834.34 Y-489.74
M94 F1222
G41 D21
N67 M07
G01 X839.79 Y-484.29
M50
G03 X835.19 Y-482.39 I-4.60 J-4.60
G03 X828.69 Y-488.89 I0.00 J-6.50
G03 X835.19 Y-495.39 I6.50 J0.00
G03 X841.69 Y-488.89 I0.00 J6.50
G03 X839.79 Y-484.29 I-6.50 J-0.00
G03 X838.53 Y-483.31 I-4.60 J-4.60
M08
G40
M51
M93
G00 X834.34 Y-437.74
M94 F1222
G41 D21
N68 M07
G01 X839.79 Y-432.29
M50
G03 X835.19 Y-430.39 I-4.60 J-4.60
G03 X828.69 Y-436.89 I0.00 J-6.50
G03 X835.19 Y-443.39 I6.50 J0.00
G03 X841.69 Y-436.89 I0.00 J6.50
G03 X839.79 Y-432.29 I-6.50 J-0.00
G03 X838.53 Y-431.31 I-4.60 J-4.60
M08
G40
M51
M93
G00 X691.90 Y-554.70
M94 F1700
G41 D21
N69 M07
G01 X697.34 Y-549.26
G03 X686.74 Y-544.86 I-10.61 J-10.61
G03 X671.74 Y-559.86 I0.00 J-15.00
G03 X686.74 Y-574.86 I15.00 J0.00
G03 X701.74 Y-559.86 I0.00 J15.00
G03 X698.35 Y-550.37 I-15.00 J0.00
M50
G03 X697.34 Y-549.26 I-11.61 J-9.49
G03 X696.15 Y-548.19 I-10.61 J-10.61
M08
G40
M51
M93
G00 X685.89 Y-437.74
M94 F1222
G41 D21
N70 M07
G01 X691.33 Y-432.29
M50
G03 X686.74 Y-430.39 I-4.60 J-4.60
G03 X680.24 Y-436.89 I0.00 J-6.50
G03 X686.74 Y-443.39 I6.50 J0.00
G03 X693.24 Y-436.89 I0.00 J6.50
G03 X691.33 Y-432.29 I-6.50 J-0.00
G03 X690.07 Y-431.31 I-4.60 J-4.60
M08
G40
M51
M93
G00 X685.89 Y-489.74
M94 F1222
G41 D21
N71 M07
G01 X691.33 Y-484.29
M50
G03 X686.74 Y-482.39 I-4.60 J-4.60
G03 X680.24 Y-488.89 I0.00 J-6.50
G03 X686.74 Y-495.39 I6.50 J0.00
G03 X693.24 Y-488.89 I0.00 J6.50
G03 X691.33 Y-484.29 I-6.50 J-0.00
G03 X690.07 Y-483.31 I-4.60 J-4.60
M08
G40
M51
M93
G00 X866.75 Y-403.19
M94 F1700
G41 D21
N72 M07
G01 X866.75 Y-410.89
G01 X866.75 Y-590.89
G01 X655.71 Y-590.89
G01 X655.71 Y-410.89
G01 X749.67 Y-410.89
G02 X759.67 Y-420.89 I0.00 J-10.00
G01 X759.67 Y-422.72
G03 X778.17 Y-441.22 I18.50 J0.00
G03 X796.67 Y-422.72 I0.00 J18.50
G01 X796.67 Y-420.89
G02 X801.56 Y-412.30 I10.00 J0.00
G02 X803.64 Y-411.18 I4.66 J-6.15
G01 X806.09 Y-410.89
G01 X865.25 Y-410.89
M50
G01 X866.75 Y-410.89
G03 X868.55 Y-409.09 I0.00 J1.80
M08
G40
M51
M93
G00 X188.63 Y-672.54
M94 F1222
G41 D21
N73 M07
G01 X194.08 Y-667.09
M50
G03 X189.48 Y-665.19 I-4.60 J-4.60
G03 X182.98 Y-671.69 I0.00 J-6.50
G03 X189.48 Y-678.19 I6.50 J0.00
G03 X195.98 Y-671.69 I0.00 J6.50
G03 X194.08 Y-667.09 I-6.50 J0.00
G03 X192.82 Y-666.11 I-4.60 J-4.60
M08
G40
M51
M93
G00 X188.63 Y-620.54
M94 F1222
G41 D21
N74 M07
G01 X194.08 Y-615.09
M50
G03 X189.48 Y-613.19 I-4.60 J-4.60
G03 X182.98 Y-619.69 I0.00 J-6.50
G03 X189.48 Y-626.19 I6.50 J0.00
G03 X195.98 Y-619.69 I0.00 J6.50
G03 X194.08 Y-615.09 I-6.50 J0.00
G03 X192.82 Y-614.11 I-4.60 J-4.60
M08
G40
M51
M93
G00 X46.19 Y-737.50
M94 F1700
G41 D21
N75 M07
G01 X51.63 Y-732.05
G03 X41.03 Y-727.66 I-10.61 J-10.61
G03 X26.03 Y-742.66 I0.00 J-15.00
G03 X41.03 Y-757.66 I15.00 J0.00
G03 X56.03 Y-742.66 I0.00 J15.00
G03 X52.64 Y-733.17 I-15.00 J0.00
M50
G03 X51.63 Y-732.05 I-11.61 J-9.49
G03 X50.44 Y-730.99 I-10.61 J-10.61
M08
G40
M51
M93
G00 X40.18 Y-620.54
M94 F1222
G41 D21
N76 M07
G01 X45.62 Y-615.09
M50
G03 X41.03 Y-613.19 I-4.60 J-4.60
G03 X34.53 Y-619.69 I0.00 J-6.50
G03 X41.03 Y-626.19 I6.50 J0.00
G03 X47.53 Y-619.69 I0.00 J6.50
G03 X45.62 Y-615.09 I-6.50 J-0.00
G03 X44.36 Y-614.11 I-4.60 J-4.60
M08
G40
M51
M93
G00 X40.18 Y-672.54
M94 F1222
G41 D21
N77 M07
G01 X45.62 Y-667.09
M50
G03 X41.03 Y-665.19 I-4.60 J-4.60
G03 X34.53 Y-671.69 I0.00 J-6.50
G03 X41.03 Y-678.19 I6.50 J0.00
G03 X47.53 Y-671.69 I0.00 J6.50
G03 X45.62 Y-667.09 I-6.50 J-0.00
G03 X44.36 Y-666.11 I-4.60 J-4.60
M08
G40
M51
M93
G00 X221.04 Y-585.99
M94 F1700
G41 D21
N78 M07
G01 X221.04 Y-593.69
G01 X221.04 Y-773.69
G01 X10.00 Y-773.69
G01 X10.00 Y-593.69
G01 X103.97 Y-593.69
G02 X113.97 Y-603.69 I0.00 J-10.00
G01 X113.97 Y-605.52
G03 X132.47 Y-624.02 I18.50 J0.00
G03 X150.97 Y-605.52 I0.00 J18.50
G01 X150.97 Y-603.69
G02 X155.85 Y-595.10 I10.00 J-0.00
G02 X157.93 Y-593.97 I4.66 J-6.15
G01 X160.38 Y-593.69
G01 X219.54 Y-593.69
M50
G01 X221.04 Y-593.69
G03 X222.84 Y-591.89 I0.00 J1.80
M08
G40
M51
M93
G00 X403.87 Y-675.58
M94 F1222
G41 D21
N79 M07
G01 X409.32 Y-670.13
M50
G03 X404.72 Y-668.23 I-4.60 J-4.60
G03 X398.22 Y-674.73 I0.00 J-6.50
G03 X404.72 Y-681.23 I6.50 J0.00
G03 X411.22 Y-674.73 I0.00 J6.50
G03 X409.32 Y-670.13 I-6.50 J0.00
G03 X408.06 Y-669.15 I-4.60 J-4.60
M08
G40
M51
M93
G00 X403.87 Y-623.58
M94 F1222
G41 D21
N80 M07
G01 X409.32 Y-618.13
M50
G03 X404.72 Y-616.23 I-4.60 J-4.60
G03 X398.22 Y-622.73 I0.00 J-6.50
G03 X404.72 Y-629.23 I6.50 J0.00
G03 X411.22 Y-622.73 I0.00 J6.50
G03 X409.32 Y-618.13 I-6.50 J0.00
G03 X408.06 Y-617.15 I-4.60 J-4.60
M08
G40
M51
M93
G00 X261.42 Y-740.54
M94 F1700
G41 D21
N81 M07
G01 X266.87 Y-735.10
G03 X256.26 Y-730.70 I-10.61 J-10.61
G03 X241.26 Y-745.70 I0.00 J-15.00
G03 X256.26 Y-760.70 I15.00 J0.00
G03 X271.26 Y-745.70 I0.00 J15.00
G03 X267.87 Y-736.21 I-15.00 J-0.00
M50
G03 X266.87 Y-735.10 I-11.61 J-9.49
G03 X265.68 Y-734.03 I-10.61 J-10.61
M08
G40
M51
M93
G00 X255.41 Y-623.58
M94 F1222
G41 D21
N82 M07
G01 X260.86 Y-618.13
M50
G03 X256.26 Y-616.23 I-4.60 J-4.60
G03 X249.76 Y-622.73 I0.00 J-6.50
G03 X256.26 Y-629.23 I6.50 J0.00
G03 X262.76 Y-622.73 I0.00 J6.50
G03 X260.86 Y-618.13 I-6.50 J0.00
G03 X259.60 Y-617.15 I-4.60 J-4.60
M08
G40
M51
M93
G00 X255.41 Y-675.58
M94 F1222
G41 D21
N83 M07
G01 X260.86 Y-670.13
M50
G03 X256.26 Y-668.23 I-4.60 J-4.60
G03 X249.76 Y-674.73 I0.00 J-6.50
G03 X256.26 Y-681.23 I6.50 J0.00
G03 X262.76 Y-674.73 I0.00 J6.50
G03 X260.86 Y-670.13 I-6.50 J0.00
G03 X259.60 Y-669.15 I-4.60 J-4.60
M08
G40
M51
M93
G00 X436.27 Y-589.03
M94 F1700
G41 D21
N84 M07
G01 X436.27 Y-596.73
G01 X436.27 Y-776.73
G01 X225.24 Y-776.73
G01 X225.24 Y-596.73
G01 X319.20 Y-596.73
G02 X329.20 Y-606.73 I0.00 J-10.00
G01 X329.20 Y-608.56
G03 X347.70 Y-627.06 I18.50 J0.00
G03 X366.20 Y-608.56 I0.00 J18.50
G01 X366.20 Y-606.73
G02 X371.09 Y-598.14 I10.00 J-0.00
G02 X373.16 Y-597.01 I4.66 J-6.15
G01 X375.61 Y-596.73
G01 X434.77 Y-596.73
M50
G01 X436.27 Y-596.73
G03 X438.07 Y-594.93 I0.00 J1.80
M08
G40
M51
M93
G00 X619.11 Y-678.62
M94 F1222
G41 D21
N85 M07
G01 X624.55 Y-673.17
M50
G03 X619.96 Y-671.27 I-4.60 J-4.60
G03 X613.46 Y-677.77 I0.00 J-6.50
G03 X619.96 Y-684.27 I6.50 J0.00
G03 X626.46 Y-677.77 I0.00 J6.50
G03 X624.55 Y-673.17 I-6.50 J0.00
G03 X623.29 Y-672.19 I-4.60 J-4.60
M08
G40
M51
M93
G00 X619.11 Y-626.62
M94 F1222
G41 D21
N86 M07
G01 X624.55 Y-621.17
M50
G03 X619.96 Y-619.27 I-4.60 J-4.60
G03 X613.46 Y-625.77 I0.00 J-6.50
G03 X619.96 Y-632.27 I6.50 J0.00
G03 X626.46 Y-625.77 I0.00 J6.50
G03 X624.55 Y-621.17 I-6.50 J0.00
G03 X623.29 Y-620.19 I-4.60 J-4.60
M08
G40
M51
M93
G00 X476.66 Y-743.58
M94 F1700
G41 D21
N87 M07
G01 X482.11 Y-738.14
G03 X471.50 Y-733.74 I-10.61 J-10.61
G03 X456.50 Y-748.74 I0.00 J-15.00
G03 X471.50 Y-763.74 I15.00 J0.00
G03 X486.50 Y-748.74 I0.00 J15.00
G03 X483.11 Y-739.25 I-15.00 J-0.00
M50
G03 X482.11 Y-738.14 I-11.61 J-9.49
G03 X480.92 Y-737.07 I-10.61 J-10.61
M08
G40
M51
M93
G00 X470.65 Y-626.62
M94 F1222
G41 D21
N88 M07
G01 X476.09 Y-621.17
M50
G03 X471.50 Y-619.27 I-4.60 J-4.60
G03 X465.00 Y-625.77 I0.00 J-6.50
G03 X471.50 Y-632.27 I6.50 J0.00
G03 X478.00 Y-625.77 I0.00 J6.50
G03 X476.09 Y-621.17 I-6.50 J0.00
G03 X474.84 Y-620.19 I-4.60 J-4.60
M08
G40
M51
M93
G00 X470.65 Y-678.62
M94 F1222
G41 D21
N89 M07
G01 X476.09 Y-673.17
M50
G03 X471.50 Y-671.27 I-4.60 J-4.60
G03 X465.00 Y-677.77 I0.00 J-6.50
G03 X471.50 Y-684.27 I6.50 J0.00
G03 X478.00 Y-677.77 I0.00 J6.50
G03 X476.09 Y-673.17 I-6.50 J0.00
G03 X474.84 Y-672.19 I-4.60 J-4.60
M08
G40
M51
M93
G00 X651.51 Y-592.07
M94 F1700
G41 D21
N90 M07
G01 X651.51 Y-599.77
G01 X651.51 Y-779.77
G01 X440.47 Y-779.77
G01 X440.47 Y-599.77
G01 X534.44 Y-599.77
G02 X544.44 Y-609.77 I0.00 J-10.00
G01 X544.44 Y-611.60
G03 X562.94 Y-630.10 I18.50 J0.00
G03 X581.44 Y-611.60 I0.00 J18.50
G01 X581.44 Y-609.77
G02 X586.32 Y-601.18 I10.00 J-0.00
G02 X588.40 Y-600.06 I4.66 J-6.15
G01 X590.85 Y-599.77
G01 X650.01 Y-599.77
M50
G01 X651.51 Y-599.77
G03 X653.31 Y-597.97 I0.00 J1.80
M08
G40
M51
M93
G00 X834.34 Y-681.66
M94 F1222
G41 D21
N91 M07
G01 X839.79 Y-676.21
M50
G03 X835.19 Y-674.31 I-4.60 J-4.60
G03 X828.69 Y-680.81 I0.00 J-6.50
G03 X835.19 Y-687.31 I6.50 J0.00
G03 X841.69 Y-680.81 I0.00 J6.50
G03 X839.79 Y-676.21 I-6.50 J-0.00
G03 X838.53 Y-675.23 I-4.60 J-4.60
M08
G40
M51
M93
G00 X834.34 Y-629.66
M94 F1222
G41 D21
N92 M07
G01 X839.79 Y-624.21
M50
G03 X835.19 Y-622.31 I-4.60 J-4.60
G03 X828.69 Y-628.81 I0.00 J-6.50
G03 X835.19 Y-635.31 I6.50 J0.00
G03 X841.69 Y-628.81 I0.00 J6.50
G03 X839.79 Y-624.21 I-6.50 J-0.00
G03 X838.53 Y-623.23 I-4.60 J-4.60
M08
G40
M51
M93
G00 X691.90 Y-746.62
M94 F1700
G41 D21
N93 M07
G01 X697.34 Y-741.18
G03 X686.74 Y-736.78 I-10.61 J-10.61
G03 X671.74 Y-751.78 I0.00 J-15.00
G03 X686.74 Y-766.78 I15.00 J0.00
G03 X701.74 Y-751.78 I0.00 J15.00
G03 X698.35 Y-742.29 I-15.00 J0.00
M50
G03 X697.34 Y-741.18 I-11.61 J-9.49
G03 X696.15 Y-740.11 I-10.61 J-10.61
M08
G40
M51
M93
G00 X685.89 Y-629.66
M94 F1222
G41 D21
N94 M07
G01 X691.33 Y-624.21
M50
G03 X686.74 Y-622.31 I-4.60 J-4.60
G03 X680.24 Y-628.81 I0.00 J-6.50
G03 X686.74 Y-635.31 I6.50 J0.00
G03 X693.24 Y-628.81 I0.00 J6.50
G03 X691.33 Y-624.21 I-6.50 J-0.00
G03 X690.07 Y-623.23 I-4.60 J-4.60
M08
G40
M51
M93
G00 X685.89 Y-681.66
M94 F1222
G41 D21
N95 M07
G01 X691.33 Y-676.21
M50
G03 X686.74 Y-674.31 I-4.60 J-4.60
G03 X680.24 Y-680.81 I0.00 J-6.50
G03 X686.74 Y-687.31 I6.50 J0.00
G03 X693.24 Y-680.81 I0.00 J6.50
G03 X691.33 Y-676.21 I-6.50 J-0.00
G03 X690.07 Y-675.23 I-4.60 J-4.60
M08
G40
M51
M93
G00 X866.75 Y-595.11
M94 F1700
G41 D21
N96 M07
G01 X866.75 Y-602.81
G01 X866.75 Y-782.81
G01 X655.71 Y-782.81
G01 X655.71 Y-602.81
G01 X749.67 Y-602.81
G02 X759.67 Y-612.81 I0.00 J-10.00
G01 X759.67 Y-614.64
G03 X778.17 Y-633.14 I18.50 J0.00
G03 X796.67 Y-614.64 I0.00 J18.50
G01 X796.67 Y-612.81
G02 X801.56 Y-604.22 I10.00 J0.00
G02 X803.64 Y-603.10 I4.66 J-6.15
G01 X806.09 Y-602.81
G01 X865.25 Y-602.81
M50
G01 X866.75 Y-602.81
G03 X868.55 Y-601.01 I0.00 J1.80
M08
G40
M51
M93
G00 X188.63 Y-864.46
M94 F1222
G41 D21
N97 M07
G01 X194.08 Y-859.01
M50
G03 X189.48 Y-857.11 I-4.60 J-4.60
G03 X182.98 Y-863.61 I0.00 J-6.50
G03 X189.48 Y-870.11 I6.50 J0.00
G03 X195.98 Y-863.61 I0.00 J6.50
G03 X194.08 Y-859.01 I-6.50 J0.00
G03 X192.82 Y-858.03 I-4.60 J-4.60
M08
G40
M51
M93
G00 X188.63 Y-812.46
M94 F1222
G41 D21
N98 M07
G01 X194.08 Y-807.01
M50
G03 X189.48 Y-805.11 I-4.60 J-4.60
G03 X182.98 Y-811.61 I0.00 J-6.50
G03 X189.48 Y-818.11 I6.50 J0.00
G03 X195.98 Y-811.61 I0.00 J6.50
G03 X194.08 Y-807.01 I-6.50 J0.00
G03 X192.82 Y-806.03 I-4.60 J-4.60
M08
G40
M51
M93
G00 X46.19 Y-929.42
M94 F1700
G41 D21
N99 M07
G01 X51.63 Y-923.98
G03 X41.03 Y-919.58 I-10.61 J-10.61
G03 X26.03 Y-934.58 I0.00 J-15.00
G03 X41.03 Y-949.58 I15.00 J0.00
G03 X56.03 Y-934.58 I0.00 J15.00
G03 X52.64 Y-925.09 I-15.00 J0.00
M50
G03 X51.63 Y-923.98 I-11.61 J-9.49
G03 X50.44 Y-922.91 I-10.61 J-10.61
M08
G40
M51
M93
G00 X40.18 Y-812.46
M94 F1222
G41 D21
N100 M07
G01 X45.62 Y-807.01
M50
G03 X41.03 Y-805.11 I-4.60 J-4.60
G03 X34.53 Y-811.61 I0.00 J-6.50
G03 X41.03 Y-818.11 I6.50 J0.00
G03 X47.53 Y-811.61 I0.00 J6.50
G03 X45.62 Y-807.01 I-6.50 J-0.00
G03 X44.36 Y-806.03 I-4.60 J-4.60
M08
G40
M51
M93
G00 X40.18 Y-864.46
M94 F1222
G41 D21
N101 M07
G01 X45.62 Y-859.01
M50
G03 X41.03 Y-857.11 I-4.60 J-4.60
G03 X34.53 Y-863.61 I0.00 J-6.50
G03 X41.03 Y-870.11 I6.50 J0.00
G03 X47.53 Y-863.61 I0.00 J6.50
G03 X45.62 Y-859.01 I-6.50 J-0.00
G03 X44.36 Y-858.03 I-4.60 J-4.60
M08
G40
M51
M93
G00 X221.04 Y-777.91
M94 F1700
G41 D21
N102 M07
G01 X221.04 Y-785.61
G01 X221.04 Y-965.61
G01 X10.00 Y-965.61
G01 X10.00 Y-785.61
G01 X103.97 Y-785.61
G02 X113.97 Y-795.61 I0.00 J-10.00
G01 X113.97 Y-797.44
G03 X132.47 Y-815.94 I18.50 J0.00
G03 X150.97 Y-797.44 I0.00 J18.50
G01 X150.97 Y-795.61
G02 X155.85 Y-787.02 I10.00 J-0.00
G02 X157.93 Y-785.90 I4.66 J-6.15
G01 X160.38 Y-785.61
G01 X219.54 Y-785.61
M50
G01 X221.04 Y-785.61
G03 X222.84 Y-783.81 I0.00 J1.80
M08
G40
M51
M93
G00 X403.87 Y-867.50
M94 F1222
G41 D21
N103 M07
G01 X409.32 Y-862.05
M50
G03 X404.72 Y-860.15 I-4.60 J-4.60
G03 X398.22 Y-866.65 I0.00 J-6.50
G03 X404.72 Y-873.15 I6.50 J0.00
G03 X411.22 Y-866.65 I0.00 J6.50
G03 X409.32 Y-862.05 I-6.50 J0.00
G03 X408.06 Y-861.07 I-4.60 J-4.60
M08
G40
M51
M93
G00 X403.87 Y-815.50
M94 F1222
G41 D21
N104 M07
G01 X409.32 Y-810.05
M50
G03 X404.72 Y-808.15 I-4.60 J-4.60
G03 X398.22 Y-814.65 I0.00 J-6.50
G03 X404.72 Y-821.15 I6.50 J0.00
G03 X411.22 Y-814.65 I0.00 J6.50
G03 X409.32 Y-810.05 I-6.50 J0.00
G03 X408.06 Y-809.07 I-4.60 J-4.60
M08
G40
M51
M93
G00 X261.42 Y-932.46
M94 F1700
G41 D21
N105 M07
G01 X266.87 Y-927.02
G03 X256.26 Y-922.62 I-10.61 J-10.61
G03 X241.26 Y-937.62 I0.00 J-15.00
G03 X256.26 Y-952.62 I15.00 J0.00
G03 X271.26 Y-937.62 I0.00 J15.00
G03 X267.87 Y-928.13 I-15.00 J-0.00
M50
G03 X266.87 Y-927.02 I-11.61 J-9.49
G03 X265.68 Y-925.95 I-10.61 J-10.61
M08
G40
M51
M93
G00 X255.41 Y-815.50
M94 F1222
G41 D21
N106 M07
G01 X260.86 Y-810.05
M50
G03 X256.26 Y-808.15 I-4.60 J-4.60
G03 X249.76 Y-814.65 I0.00 J-6.50
G03 X256.26 Y-821.15 I6.50 J0.00
G03 X262.76 Y-814.65 I0.00 J6.50
G03 X260.86 Y-810.05 I-6.50 J0.00
G03 X259.60 Y-809.07 I-4.60 J-4.60
M08
G40
M51
M93
G00 X255.41 Y-867.50
M94 F1222
G41 D21
N107 M07
G01 X260.86 Y-862.05
M50
G03 X256.26 Y-860.15 I-4.60 J-4.60
G03 X249.76 Y-866.65 I0.00 J-6.50
G03 X256.26 Y-873.15 I6.50 J0.00
G03 X262.76 Y-866.65 I0.00 J6.50
G03 X260.86 Y-862.05 I-6.50 J0.00
G03 X259.60 Y-861.07 I-4.60 J-4.60
M08
G40
M51
M93
G00 X436.27 Y-780.95
M94 F1700
G41 D21
N108 M07
G01 X436.27 Y-788.65
G01 X436.27 Y-968.65
G01 X225.24 Y-968.65
G01 X225.24 Y-788.65
G01 X319.20 Y-788.65
G02 X329.20 Y-798.65 I0.00 J-10.00
G01 X329.20 Y-800.48
G03 X347.70 Y-818.98 I18.50 J0.00
G03 X366.20 Y-800.48 I0.00 J18.50
G01 X366.20 Y-798.65
G02 X371.09 Y-790.06 I10.00 J-0.00
G02 X373.16 Y-788.94 I4.66 J-6.15
G01 X375.61 Y-788.65
G01 X434.77 Y-788.65
M50
G01 X436.27 Y-788.65
G03 X438.07 Y-786.85 I0.00 J1.80
M08
G40
M51
M93
G00 X619.11 Y-870.54
M94 F1222
G41 D21
N109 M07
G01 X624.55 Y-865.10
M50
G03 X619.96 Y-863.19 I-4.60 J-4.60
G03 X613.46 Y-869.69 I0.00 J-6.50
G03 X619.96 Y-876.19 I6.50 J0.00
G03 X626.46 Y-869.69 I0.00 J6.50
G03 X624.55 Y-865.10 I-6.50 J0.00
G03 X623.29 Y-864.11 I-4.60 J-4.60
M08
G40
M51
M93
G00 X619.11 Y-818.54
M94 F1222
G41 D21
N110 M07
G01 X624.55 Y-813.10
M50
G03 X619.96 Y-811.19 I-4.60 J-4.60
G03 X613.46 Y-817.69 I0.00 J-6.50
G03 X619.96 Y-824.19 I6.50 J0.00
G03 X626.46 Y-817.69 I0.00 J6.50
G03 X624.55 Y-813.10 I-6.50 J0.00
G03 X623.29 Y-812.11 I-4.60 J-4.60
M08
G40
M51
M93
G00 X476.66 Y-935.50
M94 F1700
G41 D21
N111 M07
G01 X482.11 Y-930.06
G03 X471.50 Y-925.67 I-10.61 J-10.61
G03 X456.50 Y-940.67 I0.00 J-15.00
G03 X471.50 Y-955.67 I15.00 J0.00
G03 X486.50 Y-940.67 I0.00 J15.00
G03 X483.11 Y-931.17 I-15.00 J-0.00
M50
G03 X482.11 Y-930.06 I-11.61 J-9.49
G03 X480.92 Y-928.99 I-10.61 J-10.61
M08
G40
M51
M93
G00 X470.65 Y-818.54
M94 F1222
G41 D21
N112 M07
G01 X476.09 Y-813.10
M50
G03 X471.50 Y-811.19 I-4.60 J-4.60
G03 X465.00 Y-817.69 I0.00 J-6.50
G03 X471.50 Y-824.19 I6.50 J0.00
G03 X478.00 Y-817.69 I0.00 J6.50
G03 X476.09 Y-813.10 I-6.50 J0.00
G03 X474.84 Y-812.11 I-4.60 J-4.60
M08
G40
M51
M93
G00 X470.65 Y-870.54
M94 F1222
G41 D21
N113 M07
G01 X476.09 Y-865.10
M50
G03 X471.50 Y-863.19 I-4.60 J-4.60
G03 X465.00 Y-869.69 I0.00 J-6.50
G03 X471.50 Y-876.19 I6.50 J0.00
G03 X478.00 Y-869.69 I0.00 J6.50
G03 X476.09 Y-865.10 I-6.50 J0.00
G03 X474.84 Y-864.11 I-4.60 J-4.60
M08
G40
M51
M93
G00 X651.51 Y-783.99
M94 F1700
G41 D21
N114 M07
G01 X651.51 Y-791.69
G01 X651.51 Y-971.69
G01 X440.47 Y-971.69
G01 X440.47 Y-791.69
G01 X534.44 Y-791.69
G02 X544.44 Y-801.69 I0.00 J-10.00
G01 X544.44 Y-803.52
G03 X562.94 Y-822.02 I18.50 J0.00
G03 X581.44 Y-803.52 I0.00 J18.50
G01 X581.44 Y-801.69
G02 X586.32 Y-793.10 I10.00 J-0.00
G02 X588.40 Y-791.98 I4.66 J-6.15
G01 X590.85 Y-791.69
G01 X650.01 Y-791.69
M50
G01 X651.51 Y-791.69
G03 X653.31 Y-789.89 I0.00 J1.80
M08
G40
M51
M93
G00 X834.34 Y-873.58
M94 F1222
G41 D21
N115 M07
G01 X839.79 Y-868.14
M50
G03 X835.19 Y-866.23 I-4.60 J-4.60
G03 X828.69 Y-872.73 I0.00 J-6.50
G03 X835.19 Y-879.23 I6.50 J0.00
G03 X841.69 Y-872.73 I0.00 J6.50
G03 X839.79 Y-868.14 I-6.50 J-0.00
G03 X838.53 Y-867.15 I-4.60 J-4.60
M08
G40
M51
M93
G00 X834.34 Y-821.58
M94 F1222
G41 D21
N116 M07
G01 X839.79 Y-816.14
M50
G03 X835.19 Y-814.23 I-4.60 J-4.60
G03 X828.69 Y-820.73 I0.00 J-6.50
G03 X835.19 Y-827.23 I6.50 J0.00
G03 X841.69 Y-820.73 I0.00 J6.50
G03 X839.79 Y-816.14 I-6.50 J-0.00
G03 X838.53 Y-815.15 I-4.60 J-4.60
M08
G40
M51
M93
G00 X691.90 Y-938.54
M94 F1700
G41 D21
N117 M07
G01 X697.34 Y-933.10
G03 X686.74 Y-928.71 I-10.61 J-10.61
G03 X671.74 Y-943.71 I0.00 J-15.00
G03 X686.74 Y-958.71 I15.00 J0.00
G03 X701.74 Y-943.71 I0.00 J15.00
G03 X698.35 Y-934.21 I-15.00 J0.00
M50
G03 X697.34 Y-933.10 I-11.61 J-9.49
G03 X696.15 Y-932.03 I-10.61 J-10.61
M08
G40
M51
M93
G00 X685.89 Y-821.58
M94 F1222
G41 D21
N118 M07
G01 X691.33 Y-816.14
M50
G03 X686.74 Y-814.23 I-4.60 J-4.60
G03 X680.24 Y-820.73 I0.00 J-6.50
G03 X686.74 Y-827.23 I6.50 J0.00
G03 X693.24 Y-820.73 I0.00 J6.50
G03 X691.33 Y-816.14 I-6.50 J-0.00
G03 X690.07 Y-815.15 I-4.60 J-4.60
M08
G40
M51
M93
G00 X685.89 Y-873.58
M94 F1222
G41 D21
N119 M07
G01 X691.33 Y-868.14
M50
G03 X686.74 Y-866.23 I-4.60 J-4.60
G03 X680.24 Y-872.73 I0.00 J-6.50
G03 X686.74 Y-879.23 I6.50 J0.00
G03 X693.24 Y-872.73 I0.00 J6.50
G03 X691.33 Y-868.14 I-6.50 J-0.00
G03 X690.07 Y-867.15 I-4.60 J-4.60
M08
G40
M51
M93
G00 X866.75 Y-787.03
M94 F1700
G41 D21
N120 M07
G01 X866.75 Y-794.73
G01 X866.75 Y-974.73
G01 X655.71 Y-974.73
G01 X655.71 Y-794.73
G01 X749.67 Y-794.73
G02 X759.67 Y-804.73 I0.00 J-10.00
G01 X759.67 Y-806.56
G03 X778.17 Y-825.06 I18.50 J0.00
G03 X796.67 Y-806.56 I0.00 J18.50
G01 X796.67 Y-804.73
G02 X801.56 Y-796.14 I10.00 J0.00
G02 X803.64 Y-795.02 I4.66 J-6.15
G01 X806.09 Y-794.73
G01 X865.25 Y-794.73
M50
G01 X866.75 Y-794.73
G03 X868.55 Y-792.93 I0.00 J1.80
M08
G40
M51
M93
G00 X1049.58 Y-876.62
M94 F1222
G41 D21
N121 M07
G01 X1055.02 Y-871.18
M50
G03 X1050.43 Y-869.27 I-4.60 J-4.60
G03 X1043.93 Y-875.77 I0.00 J-6.50
G03 X1050.43 Y-882.27 I6.50 J0.00
G03 X1056.93 Y-875.77 I0.00 J6.50
G03 X1055.02 Y-871.18 I-6.50 J0.00
G03 X1053.77 Y-870.20 I-4.60 J-4.60
M08
G40
M51
M93
G00 X1049.58 Y-824.62
M94 F1222
G41 D21
N122 M07
G01 X1055.02 Y-819.18
M50
G03 X1050.43 Y-817.27 I-4.60 J-4.60
G03 X1043.93 Y-823.77 I0.00 J-6.50
G03 X1050.43 Y-830.27 I6.50 J0.00
G03 X1056.93 Y-823.77 I0.00 J6.50
G03 X1055.02 Y-819.18 I-6.50 J0.00
G03 X1053.77 Y-818.20 I-4.60 J-4.60
M08
G40
M51
M93
G00 X907.13 Y-941.59
M94 F1700
G41 D21
N123 M07
G01 X912.58 Y-936.14
G03 X901.97 Y-931.75 I-10.61 J-10.61
G03 X886.97 Y-946.75 I0.00 J-15.00
G03 X901.97 Y-961.75 I15.00 J0.00
G03 X916.97 Y-946.75 I0.00 J15.00
G03 X913.58 Y-937.25 I-15.00 J0.00
M50
G03 X912.58 Y-936.14 I-11.61 J-9.49
G03 X911.39 Y-935.07 I-10.61 J-10.61
M08
G40
M51
M93
G00 X901.12 Y-824.62
M94 F1222
G41 D21
N124 M07
G01 X906.57 Y-819.18
M50
G03 X901.97 Y-817.27 I-4.60 J-4.60
G03 X895.47 Y-823.77 I0.00 J-6.50
G03 X901.97 Y-830.27 I6.50 J-0.00
G03 X908.47 Y-823.77 I0.00 J6.50
G03 X906.57 Y-819.18 I-6.50 J-0.00
G03 X905.31 Y-818.20 I-4.60 J-4.60
M08
G40
M51
M93
G00 X901.12 Y-876.62
M94 F1222
G41 D21
N125 M07
G01 X906.57 Y-871.18
M50
G03 X901.97 Y-869.27 I-4.60 J-4.60
G03 X895.47 Y-875.77 I0.00 J-6.50
G03 X901.97 Y-882.27 I6.50 J0.00
G03 X908.47 Y-875.77 I0.00 J6.50
G03 X906.57 Y-871.18 I-6.50 J0.00
G03 X905.31 Y-870.20 I-4.60 J-4.60
M08
G40
M51
M93
G00 X1081.98 Y-790.07
M94 F1700
G41 D21
N126 M07
G01 X1081.98 Y-797.77
G01 X1081.98 Y-977.77
G01 X870.95 Y-977.77
G01 X870.95 Y-797.77
G01 X964.91 Y-797.77
G02 X974.91 Y-807.77 I0.00 J-10.00
G01 X974.91 Y-809.60
G03 X993.41 Y-828.10 I18.50 J0.00
G03 X1011.91 Y-809.60 I0.00 J18.50
G01 X1011.91 Y-807.77
G02 X1016.79 Y-799.18 I10.00 J-0.00
G02 X1018.87 Y-798.06 I4.66 J-6.14
G01 X1021.32 Y-797.77
G01 X1080.48 Y-797.77
M50
G01 X1081.98 Y-797.77
G03 X1083.78 Y-795.97 I-0.00 J1.80
M08
G40
M51
M93
G00 X1049.58 Y-684.70
M94 F1222
G41 D21
N127 M07
G01 X1055.02 Y-679.26
M50
G03 X1050.43 Y-677.35 I-4.60 J-4.60
G03 X1043.93 Y-683.85 I0.00 J-6.50
G03 X1050.43 Y-690.35 I6.50 J0.00
G03 X1056.93 Y-683.85 I0.00 J6.50
G03 X1055.02 Y-679.26 I-6.50 J0.00
G03 X1053.77 Y-678.27 I-4.60 J-4.60
M08
G40
M51
M93
G00 X1049.58 Y-632.70
M94 F1222
G41 D21
N128 M07
G01 X1055.02 Y-627.26
M50
G03 X1050.43 Y-625.35 I-4.60 J-4.60
G03 X1043.93 Y-631.85 I0.00 J-6.50
G03 X1050.43 Y-638.35 I6.50 J0.00
G03 X1056.93 Y-631.85 I0.00 J6.50
G03 X1055.02 Y-627.26 I-6.50 J0.00
G03 X1053.77 Y-626.27 I-4.60 J-4.60
M08
G40
M51
M93
G00 X907.13 Y-749.66
M94 F1700
G41 D21
N129 M07
G01 X912.58 Y-744.22
G03 X901.97 Y-739.83 I-10.61 J-10.61
G03 X886.97 Y-754.83 I0.00 J-15.00
G03 X901.97 Y-769.83 I15.00 J0.00
G03 X916.97 Y-754.83 I0.00 J15.00
G03 X913.58 Y-745.33 I-15.00 J0.00
M50
G03 X912.58 Y-744.22 I-11.61 J-9.49
G03 X911.39 Y-743.15 I-10.61 J-10.61
M08
G40
M51
M93
G00 X901.12 Y-632.70
M94 F1222
G41 D21
N130 M07
G01 X906.57 Y-627.26
M50
G03 X901.97 Y-625.35 I-4.60 J-4.60
G03 X895.47 Y-631.85 I0.00 J-6.50
G03 X901.97 Y-638.35 I6.50 J-0.00
G03 X908.47 Y-631.85 I0.00 J6.50
G03 X906.57 Y-627.26 I-6.50 J-0.00
G03 X905.31 Y-626.27 I-4.60 J-4.60
M08
G40
M51
M93
G00 X901.12 Y-684.70
M94 F1222
G41 D21
N131 M07
G01 X906.57 Y-679.26
M50
G03 X901.97 Y-677.35 I-4.60 J-4.60
G03 X895.47 Y-683.85 I0.00 J-6.50
G03 X901.97 Y-690.35 I6.50 J0.00
G03 X908.47 Y-683.85 I0.00 J6.50
G03 X906.57 Y-679.26 I-6.50 J0.00
G03 X905.31 Y-678.27 I-4.60 J-4.60
M08
G40
M51
M93
G00 X1081.98 Y-598.15
M94 F1700
G41 D21
N132 M07
G01 X1081.98 Y-605.85
G01 X1081.98 Y-785.85
G01 X870.95 Y-785.85
G01 X870.95 Y-605.85
G01 X964.91 Y-605.85
G02 X974.91 Y-615.85 I0.00 J-10.00
G01 X974.91 Y-617.68
G03 X993.41 Y-636.18 I18.50 J0.00
G03 X1011.91 Y-617.68 I0.00 J18.50
G01 X1011.91 Y-615.85
G02 X1016.79 Y-607.26 I10.00 J-0.00
G02 X1018.87 Y-606.14 I4.66 J-6.14
G01 X1021.32 Y-605.85
G01 X1080.48 Y-605.85
M50
G01 X1081.98 Y-605.85
G03 X1083.78 Y-604.05 I-0.00 J1.80
M08
G40
M51
M93
G00 X1049.58 Y-492.78
M94 F1222
G41 D21
N133 M07
G01 X1055.02 Y-487.33
M50
G03 X1050.43 Y-485.43 I-4.60 J-4.60
G03 X1043.93 Y-491.93 I0.00 J-6.50
G03 X1050.43 Y-498.43 I6.50 J0.00
G03 X1056.93 Y-491.93 I0.00 J6.50
G03 X1055.02 Y-487.33 I-6.50 J0.00
G03 X1053.77 Y-486.35 I-4.60 J-4.60
M08
G40
M51
M93
G00 X1049.58 Y-440.78
M94 F1222
G41 D21
N134 M07
G01 X1055.02 Y-435.33
M50
G03 X1050.43 Y-433.43 I-4.60 J-4.60
G03 X1043.93 Y-439.93 I0.00 J-6.50
G03 X1050.43 Y-446.43 I6.50 J0.00
G03 X1056.93 Y-439.93 I0.00 J6.50
G03 X1055.02 Y-435.33 I-6.50 J0.00
G03 X1053.77 Y-434.35 I-4.60 J-4.60
M08
G40
M51
M93
G00 X907.13 Y-557.74
M94 F1700
G41 D21
N135 M07
G01 X912.58 Y-552.30
G03 X901.97 Y-547.90 I-10.61 J-10.61
G03 X886.97 Y-562.90 I0.00 J-15.00
G03 X901.97 Y-577.90 I15.00 J0.00
G03 X916.97 Y-562.90 I0.00 J15.00
G03 X913.58 Y-553.41 I-15.00 J0.00
M50
G03 X912.58 Y-552.30 I-11.61 J-9.49
G03 X911.39 Y-551.23 I-10.61 J-10.61
M08
G40
M51
M93
G00 X901.12 Y-440.78
M94 F1222
G41 D21
N136 M07
G01 X906.57 Y-435.33
M50
G03 X901.97 Y-433.43 I-4.60 J-4.60
G03 X895.47 Y-439.93 I0.00 J-6.50
G03 X901.97 Y-446.43 I6.50 J-0.00
G03 X908.47 Y-439.93 I0.00 J6.50
G03 X906.57 Y-435.33 I-6.50 J-0.00
G03 X905.31 Y-434.35 I-4.60 J-4.60
M08
G40
M51
M93
G00 X901.12 Y-492.78
M94 F1222
G41 D21
N137 M07
G01 X906.57 Y-487.33
M50
G03 X901.97 Y-485.43 I-4.60 J-4.60
G03 X895.47 Y-491.93 I0.00 J-6.50
G03 X901.97 Y-498.43 I6.50 J0.00
G03 X908.47 Y-491.93 I0.00 J6.50
G03 X906.57 Y-487.33 I-6.50 J-0.00
G03 X905.31 Y-486.35 I-4.60 J-4.60
M08
G40
M51
M93
G00 X1081.98 Y-406.23
M94 F1700
G41 D21
N138 M07
G01 X1081.98 Y-413.93
G01 X1081.98 Y-593.93
G01 X870.95 Y-593.93
G01 X870.95 Y-413.93
G01 X964.91 Y-413.93
G02 X974.91 Y-423.93 I0.00 J-10.00
G01 X974.91 Y-425.76
G03 X993.41 Y-444.26 I18.50 J0.00
G03 X1011.91 Y-425.76 I0.00 J18.50
G01 X1011.91 Y-423.93
G02 X1016.79 Y-415.34 I10.00 J-0.00
G02 X1018.87 Y-414.22 I4.66 J-6.14
G01 X1021.32 Y-413.93
G01 X1080.48 Y-413.93
M50
G01 X1081.98 Y-413.93
G03 X1083.78 Y-412.13 I-0.00 J1.80
M08
G40
M51
M93
G00 X1049.58 Y-300.86
M94 F1222
G41 D21
N139 M07
G01 X1055.02 Y-295.41
M50
G03 X1050.43 Y-293.51 I-4.60 J-4.60
G03 X1043.93 Y-300.01 I0.00 J-6.50
G03 X1050.43 Y-306.51 I6.50 J0.00
G03 X1056.93 Y-300.01 I0.00 J6.50
G03 X1055.02 Y-295.41 I-6.50 J0.00
G03 X1053.77 Y-294.43 I-4.60 J-4.60
M08
G40
M51
M93
G00 X1049.58 Y-248.86
M94 F1222
G41 D21
N140 M07
G01 X1055.02 Y-243.41
M50
G03 X1050.43 Y-241.51 I-4.60 J-4.60
G03 X1043.93 Y-248.01 I0.00 J-6.50
G03 X1050.43 Y-254.51 I6.50 J0.00
G03 X1056.93 Y-248.01 I0.00 J6.50
G03 X1055.02 Y-243.41 I-6.50 J0.00
G03 X1053.77 Y-242.43 I-4.60 J-4.60
M08
G40
M51
M93
G00 X907.13 Y-365.82
M94 F1700
G41 D21
N141 M07
G01 X912.58 Y-360.38
G03 X901.97 Y-355.98 I-10.61 J-10.61
G03 X886.97 Y-370.98 I0.00 J-15.00
G03 X901.97 Y-385.98 I15.00 J0.00
G03 X916.97 Y-370.98 I0.00 J15.00
G03 X913.58 Y-361.49 I-15.00 J0.00
M50
G03 X912.58 Y-360.38 I-11.61 J-9.49
G03 X911.39 Y-359.31 I-10.61 J-10.61
M08
G40
M51
M93
G00 X901.12 Y-248.86
M94 F1222
G41 D21
N142 M07
G01 X906.57 Y-243.41
M50
G03 X901.97 Y-241.51 I-4.60 J-4.60
G03 X895.47 Y-248.01 I0.00 J-6.50
G03 X901.97 Y-254.51 I6.50 J0.00
G03 X908.47 Y-248.01 I0.00 J6.50
G03 X906.57 Y-243.41 I-6.50 J-0.00
G03 X905.31 Y-242.43 I-4.60 J-4.60
M08
G40
M51
M93
G00 X901.12 Y-300.86
M94 F1222
G41 D21
N143 M07
G01 X906.57 Y-295.41
M50
G03 X901.97 Y-293.51 I-4.60 J-4.60
G03 X895.47 Y-300.01 I0.00 J-6.50
G03 X901.97 Y-306.51 I6.50 J0.00
G03 X908.47 Y-300.01 I0.00 J6.50
G03 X906.57 Y-295.41 I-6.50 J-0.00
G03 X905.31 Y-294.43 I-4.60 J-4.60
M08
G40
M51
M93
G00 X1081.98 Y-214.31
M94 F1700
G41 D21
N144 M07
G01 X1081.98 Y-222.01
G01 X1081.98 Y-402.01
G01 X870.95 Y-402.01
G01 X870.95 Y-222.01
G01 X964.91 Y-222.01
G02 X974.91 Y-232.01 I0.00 J-10.00
G01 X974.91 Y-233.84
G03 X993.41 Y-252.34 I18.50 J0.00
G03 X1011.91 Y-233.84 I0.00 J18.50
G01 X1011.91 Y-232.01
G02 X1016.79 Y-223.42 I10.00 J-0.00
G02 X1018.87 Y-222.29 I4.66 J-6.14
G01 X1021.32 Y-222.01
G01 X1080.48 Y-222.01
M50
G01 X1081.98 Y-222.01
G03 X1083.78 Y-220.21 I-0.00 J1.80
M08
G40
M51
M93
G00 X1049.58 Y-108.93
M94 F1222
G41 D21
N145 M07
G01 X1055.02 Y-103.49
M50
G03 X1050.43 Y-101.59 I-4.60 J-4.60
G03 X1043.93 Y-108.09 I0.00 J-6.50
G03 X1050.43 Y-114.59 I6.50 J0.00
G03 X1056.93 Y-108.09 I0.00 J6.50
G03 X1055.02 Y-103.49 I-6.50 J0.00
G03 X1053.77 Y-102.51 I-4.60 J-4.60
M08
G40
M51
M93
G00 X1049.58 Y-56.93
M94 F1222
G41 D21
N146 M07
G01 X1055.02 Y-51.49
M50
G03 X1050.43 Y-49.59 I-4.60 J-4.60
G03 X1043.93 Y-56.09 I0.00 J-6.50
G03 X1050.43 Y-62.59 I6.50 J0.00
G03 X1056.93 Y-56.09 I0.00 J6.50
G03 X1055.02 Y-51.49 I-6.50 J0.00
G03 X1053.77 Y-50.51 I-4.60 J-4.60
M08
G40
M51
M93
G00 X907.13 Y-173.90
M94 F1700
G41 D21
N147 M07
G01 X912.58 Y-168.45
G03 X901.97 Y-164.06 I-10.61 J-10.61
G03 X886.97 Y-179.06 I0.00 J-15.00
G03 X901.97 Y-194.06 I15.00 J0.00
G03 X916.97 Y-179.06 I0.00 J15.00
G03 X913.58 Y-169.57 I-15.00 J0.00
M50
G03 X912.58 Y-168.45 I-11.61 J-9.49
G03 X911.39 Y-167.38 I-10.61 J-10.61
M08
G40
M51
M93
G00 X901.12 Y-56.93
M94 F1222
G41 D21
N148 M07
G01 X906.57 Y-51.49
M50
G03 X901.97 Y-49.59 I-4.60 J-4.60
G03 X895.47 Y-56.09 I0.00 J-6.50
G03 X901.97 Y-62.59 I6.50 J0.00
G03 X908.47 Y-56.09 I0.00 J6.50
G03 X906.57 Y-51.49 I-6.50 J-0.00
G03 X905.31 Y-50.51 I-4.60 J-4.60
M08
G40
M51
M93
G00 X901.12 Y-108.93
M94 F1222
G41 D21
N149 M07
G01 X906.57 Y-103.49
M50
G03 X901.97 Y-101.59 I-4.60 J-4.60
G03 X895.47 Y-108.09 I0.00 J-6.50
G03 X901.97 Y-114.59 I6.50 J0.00
G03 X908.47 Y-108.09 I0.00 J6.50
G03 X906.57 Y-103.49 I-6.50 J0.00
G03 X905.31 Y-102.51 I-4.60 J-4.60
M08
G40
M51
M93
G00 X1081.98 Y-22.39
M94 F1700
G41 D21
N150 M07
G01 X1081.98 Y-30.09
G01 X1081.98 Y-210.09
G01 X870.95 Y-210.09
G01 X870.95 Y-30.09
G01 X964.91 Y-30.09
G02 X974.91 Y-40.09 I0.00 J-10.00
G01 X974.91 Y-41.91
G03 X993.41 Y-60.41 I18.50 J0.00
G03 X1011.91 Y-41.91 I0.00 J18.50
G01 X1011.91 Y-40.09
G02 X1016.79 Y-31.49 I10.00 J-0.00
G02 X1018.87 Y-30.37 I4.66 J-6.14
G01 X1021.32 Y-30.09
G01 X1080.48 Y-30.09
M50
G01 X1081.98 Y-30.09
G03 X1083.78 Y-28.29 I-0.00 J1.80
M08
G40
M51
M93
(PlanFooterCommand)
M64
T0
M65
#CS OFF
M30
