(PP_NAME=	  PP_Din)
(PP_VERSION=	  4.0)
(PP_INI_NAME=	  GC_PLASMA_4.5.ini)
(PP_INI_VERSION=  2014-02-26)
(PLANNAME=        top- og bundvange-endeplader)
(MACHINE= 	  PowerMAX105_MS_105)
(MATERIAL= 	  S235JR)
(THICKNESS= 	  8)
#CONTOUR MODE [DEV PATH_DEV=0.2 RELEVANT_PATH=0.1]
#TRC [CONV_CIR_TO_LIN=1]
G71
G90
#CS ON [V.A.ABS.X, V.A.ABS.Y, 0, 0, 0, V.E.ROTATION]
M190
G162
G141
G237
G00 X633.82 Y-65.25
M64
T21
M65
M94 F1628
G41 D21
N1 M07
G01 X643.61 Y-59.40
M50
G03 X640.73 Y-56.22 I-9.44 J-5.64
G03 X632.57 Y-54.16 I-6.57 J-8.82
G03 X623.28 Y-66.64 I1.60 J-10.88
G03 X635.76 Y-75.93 I10.88 J1.60
G03 X645.05 Y-63.45 I-1.60 J10.88
G03 X643.61 Y-59.40 I-10.88 J-1.60
G03 X640.73 Y-56.22 I-9.44 J-5.64
M08
G40
M51
M93
G00 X545.11 Y-116.49
M94 F1550
G41 D21
N2 M07
G01 X549.40 Y-113.93
M50
G03 X548.10 Y-112.48 I-4.29 J-2.56
G03 X544.39 Y-111.55 I-2.99 J-4.01
G03 X540.16 Y-117.22 I0.73 J-4.95
G03 X545.84 Y-121.44 I4.95 J0.73
G03 X550.06 Y-115.77 I-0.73 J4.95
G03 X549.40 Y-113.93 I-4.95 J-0.73
G03 X548.10 Y-112.48 I-4.29 J-2.56
M08
G40
M51
M93
G00 X299.41 Y-66.74
M94 F1550
G41 D21
N3 M07
G01 X303.70 Y-64.17
M50
G03 X302.39 Y-62.72 I-4.29 J-2.56
G03 X298.68 Y-61.79 I-2.99 J-4.01
G03 X294.46 Y-67.46 I0.73 J-4.95
G03 X300.13 Y-71.68 I4.95 J0.73
G03 X304.35 Y-66.01 I-0.73 J4.95
G03 X303.70 Y-64.17 I-4.95 J-0.73
G03 X302.39 Y-62.72 I-4.29 J-2.56
M08
G40
M51
M93
G00 X544.60 Y-14.50
M94 F1550
G41 D21
N4 M07
G01 X548.89 Y-11.93
M50
G03 X547.58 Y-10.48 I-4.29 J-2.56
G03 X543.87 Y-9.55 I-2.99 J-4.01
G03 X539.65 Y-15.22 I0.73 J-4.95
G03 X545.32 Y-19.44 I4.95 J0.73
G03 X549.54 Y-13.77 I-0.73 J4.95
G03 X548.89 Y-11.93 I-4.95 J-0.73
G03 X547.58 Y-10.48 I-4.29 J-2.56
M08
G40
M51
M93
G00 X684.91 Y-13.79
M94 F1550
G41 D21
N5 M07
G01 X689.20 Y-11.22
M50
G03 X687.89 Y-9.77 I-4.29 J-2.56
G03 X684.18 Y-8.84 I-2.99 J-4.01
G03 X679.96 Y-14.51 I0.73 J-4.95
G03 X685.63 Y-18.73 I4.95 J0.73
G03 X689.86 Y-13.06 I-0.73 J4.95
G03 X689.20 Y-11.22 I-4.95 J-0.73
G03 X687.89 Y-9.77 I-4.29 J-2.56
M08
G40
M51
M93
G00 X400.58 Y-35.62
M94 F1550
G41 D21
N6 M07
G01 X404.87 Y-33.05
M50
G03 X403.56 Y-31.61 I-4.29 J-2.56
G03 X399.85 Y-30.67 I-2.99 J-4.01
G03 X395.63 Y-36.34 I0.73 J-4.95
G03 X401.30 Y-40.57 I4.95 J0.73
G03 X405.52 Y-34.89 I-0.73 J4.95
G03 X404.87 Y-33.05 I-4.95 J-0.73
G03 X403.56 Y-31.61 I-4.29 J-2.56
M08
G40
M51
M93
G00 X400.89 Y-96.83
M94 F1550
G41 D21
N7 M07
G01 X405.18 Y-94.27
M50
G03 X403.87 Y-92.82 I-4.29 J-2.56
G03 X400.16 Y-91.88 I-2.99 J-4.01
G03 X395.94 Y-97.55 I0.73 J-4.95
G03 X401.61 Y-101.78 I4.95 J0.73
G03 X405.83 Y-96.10 I-0.73 J4.95
G03 X405.18 Y-94.27 I-4.95 J-0.73
G03 X403.87 Y-92.82 I-4.29 J-2.56
M08
G40
M51
M93
G00 X685.42 Y-115.78
M94 F1550
G41 D21
N8 M07
G01 X689.72 Y-113.22
M50
G03 X688.41 Y-111.77 I-4.29 J-2.56
G03 X684.70 Y-110.84 I-2.99 J-4.01
G03 X680.48 Y-116.51 I0.73 J-4.95
G03 X686.15 Y-120.73 I4.95 J0.73
G03 X690.37 Y-115.06 I-0.73 J4.95
G03 X689.72 Y-113.22 I-4.95 J-0.73
G03 X688.41 Y-111.77 I-4.29 J-2.56
M08
G40
M51
M93
G00 X433.83 Y-66.26
M94 F1628
G41 D21
N9 M07
G01 X443.61 Y-60.41
M50
G03 X440.74 Y-57.23 I-9.44 J-5.64
G03 X432.57 Y-55.17 I-6.57 J-8.82
G03 X423.29 Y-67.65 I1.60 J-10.88
G03 X435.77 Y-76.94 I10.88 J1.60
G03 X445.05 Y-64.46 I-1.60 J10.88
G03 X443.61 Y-60.41 I-10.88 J-1.60
G03 X440.74 Y-57.23 I-9.44 J-5.64
M08
G40
M51
M93
G00 X544.61 Y-0.88
M94 F3100
G41 D21
N10 M07
G01 X544.79 Y-5.49
G01 X686.77 Y-4.78
G02 X692.99 Y-6.81 I-0.54 J-12.19
G02 X693.88 Y-8.74 I-1.88 J-2.05
G01 X694.45 Y-120.74
G02 X692.25 Y-123.66 I-2.65 J-0.29
G02 X687.37 Y-124.77 I-4.52 J8.50
G01 X545.40 Y-125.49
G01 X543.67 Y-125.38
G01 X399.84 Y-105.77
G01 X398.21 Y-105.42
G01 X279.97 Y-70.36
G02 X276.21 Y-66.70 I3.18 J7.03
G02 X279.94 Y-63.31 I3.65 J-0.27
G01 X397.82 Y-27.05
G01 X399.44 Y-26.69
G01 X543.07 Y-5.62
M50
G01 X544.79 Y-5.49
G03 X547.38 Y-2.49 I-0.21 J2.79
M08
G40
M51
M93
G00 X143.13 Y-79.18
M94 F2403
G41 D21
N11 M07
G01 X151.19 Y-71.12
M50
G03 X149.78 Y-70.54 I-1.41 J-1.41
G01 X89.78 Y-70.54
G01 X89.78 Y-78.04
G01 X113.78 Y-79.04
G01 X113.78 Y-103.04
G01 X89.78 Y-104.04
G01 X89.78 Y-111.54
G01 X149.78 Y-111.54
G03 X151.19 Y-110.95 I0.00 J2.00
G03 X151.78 Y-109.54 I-1.41 J1.41
G01 X151.78 Y-72.54
G03 X151.19 Y-71.12 I-2.00 J0.00
G03 X149.78 Y-70.54 I-1.41 J-1.41
M08
G40
M51
M93
G00 X249.13 Y-79.43
M94 F2248
G41 D21
N12 M07
G01 X257.19 Y-71.37
M50
G03 X255.78 Y-70.79 I-1.41 J-1.41
G01 X219.78 Y-70.79
G01 X219.78 Y-111.29
G01 X255.78 Y-111.29
G03 X257.19 Y-110.70 I0.00 J2.00
G03 X257.78 Y-109.29 I-1.41 J1.41
G01 X257.78 Y-72.79
G03 X257.19 Y-71.37 I-2.00 J0.00
G03 X255.78 Y-70.79 I-1.41 J-1.41
M08
G40
M51
M93
G00 X216.01 Y-47.03
M94 F3100
G41 D21
N13 M07
G01 X214.83 Y-51.50
G01 X215.87 Y-51.83
G01 X296.94 Y-87.73
G02 X299.33 Y-91.18 I-1.99 J-3.94
G02 X296.94 Y-94.34 I-3.48 J0.15
G01 X215.87 Y-130.24
G01 X214.83 Y-130.57
G01 X116.71 Y-150.92
G01 X115.61 Y-151.04
G01 X18.42 Y-151.04
G02 X14.02 Y-148.22 I0.24 J5.21
G01 X13.88 Y-147.29
G01 X13.88 Y-34.79
G02 X14.57 Y-32.79 I3.22 J-0.00
G02 X18.42 Y-31.04 I3.73 J-3.07
G01 X115.61 Y-31.04
G01 X116.71 Y-31.15
G01 X212.68 Y-51.05
M50
G01 X214.83 Y-51.50
G03 X218.14 Y-49.33 I0.57 J2.74
M08
G40
M51
M93
(PlanFooterCommand)
M64
T0
M65
#CS OFF
M30
