(PP_NAME=	  PP_Din)
(PP_VERSION=	  4.0)
(PP_INI_NAME=	  GC_PLASMA_4.5.ini)
(PP_INI_VERSION=  2014-02-26)
(PLANNAME=        vanger 3)
(MACHINE= 	  PowerMAX105_MS_45)
(MATERIAL= 	  S235JR)
(THICKNESS= 	  3)
#CONTOUR MODE [DEV PATH_DEV=0.2 RELEVANT_PATH=0.1]
#TRC [CONV_CIR_TO_LIN=1]
G71
G90
#CS ON [V.A.ABS.X, V.A.ABS.Y, 0, 0, 0, V.E.ROTATION]
M190
G162
G141
G237
G00 X321.21 Y-1093.45
M64
T21
M65
M94 F1581
G41 D21
N1 M07
G01 X323.52 Y-1093.45
M50
G01 X323.52 Y-1065.95
G03 X320.52 Y-1062.95 I-3.00 J0.00
G03 X317.52 Y-1065.95 I0.00 J-3.00
G01 X317.52 Y-1120.95
G03 X320.52 Y-1123.95 I3.00 J0.00
G03 X323.52 Y-1120.95 I0.00 J3.00
G01 X323.52 Y-1093.45
G01 X323.52 Y-1091.25
M08
G40
M51
M93
G00 X321.21 Y-947.05
M94 F1581
G41 D21
N2 M07
G01 X323.52 Y-947.05
M50
G01 X323.52 Y-919.55
G03 X320.52 Y-916.55 I-3.00 J0.00
G03 X317.52 Y-919.55 I0.00 J-3.00
G01 X317.52 Y-974.55
G03 X320.52 Y-977.55 I3.00 J0.00
G03 X323.52 Y-974.55 I0.00 J3.00
G01 X323.52 Y-947.05
G01 X323.52 Y-944.85
M08
G40
M51
M93
G00 X321.21 Y-800.65
M94 F1581
G41 D21
N3 M07
G01 X323.52 Y-800.65
M50
G01 X323.52 Y-773.15
G03 X320.52 Y-770.15 I-3.00 J0.00
G03 X317.52 Y-773.15 I0.00 J-3.00
G01 X317.52 Y-828.15
G03 X320.52 Y-831.15 I3.00 J0.00
G03 X323.52 Y-828.15 I0.00 J3.00
G01 X323.52 Y-800.65
G01 X323.52 Y-798.45
M08
G40
M51
M93
G00 X321.21 Y-654.25
M94 F1581
G41 D21
N4 M07
G01 X323.52 Y-654.25
M50
G01 X323.52 Y-626.75
G03 X320.52 Y-623.75 I-3.00 J0.00
G03 X317.52 Y-626.75 I0.00 J-3.00
G01 X317.52 Y-681.75
G03 X320.52 Y-684.75 I3.00 J0.00
G03 X323.52 Y-681.75 I0.00 J3.00
G01 X323.52 Y-654.25
G01 X323.52 Y-652.05
M08
G40
M51
M93
G00 X321.21 Y-507.85
M94 F1581
G41 D21
N5 M07
G01 X323.52 Y-507.85
M50
G01 X323.52 Y-480.35
G03 X320.52 Y-477.35 I-3.00 J0.00
G03 X317.52 Y-480.35 I0.00 J-3.00
G01 X317.52 Y-535.35
G03 X320.52 Y-538.35 I3.00 J0.00
G03 X323.52 Y-535.35 I0.00 J3.00
G01 X323.52 Y-507.85
G01 X323.52 Y-505.65
M08
G40
M51
M93
G00 X321.21 Y-361.45
M94 F1581
G41 D21
N6 M07
G01 X323.52 Y-361.45
M50
G01 X323.52 Y-333.95
G03 X320.52 Y-330.95 I-3.00 J0.00
G03 X317.52 Y-333.95 I0.00 J-3.00
G01 X317.52 Y-388.95
G03 X320.52 Y-391.95 I3.00 J0.00
G03 X323.52 Y-388.95 I0.00 J3.00
G01 X323.52 Y-361.45
G01 X323.52 Y-359.25
M08
G40
M51
M93
G00 X321.21 Y-215.05
M94 F1581
G41 D21
N7 M07
G01 X323.52 Y-215.05
M50
G01 X323.52 Y-187.55
G03 X320.52 Y-184.55 I-3.00 J0.00
G03 X317.52 Y-187.55 I0.00 J-3.00
G01 X317.52 Y-242.55
G03 X320.52 Y-245.55 I3.00 J0.00
G03 X323.52 Y-242.55 I0.00 J3.00
G01 X323.52 Y-215.05
G01 X323.52 Y-212.85
M08
G40
M51
M93
G00 X321.21 Y-288.25
M94 F1581
G41 D21
N8 M07
G01 X323.52 Y-288.25
M50
G01 X323.52 Y-260.75
G03 X320.52 Y-257.75 I-3.00 J0.00
G03 X317.52 Y-260.75 I0.00 J-3.00
G01 X317.52 Y-315.75
G03 X320.52 Y-318.75 I3.00 J0.00
G03 X323.52 Y-315.75 I0.00 J3.00
G01 X323.52 Y-288.25
G01 X323.52 Y-286.05
M08
G40
M51
M93
G00 X321.21 Y-434.65
M94 F1581
G41 D21
N9 M07
G01 X323.52 Y-434.65
M50
G01 X323.52 Y-407.15
G03 X320.52 Y-404.15 I-3.00 J0.00
G03 X317.52 Y-407.15 I0.00 J-3.00
G01 X317.52 Y-462.15
G03 X320.52 Y-465.15 I3.00 J0.00
G03 X323.52 Y-462.15 I0.00 J3.00
G01 X323.52 Y-434.65
G01 X323.52 Y-432.45
M08
G40
M51
M93
G00 X321.21 Y-581.05
M94 F1581
G41 D21
N10 M07
G01 X323.52 Y-581.05
M50
G01 X323.52 Y-553.55
G03 X320.52 Y-550.55 I-3.00 J0.00
G03 X317.52 Y-553.55 I0.00 J-3.00
G01 X317.52 Y-608.55
G03 X320.52 Y-611.55 I3.00 J0.00
G03 X323.52 Y-608.55 I0.00 J3.00
G01 X323.52 Y-581.05
G01 X323.52 Y-578.85
M08
G40
M51
M93
G00 X321.21 Y-727.45
M94 F1581
G41 D21
N11 M07
G01 X323.52 Y-727.45
M50
G01 X323.52 Y-699.95
G03 X320.52 Y-696.95 I-3.00 J0.00
G03 X317.52 Y-699.95 I0.00 J-3.00
G01 X317.52 Y-754.95
G03 X320.52 Y-757.95 I3.00 J0.00
G03 X323.52 Y-754.95 I0.00 J3.00
G01 X323.52 Y-727.45
G01 X323.52 Y-725.25
M08
G40
M51
M93
G00 X321.21 Y-873.85
M94 F1581
G41 D21
N12 M07
G01 X323.52 Y-873.85
M50
G01 X323.52 Y-846.35
G03 X320.52 Y-843.35 I-3.00 J0.00
G03 X317.52 Y-846.35 I0.00 J-3.00
G01 X317.52 Y-901.35
G03 X320.52 Y-904.35 I3.00 J0.00
G03 X323.52 Y-901.35 I0.00 J3.00
G01 X323.52 Y-873.85
G01 X323.52 Y-871.65
M08
G40
M51
M93
G00 X321.21 Y-1020.25
M94 F1581
G41 D21
N13 M07
G01 X323.52 Y-1020.25
M50
G01 X323.52 Y-992.75
G03 X320.52 Y-989.75 I-3.00 J-0.00
G03 X317.52 Y-992.75 I0.00 J-3.00
G01 X317.52 Y-1047.75
G03 X320.52 Y-1050.75 I3.00 J0.00
G03 X323.52 Y-1047.75 I0.00 J3.00
G01 X323.52 Y-1020.25
G01 X323.52 Y-1018.05
M08
G40
M51
M93
G00 X321.21 Y-1166.65
M94 F1581
G41 D21
N14 M07
G01 X323.52 Y-1166.65
M50
G01 X323.52 Y-1139.15
G03 X320.52 Y-1136.15 I-3.00 J0.00
G03 X317.52 Y-1139.15 I0.00 J-3.00
G01 X317.52 Y-1194.15
G03 X320.52 Y-1197.15 I3.00 J0.00
G03 X323.52 Y-1194.15 I0.00 J3.00
G01 X323.52 Y-1166.65
G01 X323.52 Y-1164.45
M08
G40
M51
M93
G00 X470.46 Y-396.65
M94 F1788
G41 D21
N15 M07
G01 X476.03 Y-397.29
M50
G03 X474.48 Y-389.39 I-9.81 J2.18
G03 X456.52 Y-383.85 I-11.88 J-6.64
G03 X449.82 Y-400.94 I5.83 J-12.14
G03 X467.05 Y-408.37 I12.46 J5.21
G03 X474.69 Y-401.90 I-4.45 J12.99
G01 X475.86 Y-398.75
G01 X476.03 Y-397.29
G01 X476.19 Y-395.83
M08
G40
M51
M93
G00 X476.27 Y-102.18
M94 F1788
G41 D21
N16 M07
G01 X481.84 Y-102.81
M50
G03 X480.29 Y-94.92 I-9.81 J2.18
G03 X462.33 Y-89.38 I-11.88 J-6.64
G03 X455.63 Y-106.47 I5.83 J-12.14
G03 X472.86 Y-113.90 I12.46 J5.21
G03 X480.50 Y-107.42 I-4.45 J12.99
G01 X481.67 Y-104.27
G01 X481.84 Y-102.81
G01 X482.00 Y-101.36
M08
G40
M51
M93
G00 X470.46 Y-699.39
M94 F1788
G41 D21
N17 M07
G01 X476.03 Y-700.03
M50
G03 X474.48 Y-692.13 I-9.81 J2.18
G03 X456.52 Y-686.59 I-11.88 J-6.64
G03 X449.82 Y-703.68 I5.83 J-12.14
G03 X467.05 Y-711.11 I12.46 J5.21
G03 X474.69 Y-704.63 I-4.45 J12.99
G01 X475.86 Y-701.48
G01 X476.03 Y-700.03
G01 X476.19 Y-698.57
M08
G40
M51
M93
G00 X470.46 Y-1002.13
M94 F1788
G41 D21
N18 M07
G01 X476.03 Y-1002.76
M50
G03 X474.48 Y-994.87 I-9.81 J2.18
G03 X456.52 Y-989.33 I-11.88 J-6.64
G03 X449.82 Y-1006.42 I5.83 J-12.14
G03 X467.05 Y-1013.85 I12.46 J5.21
G03 X474.69 Y-1007.37 I-4.45 J12.99
G01 X475.86 Y-1004.22
G01 X476.03 Y-1002.76
G01 X476.19 Y-1001.30
M08
G40
M51
M93
G00 X110.41 Y-1114.14
M94 F1719
G41 D21
N19 M07
G01 X114.37 Y-1118.10
M50
G03 X118.27 Y-1108.70 I-9.40 J9.40
G03 X104.97 Y-1095.40 I-13.30 J-0.00
G03 X91.67 Y-1108.70 I-0.00 J-13.30
G03 X104.97 Y-1122.00 I13.30 J0.00
G03 X114.37 Y-1118.10 I0.00 J13.30
G03 X115.79 Y-1116.42 I-9.40 J9.40
M08
G40
M51
M93
G00 X110.41 Y-800.52
M94 F1719
G41 D21
N20 M07
G01 X114.37 Y-796.56
M50
G03 X104.97 Y-792.66 I-9.40 J-9.40
G03 X91.67 Y-805.96 I-0.00 J-13.30
G03 X104.97 Y-819.26 I13.30 J0.00
G03 X118.27 Y-805.96 I0.00 J13.30
G03 X114.37 Y-796.56 I-13.30 J0.00
G03 X112.69 Y-795.14 I-9.40 J-9.40
M08
G40
M51
M93
G00 X110.13 Y-195.33
M94 F1719
G41 D21
N21 M07
G01 X114.09 Y-191.37
M50
G03 X104.97 Y-187.59 I-9.12 J-9.12
G03 X92.07 Y-200.49 I0.00 J-12.90
G03 X104.97 Y-213.39 I12.90 J-0.00
G03 X117.87 Y-200.49 I0.00 J12.90
G03 X114.09 Y-191.37 I-12.90 J0.00
G03 X112.41 Y-189.95 I-9.12 J-9.12
M08
G40
M51
M93
G00 X110.41 Y-508.67
M94 F1719
G41 D21
N22 M07
G01 X114.37 Y-512.63
M50
G03 X118.27 Y-503.22 I-9.40 J9.40
G03 X104.97 Y-489.92 I-13.30 J0.00
G03 X91.67 Y-503.22 I0.00 J-13.30
G03 X104.97 Y-516.52 I13.30 J-0.00
G03 X114.37 Y-512.63 I-0.00 J13.30
G03 X115.79 Y-510.95 I-9.40 J9.40
M08
G40
M51
M93
G00 X186.56 Y-1001.19
M94 F1788
G41 D21
N23 M07
G01 X192.16 Y-1001.10
M50
G03 X189.50 Y-993.28 I-9.82 J1.01
G03 X170.91 Y-990.27 I-10.90 J-8.39
G03 X166.56 Y-1007.74 I7.36 J-11.11
G03 X184.52 Y-1013.28 I11.88 J6.64
G03 X191.38 Y-1006.03 I-5.77 J12.32
G01 X192.19 Y-1002.77
G01 X192.16 Y-1001.10
G01 X192.13 Y-999.42
M08
G40
M51
M93
G00 X186.56 Y-698.45
M94 F1788
G41 D21
N24 M07
G01 X192.16 Y-698.36
M50
G03 X189.50 Y-690.55 I-9.82 J1.01
G03 X170.91 Y-687.53 I-10.90 J-8.39
G03 X166.56 Y-705.00 I7.36 J-11.11
G03 X184.52 Y-710.54 I11.88 J6.64
G03 X191.38 Y-703.29 I-5.77 J12.32
G01 X192.19 Y-700.03
G01 X192.16 Y-698.36
G01 X192.13 Y-696.68
M08
G40
M51
M93
G00 X180.75 Y-101.24
M94 F1788
G41 D21
N25 M07
G01 X186.35 Y-101.15
M50
G03 X183.69 Y-93.34 I-9.82 J1.01
G03 X165.10 Y-90.32 I-10.90 J-8.39
G03 X160.75 Y-107.79 I7.36 J-11.11
G03 X178.71 Y-113.33 I11.88 J6.64
G03 X185.57 Y-106.08 I-5.77 J12.32
G01 X186.38 Y-102.82
G01 X186.35 Y-101.15
G01 X186.32 Y-99.47
M08
G40
M51
M93
G00 X186.56 Y-395.71
M94 F1788
G41 D21
N26 M07
G01 X192.16 Y-395.62
M50
G03 X189.50 Y-387.81 I-9.82 J1.01
G03 X170.91 Y-384.79 I-10.90 J-8.39
G03 X166.56 Y-402.27 I7.36 J-11.11
G03 X184.52 Y-407.81 I11.88 J6.64
G03 X191.38 Y-400.55 I-5.77 J12.32
G01 X192.19 Y-397.30
G01 X192.16 Y-395.62
G01 X192.13 Y-393.95
M08
G40
M51
M93
G00 X541.52 Y-508.67
M94 F1719
G41 D21
N27 M07
G01 X545.48 Y-512.63
M50
G03 X549.38 Y-503.22 I-9.40 J9.40
G03 X536.08 Y-489.92 I-13.30 J0.00
G03 X522.78 Y-503.22 I0.00 J-13.30
G03 X536.08 Y-516.52 I13.30 J-0.00
G03 X545.48 Y-512.63 I0.00 J13.30
G03 X546.90 Y-510.95 I-9.40 J9.40
M08
G40
M51
M93
G00 X541.24 Y-205.65
M94 F1719
G41 D21
N28 M07
G01 X545.20 Y-209.61
M50
G03 X548.98 Y-200.49 I-9.12 J9.12
G03 X536.08 Y-187.59 I-12.90 J0.00
G03 X523.18 Y-200.49 I0.00 J-12.90
G03 X536.08 Y-213.39 I12.90 J-0.00
G03 X545.20 Y-209.61 I0.00 J12.90
G03 X546.61 Y-207.93 I-9.12 J9.12
M08
G40
M51
M93
G00 X541.52 Y-811.41
M94 F1719
G41 D21
N29 M07
G01 X545.48 Y-815.36
M50
G03 X549.38 Y-805.96 I-9.40 J9.40
G03 X536.08 Y-792.66 I-13.30 J0.00
G03 X522.78 Y-805.96 I0.00 J-13.30
G03 X536.08 Y-819.26 I13.30 J0.00
G03 X545.48 Y-815.36 I0.00 J13.30
G03 X546.90 Y-813.69 I-9.40 J9.40
M08
G40
M51
M93
G00 X541.52 Y-1114.14
M94 F1719
G41 D21
N30 M07
G01 X545.48 Y-1118.10
M50
G03 X549.38 Y-1108.70 I-9.40 J9.40
G03 X536.08 Y-1095.40 I-13.30 J-0.00
G03 X522.78 Y-1108.70 I0.00 J-13.30
G03 X536.08 Y-1122.00 I13.30 J0.00
G03 X545.48 Y-1118.10 I0.00 J13.30
G03 X546.90 Y-1116.42 I-9.40 J9.40
M08
G40
M51
M93
G00 X631.04 Y-948.48
M94 F2750
G41 D21
N31 M07
G01 X631.04 Y-954.08
G01 X631.04 Y-984.08
G01 X597.54 Y-984.08
G03 X587.54 Y-994.08 I0.00 J-10.00
G01 X587.54 Y-1205.37
G01 X53.50 Y-1205.37
G01 X53.50 Y-994.08
G03 X43.50 Y-984.08 I-10.00 J0.00
G01 X10.00 Y-984.08
G01 X10.00 Y-954.08
G01 X43.50 Y-954.08
G03 X53.50 Y-944.08 I0.00 J10.00
G01 X53.50 Y-621.31
G03 X43.50 Y-611.31 I-10.00 J0.00
G01 X10.00 Y-611.31
G01 X10.00 Y-582.26
G03 X24.42 Y-575.47 I-1.27 J21.40
G03 X33.13 Y-559.67 I-20.62 J21.67
G03 X26.48 Y-527.43 I-37.87 J9.00
G03 X12.72 Y-518.77 I-20.63 J-17.55
G01 X10.00 Y-518.40
G01 X10.00 Y-489.34
G01 X43.50 Y-489.34
G03 X53.50 Y-479.34 I0.00 J10.00
G01 X53.50 Y-156.58
G03 X43.50 Y-146.58 I-10.00 J0.00
G01 X10.00 Y-146.58
G01 X10.00 Y-11.60
G01 X64.75 Y-11.60
G02 X68.73 Y-12.95 I0.28 J-5.69
G02 X72.18 Y-15.72 I-7.31 J-12.66
G02 X72.71 Y-16.20 I-90.64 J-100.53
G01 X153.00 Y-70.97
G03 X154.25 Y-72.09 I1409.09 J1566.04
G01 X237.82 Y-127.38
G03 X239.07 Y-128.44 I34.02 J39.00
G01 X315.05 Y-174.12
G03 X318.64 Y-176.23 I12.82 J17.73
G03 X323.25 Y-175.89 I1.84 J6.52
G03 X325.99 Y-174.12 I-3.92 J9.06
G01 X401.97 Y-128.44
G03 X403.22 Y-127.38 I-15.76 J19.91
G01 X486.79 Y-72.09
G03 X488.04 Y-70.97 I-35.99 J41.29
G01 X568.33 Y-16.20
G02 X572.07 Y-13.11 I622.62 J-748.54
G02 X575.75 Y-11.62 I6.75 J-11.46
G02 X576.29 Y-11.60 I0.55 J-5.41
G01 X631.04 Y-11.60
G01 X631.04 Y-146.58
G01 X597.54 Y-146.58
G03 X587.54 Y-156.58 I0.00 J-10.00
G01 X587.54 Y-479.34
G03 X597.54 Y-489.34 I10.00 J0.00
G01 X631.04 Y-489.34
G01 X631.04 Y-518.40
G03 X616.62 Y-525.18 I1.27 J-21.40
G03 X607.91 Y-540.98 I20.62 J-21.67
G03 X614.56 Y-573.23 I37.87 J-9.00
G03 X628.32 Y-581.88 I20.63 J17.55
G01 X631.04 Y-582.26
G01 X631.04 Y-611.31
G01 X597.54 Y-611.31
G03 X587.54 Y-621.31 I0.00 J-10.00
G01 X587.54 Y-944.08
G03 X597.54 Y-954.08 I10.00 J0.00
G01 X629.94 Y-954.08
M50
G01 X631.04 Y-954.08
G03 X633.04 Y-952.08 I0.00 J2.00
M08
G40
M51
M93
G00 X905.73 Y-1235.21
M94 F1581
G41 D21
N32 M07
G01 X908.04 Y-1235.21
M50
G01 X908.04 Y-1207.71
G03 X905.04 Y-1204.71 I-3.00 J0.00
G03 X902.04 Y-1207.71 I-0.00 J-3.00
G01 X902.04 Y-1262.71
G03 X905.04 Y-1265.71 I3.00 J0.00
G03 X908.04 Y-1262.71 I0.00 J3.00
G01 X908.04 Y-1235.21
G01 X908.04 Y-1233.01
M08
G40
M51
M93
G00 X905.73 Y-1088.81
M94 F1581
G41 D21
N33 M07
G01 X908.04 Y-1088.81
M50
G01 X908.04 Y-1061.31
G03 X905.04 Y-1058.31 I-3.00 J0.00
G03 X902.04 Y-1061.31 I-0.00 J-3.00
G01 X902.04 Y-1116.31
G03 X905.04 Y-1119.31 I3.00 J0.00
G03 X908.04 Y-1116.31 I0.00 J3.00
G01 X908.04 Y-1088.81
G01 X908.04 Y-1086.61
M08
G40
M51
M93
G00 X905.73 Y-942.41
M94 F1581
G41 D21
N34 M07
G01 X908.04 Y-942.41
M50
G01 X908.04 Y-914.91
G03 X905.04 Y-911.91 I-3.00 J0.00
G03 X902.04 Y-914.91 I-0.00 J-3.00
G01 X902.04 Y-969.91
G03 X905.04 Y-972.91 I3.00 J0.00
G03 X908.04 Y-969.91 I0.00 J3.00
G01 X908.04 Y-942.41
G01 X908.04 Y-940.21
M08
G40
M51
M93
G00 X905.73 Y-796.01
M94 F1581
G41 D21
N35 M07
G01 X908.04 Y-796.01
M50
G01 X908.04 Y-768.51
G03 X905.04 Y-765.51 I-3.00 J0.00
G03 X902.04 Y-768.51 I-0.00 J-3.00
G01 X902.04 Y-823.51
G03 X905.04 Y-826.51 I3.00 J0.00
G03 X908.04 Y-823.51 I0.00 J3.00
G01 X908.04 Y-796.01
G01 X908.04 Y-793.81
M08
G40
M51
M93
G00 X905.73 Y-649.61
M94 F1581
G41 D21
N36 M07
G01 X908.04 Y-649.61
M50
G01 X908.04 Y-622.11
G03 X905.04 Y-619.11 I-3.00 J0.00
G03 X902.04 Y-622.11 I-0.00 J-3.00
G01 X902.04 Y-677.11
G03 X905.04 Y-680.11 I3.00 J0.00
G03 X908.04 Y-677.11 I0.00 J3.00
G01 X908.04 Y-649.61
G01 X908.04 Y-647.41
M08
G40
M51
M93
G00 X905.73 Y-503.21
M94 F1581
G41 D21
N37 M07
G01 X908.04 Y-503.21
M50
G01 X908.04 Y-475.71
G03 X905.04 Y-472.71 I-3.00 J0.00
G03 X902.04 Y-475.71 I-0.00 J-3.00
G01 X902.04 Y-530.71
G03 X905.04 Y-533.71 I3.00 J0.00
G03 X908.04 Y-530.71 I0.00 J3.00
G01 X908.04 Y-503.21
G01 X908.04 Y-501.01
M08
G40
M51
M93
G00 X905.73 Y-356.81
M94 F1581
G41 D21
N38 M07
G01 X908.04 Y-356.81
M50
G01 X908.04 Y-329.31
G03 X905.04 Y-326.31 I-3.00 J0.00
G03 X902.04 Y-329.31 I0.00 J-3.00
G01 X902.04 Y-384.31
G03 X905.04 Y-387.31 I3.00 J0.00
G03 X908.04 Y-384.31 I0.00 J3.00
G01 X908.04 Y-356.81
G01 X908.04 Y-354.61
M08
G40
M51
M93
G00 X905.73 Y-430.01
M94 F1581
G41 D21
N39 M07
G01 X908.04 Y-430.01
M50
G01 X908.04 Y-402.51
G03 X905.04 Y-399.51 I-3.00 J0.00
G03 X902.04 Y-402.51 I-0.00 J-3.00
G01 X902.04 Y-457.51
G03 X905.04 Y-460.51 I3.00 J0.00
G03 X908.04 Y-457.51 I0.00 J3.00
G01 X908.04 Y-430.01
G01 X908.04 Y-427.81
M08
G40
M51
M93
G00 X905.73 Y-576.41
M94 F1581
G41 D21
N40 M07
G01 X908.04 Y-576.41
M50
G01 X908.04 Y-548.91
G03 X905.04 Y-545.91 I-3.00 J0.00
G03 X902.04 Y-548.91 I-0.00 J-3.00
G01 X902.04 Y-603.91
G03 X905.04 Y-606.91 I3.00 J0.00
G03 X908.04 Y-603.91 I0.00 J3.00
G01 X908.04 Y-576.41
G01 X908.04 Y-574.21
M08
G40
M51
M93
G00 X905.73 Y-722.81
M94 F1581
G41 D21
N41 M07
G01 X908.04 Y-722.81
M50
G01 X908.04 Y-695.31
G03 X905.04 Y-692.31 I-3.00 J0.00
G03 X902.04 Y-695.31 I-0.00 J-3.00
G01 X902.04 Y-750.31
G03 X905.04 Y-753.31 I3.00 J0.00
G03 X908.04 Y-750.31 I0.00 J3.00
G01 X908.04 Y-722.81
G01 X908.04 Y-720.61
M08
G40
M51
M93
G00 X905.73 Y-869.21
M94 F1581
G41 D21
N42 M07
G01 X908.04 Y-869.21
M50
G01 X908.04 Y-841.71
G03 X905.04 Y-838.71 I-3.00 J0.00
G03 X902.04 Y-841.71 I-0.00 J-3.00
G01 X902.04 Y-896.71
G03 X905.04 Y-899.71 I3.00 J0.00
G03 X908.04 Y-896.71 I-0.00 J3.00
G01 X908.04 Y-869.21
G01 X908.04 Y-867.01
M08
G40
M51
M93
G00 X905.73 Y-1015.61
M94 F1581
G41 D21
N43 M07
G01 X908.04 Y-1015.61
M50
G01 X908.04 Y-988.11
G03 X905.04 Y-985.11 I-3.00 J0.00
G03 X902.04 Y-988.11 I-0.00 J-3.00
G01 X902.04 Y-1043.11
G03 X905.04 Y-1046.11 I3.00 J0.00
G03 X908.04 Y-1043.11 I0.00 J3.00
G01 X908.04 Y-1015.61
G01 X908.04 Y-1013.41
M08
G40
M51
M93
G00 X905.73 Y-1162.01
M94 F1581
G41 D21
N44 M07
G01 X908.04 Y-1162.01
M50
G01 X908.04 Y-1134.51
G03 X905.04 Y-1131.51 I-3.00 J0.00
G03 X902.04 Y-1134.51 I0.00 J-3.00
G01 X902.04 Y-1189.51
G03 X905.04 Y-1192.51 I3.00 J0.00
G03 X908.04 Y-1189.51 I0.00 J3.00
G01 X908.04 Y-1162.01
G01 X908.04 Y-1159.81
M08
G40
M51
M93
G00 X905.73 Y-1308.41
M94 F1581
G41 D21
N45 M07
G01 X908.04 Y-1308.41
M50
G01 X908.04 Y-1280.91
G03 X905.04 Y-1277.91 I-3.00 J0.00
G03 X902.04 Y-1280.91 I-0.00 J-3.00
G01 X902.04 Y-1335.91
G03 X905.04 Y-1338.91 I3.00 J0.00
G03 X908.04 Y-1335.91 I0.00 J3.00
G01 X908.04 Y-1308.41
G01 X908.04 Y-1306.21
M08
G40
M51
M93
G00 X1054.98 Y-538.41
M94 F1788
G41 D21
N46 M07
G01 X1060.55 Y-539.05
M50
G03 X1059.00 Y-531.15 I-9.81 J2.18
G03 X1041.04 Y-525.62 I-11.88 J-6.64
G03 X1034.34 Y-542.71 I5.83 J-12.14
G03 X1051.57 Y-550.13 I12.46 J5.21
G03 X1059.21 Y-543.66 I-4.45 J12.99
G01 X1060.38 Y-540.51
G01 X1060.55 Y-539.05
G01 X1060.71 Y-537.59
M08
G40
M51
M93
G00 X1060.79 Y-243.94
M94 F1788
G41 D21
N47 M07
G01 X1066.36 Y-244.57
M50
G03 X1064.81 Y-236.68 I-9.81 J2.18
G03 X1046.85 Y-231.14 I-11.88 J-6.64
G03 X1040.15 Y-248.23 I5.83 J-12.14
G03 X1057.38 Y-255.66 I12.46 J5.21
G03 X1065.02 Y-249.18 I-4.45 J12.99
G01 X1066.19 Y-246.03
G01 X1066.36 Y-244.57
G01 X1066.52 Y-243.12
M08
G40
M51
M93
G00 X1054.98 Y-841.15
M94 F1788
G41 D21
N48 M07
G01 X1060.55 Y-841.79
M50
G03 X1059.00 Y-833.89 I-9.81 J2.18
G03 X1041.04 Y-828.35 I-11.88 J-6.64
G03 X1034.34 Y-845.44 I5.83 J-12.14
G03 X1051.57 Y-852.87 I12.46 J5.21
G03 X1059.21 Y-846.39 I-4.45 J12.99
G01 X1060.38 Y-843.24
G01 X1060.55 Y-841.79
G01 X1060.71 Y-840.33
M08
G40
M51
M93
G00 X1054.98 Y-1143.89
M94 F1788
G41 D21
N49 M07
G01 X1060.55 Y-1144.52
M50
G03 X1059.00 Y-1136.63 I-9.81 J2.18
G03 X1041.04 Y-1131.09 I-11.88 J-6.64
G03 X1034.34 Y-1148.18 I5.83 J-12.14
G03 X1051.57 Y-1155.61 I12.46 J5.21
G03 X1059.21 Y-1149.13 I-4.45 J12.99
G01 X1060.38 Y-1145.98
G01 X1060.55 Y-1144.52
G01 X1060.71 Y-1143.06
M08
G40
M51
M93
G00 X694.93 Y-1255.90
M94 F1719
G41 D21
N50 M07
G01 X698.89 Y-1259.86
M50
G03 X702.79 Y-1250.46 I-9.40 J9.40
G03 X689.49 Y-1237.16 I-13.30 J-0.00
G03 X676.19 Y-1250.46 I-0.00 J-13.30
G03 X689.49 Y-1263.76 I13.30 J0.00
G03 X698.89 Y-1259.86 I0.00 J13.30
G03 X700.31 Y-1258.19 I-9.40 J9.40
M08
G40
M51
M93
G00 X694.93 Y-942.28
M94 F1719
G41 D21
N51 M07
G01 X698.89 Y-938.32
M50
G03 X689.49 Y-934.42 I-9.40 J-9.40
G03 X676.19 Y-947.72 I0.00 J-13.30
G03 X689.49 Y-961.02 I13.30 J0.00
G03 X702.79 Y-947.72 I0.00 J13.30
G03 X698.89 Y-938.32 I-13.30 J0.00
G03 X697.21 Y-936.90 I-9.40 J-9.40
M08
G40
M51
M93
G00 X694.65 Y-337.09
M94 F1719
G41 D21
N52 M07
G01 X698.61 Y-333.13
M50
G03 X689.49 Y-329.35 I-9.12 J-9.12
G03 X676.59 Y-342.25 I0.00 J-12.90
G03 X689.49 Y-355.15 I12.90 J0.00
G03 X702.39 Y-342.25 I0.00 J12.90
G03 X698.61 Y-333.13 I-12.90 J0.00
G03 X696.93 Y-331.71 I-9.12 J-9.12
M08
G40
M51
M93
G00 X694.93 Y-650.43
M94 F1719
G41 D21
N53 M07
G01 X698.89 Y-654.39
M50
G03 X702.79 Y-644.98 I-9.40 J9.40
G03 X689.49 Y-631.68 I-13.30 J0.00
G03 X676.19 Y-644.98 I0.00 J-13.30
G03 X689.49 Y-658.28 I13.30 J0.00
G03 X698.89 Y-654.39 I0.00 J13.30
G03 X700.31 Y-652.71 I-9.40 J9.40
M08
G40
M51
M93
G00 X771.08 Y-1142.95
M94 F1788
G41 D21
N54 M07
G01 X776.68 Y-1142.86
M50
G03 X774.02 Y-1135.05 I-9.82 J1.01
G03 X755.43 Y-1132.03 I-10.90 J-8.39
G03 X751.08 Y-1149.50 I7.36 J-11.11
G03 X769.04 Y-1155.04 I11.88 J6.64
G03 X775.90 Y-1147.79 I-5.77 J12.32
G01 X776.71 Y-1144.53
G01 X776.68 Y-1142.86
G01 X776.65 Y-1141.18
M08
G40
M51
M93
G00 X771.08 Y-840.21
M94 F1788
G41 D21
N55 M07
G01 X776.68 Y-840.12
M50
G03 X774.02 Y-832.31 I-9.82 J1.01
G03 X755.43 Y-829.29 I-10.90 J-8.39
G03 X751.08 Y-846.77 I7.36 J-11.11
G03 X769.04 Y-852.30 I11.88 J6.64
G03 X775.90 Y-845.05 I-5.77 J12.32
G01 X776.71 Y-841.80
G01 X776.68 Y-840.12
G01 X776.65 Y-838.44
M08
G40
M51
M93
G00 X765.27 Y-243.00
M94 F1788
G41 D21
N56 M07
G01 X770.87 Y-242.91
M50
G03 X768.21 Y-235.10 I-9.82 J1.01
G03 X749.62 Y-232.08 I-10.90 J-8.39
G03 X745.27 Y-249.55 I7.36 J-11.11
G03 X763.23 Y-255.09 I11.88 J6.64
G03 X770.09 Y-247.84 I-5.77 J12.32
G01 X770.90 Y-244.58
G01 X770.87 Y-242.91
G01 X770.84 Y-241.23
M08
G40
M51
M93
G00 X771.08 Y-537.47
M94 F1788
G41 D21
N57 M07
G01 X776.68 Y-537.38
M50
G03 X774.02 Y-529.57 I-9.82 J1.01
G03 X755.43 Y-526.56 I-10.90 J-8.39
G03 X751.08 Y-544.03 I7.36 J-11.11
G03 X769.04 Y-549.57 I11.88 J6.64
G03 X775.90 Y-542.32 I-5.77 J12.32
G01 X776.71 Y-539.06
G01 X776.68 Y-537.38
G01 X776.65 Y-535.71
M08
G40
M51
M93
G00 X1126.04 Y-650.43
M94 F1719
G41 D21
N58 M07
G01 X1130.00 Y-654.39
M50
G03 X1133.90 Y-644.98 I-9.40 J9.40
G03 X1120.60 Y-631.68 I-13.30 J0.00
G03 X1107.30 Y-644.98 I0.00 J-13.30
G03 X1120.60 Y-658.28 I13.30 J0.00
G03 X1130.00 Y-654.39 I0.00 J13.30
G03 X1131.42 Y-652.71 I-9.40 J9.40
M08
G40
M51
M93
G00 X1125.76 Y-347.41
M94 F1719
G41 D21
N59 M07
G01 X1129.72 Y-351.37
M50
G03 X1133.50 Y-342.25 I-9.12 J9.12
G03 X1120.60 Y-329.35 I-12.90 J-0.00
G03 X1107.70 Y-342.25 I0.00 J-12.90
G03 X1120.60 Y-355.15 I12.90 J0.00
G03 X1129.72 Y-351.37 I-0.00 J12.90
G03 X1131.13 Y-349.69 I-9.12 J9.12
M08
G40
M51
M93
G00 X1126.04 Y-953.17
M94 F1719
G41 D21
N60 M07
G01 X1130.00 Y-957.13
M50
G03 X1133.90 Y-947.72 I-9.40 J9.40
G03 X1120.60 Y-934.42 I-13.30 J0.00
G03 X1107.30 Y-947.72 I0.00 J-13.30
G03 X1120.60 Y-961.02 I13.30 J0.00
G03 X1130.00 Y-957.13 I0.00 J13.30
G03 X1131.42 Y-955.45 I-9.40 J9.40
M08
G40
M51
M93
G00 X1126.04 Y-1255.90
M94 F1719
G41 D21
N61 M07
G01 X1130.00 Y-1259.86
M50
G03 X1133.90 Y-1250.46 I-9.40 J9.40
G03 X1120.60 Y-1237.16 I-13.30 J0.00
G03 X1107.30 Y-1250.46 I-0.00 J-13.30
G03 X1120.60 Y-1263.76 I13.30 J0.00
G03 X1130.00 Y-1259.86 I0.00 J13.30
G03 X1131.42 Y-1258.19 I-9.40 J9.40
M08
G40
M51
M93
G00 X1215.56 Y-1090.24
M94 F2750
G41 D21
N62 M07
G01 X1215.56 Y-1095.84
G01 X1215.56 Y-1125.84
G01 X1182.06 Y-1125.84
G03 X1172.06 Y-1135.84 I0.00 J-10.00
G01 X1172.06 Y-1347.13
G01 X638.02 Y-1347.13
G01 X638.02 Y-1135.84
G03 X628.02 Y-1125.84 I-10.00 J0.00
G01 X594.52 Y-1125.84
G01 X594.52 Y-1095.84
G01 X628.02 Y-1095.84
G03 X638.02 Y-1085.84 I0.00 J10.00
G01 X638.02 Y-763.07
G03 X628.02 Y-753.07 I-10.00 J0.00
G01 X594.52 Y-753.07
G01 X594.52 Y-724.02
G03 X608.94 Y-717.23 I-1.27 J21.40
G03 X617.65 Y-701.43 I-20.62 J21.67
G03 X611.00 Y-669.19 I-37.87 J9.00
G03 X597.24 Y-660.54 I-20.63 J-17.55
G01 X594.52 Y-660.16
G01 X594.52 Y-631.10
G01 X628.02 Y-631.10
G03 X638.02 Y-621.10 I0.00 J10.00
G01 X638.02 Y-298.34
G03 X628.02 Y-288.34 I-10.00 J0.00
G01 X594.52 Y-288.34
G01 X594.52 Y-153.36
G01 X649.27 Y-153.36
G02 X653.25 Y-154.71 I0.28 J-5.69
G02 X656.70 Y-157.48 I-7.31 J-12.66
G02 X657.23 Y-157.96 I-90.64 J-100.53
G01 X737.52 Y-212.73
G03 X738.77 Y-213.85 I1409.09 J1566.04
G01 X822.34 Y-269.14
G03 X823.59 Y-270.20 I34.02 J39.00
G01 X899.57 Y-315.88
G03 X903.16 Y-317.99 I12.82 J17.73
G03 X907.77 Y-317.65 I1.84 J6.52
G03 X910.51 Y-315.88 I-3.92 J9.06
G01 X986.49 Y-270.20
G03 X987.74 Y-269.14 I-15.76 J19.91
G01 X1071.31 Y-213.85
G03 X1072.56 Y-212.73 I-35.99 J41.29
G01 X1152.85 Y-157.96
G02 X1156.59 Y-154.87 I622.62 J-748.54
G02 X1160.27 Y-153.39 I6.75 J-11.46
G02 X1160.81 Y-153.36 I0.55 J-5.41
G01 X1215.56 Y-153.36
G01 X1215.56 Y-288.34
G01 X1182.06 Y-288.34
G03 X1172.06 Y-298.34 I0.00 J-10.00
G01 X1172.06 Y-621.10
G03 X1182.06 Y-631.10 I10.00 J-0.00
G01 X1215.56 Y-631.10
G01 X1215.56 Y-660.16
G03 X1201.14 Y-666.94 I1.27 J-21.40
G03 X1192.43 Y-682.75 I20.62 J-21.67
G03 X1199.08 Y-714.99 I37.87 J-9.00
G03 X1212.84 Y-723.64 I20.63 J17.55
G01 X1215.56 Y-724.02
G01 X1215.56 Y-753.07
G01 X1182.06 Y-753.07
G03 X1172.06 Y-763.07 I0.00 J-10.00
G01 X1172.06 Y-1085.84
G03 X1182.06 Y-1095.84 I10.00 J-0.00
G01 X1214.46 Y-1095.84
M50
G01 X1215.56 Y-1095.84
G03 X1217.56 Y-1093.84 I0.00 J2.00
M08
G40
M51
M93
G00 X146.82 Y-1662.14
M94 F1581
G41 D21
N63 M07
G01 X152.42 Y-1662.14
M50
G03 X149.42 Y-1659.14 I-3.00 J0.00
G01 X94.42 Y-1659.14
G03 X91.42 Y-1662.14 I0.00 J-3.00
G03 X94.42 Y-1665.14 I3.00 J0.00
G01 X149.42 Y-1665.14
G03 X152.42 Y-1662.14 I0.00 J3.00
G03 X151.65 Y-1660.13 I-3.00 J0.00
M08
G40
M51
M93
G00 X293.22 Y-1662.14
M94 F1581
G41 D21
N64 M07
G01 X298.82 Y-1662.14
M50
G03 X295.82 Y-1659.14 I-3.00 J0.00
G01 X240.82 Y-1659.14
G03 X237.82 Y-1662.14 I0.00 J-3.00
G03 X240.82 Y-1665.14 I3.00 J0.00
G01 X295.82 Y-1665.14
G03 X298.82 Y-1662.14 I0.00 J3.00
G03 X298.05 Y-1660.13 I-3.00 J0.00
M08
G40
M51
M93
G00 X439.62 Y-1662.14
M94 F1581
G41 D21
N65 M07
G01 X445.22 Y-1662.14
M50
G03 X442.22 Y-1659.14 I-3.00 J0.00
G01 X387.22 Y-1659.14
G03 X384.22 Y-1662.14 I0.00 J-3.00
G03 X387.22 Y-1665.14 I3.00 J0.00
G01 X442.22 Y-1665.14
G03 X445.22 Y-1662.14 I-0.00 J3.00
G03 X444.45 Y-1660.13 I-3.00 J0.00
M08
G40
M51
M93
G00 X586.02 Y-1662.14
M94 F1581
G41 D21
N66 M07
G01 X591.62 Y-1662.14
M50
G03 X588.62 Y-1659.14 I-3.00 J0.00
G01 X533.62 Y-1659.14
G03 X530.62 Y-1662.14 I0.00 J-3.00
G03 X533.62 Y-1665.14 I3.00 J0.00
G01 X588.62 Y-1665.14
G03 X591.62 Y-1662.14 I0.00 J3.00
G03 X590.85 Y-1660.13 I-3.00 J0.00
M08
G40
M51
M93
G00 X732.42 Y-1662.14
M94 F1581
G41 D21
N67 M07
G01 X738.02 Y-1662.14
M50
G03 X735.02 Y-1659.14 I-3.00 J0.00
G01 X680.02 Y-1659.14
G03 X677.02 Y-1662.14 I0.00 J-3.00
G03 X680.02 Y-1665.14 I3.00 J0.00
G01 X735.02 Y-1665.14
G03 X738.02 Y-1662.14 I0.00 J3.00
G03 X737.25 Y-1660.13 I-3.00 J0.00
M08
G40
M51
M93
G00 X878.82 Y-1662.14
M94 F1581
G41 D21
N68 M07
G01 X884.42 Y-1662.14
M50
G03 X881.42 Y-1659.14 I-3.00 J0.00
G01 X826.42 Y-1659.14
G03 X823.42 Y-1662.14 I0.00 J-3.00
G03 X826.42 Y-1665.14 I3.00 J0.00
G01 X881.42 Y-1665.14
G03 X884.42 Y-1662.14 I0.00 J3.00
G03 X883.65 Y-1660.13 I-3.00 J0.00
M08
G40
M51
M93
G00 X1025.22 Y-1662.14
M94 F1581
G41 D21
N69 M07
G01 X1030.82 Y-1662.14
M50
G03 X1027.82 Y-1659.14 I-3.00 J0.00
G01 X972.82 Y-1659.14
G03 X969.82 Y-1662.14 I0.00 J-3.00
G03 X972.82 Y-1665.14 I3.00 J-0.00
G01 X1027.82 Y-1665.14
G03 X1030.82 Y-1662.14 I0.00 J3.00
G03 X1030.05 Y-1660.13 I-3.00 J0.00
M08
G40
M51
M93
G00 X952.02 Y-1662.14
M94 F1581
G41 D21
N70 M07
G01 X957.62 Y-1662.14
M50
G03 X954.62 Y-1659.14 I-3.00 J0.00
G01 X899.62 Y-1659.14
G03 X896.62 Y-1662.14 I0.00 J-3.00
G03 X899.62 Y-1665.14 I3.00 J0.00
G01 X954.62 Y-1665.14
G03 X957.62 Y-1662.14 I0.00 J3.00
G03 X956.85 Y-1660.13 I-3.00 J0.00
M08
G40
M51
M93
G00 X805.62 Y-1662.14
M94 F1581
G41 D21
N71 M07
G01 X811.22 Y-1662.14
M50
G03 X808.22 Y-1659.14 I-3.00 J0.00
G01 X753.22 Y-1659.14
G03 X750.22 Y-1662.14 I0.00 J-3.00
G03 X753.22 Y-1665.14 I3.00 J0.00
G01 X808.22 Y-1665.14
G03 X811.22 Y-1662.14 I0.00 J3.00
G03 X810.45 Y-1660.13 I-3.00 J0.00
M08
G40
M51
M93
G00 X659.22 Y-1662.14
M94 F1581
G41 D21
N72 M07
G01 X664.82 Y-1662.14
M50
G03 X661.82 Y-1659.14 I-3.00 J0.00
G01 X606.82 Y-1659.14
G03 X603.82 Y-1662.14 I0.00 J-3.00
G03 X606.82 Y-1665.14 I3.00 J0.00
G01 X661.82 Y-1665.14
G03 X664.82 Y-1662.14 I0.00 J3.00
G03 X664.05 Y-1660.13 I-3.00 J0.00
M08
G40
M51
M93
G00 X512.82 Y-1662.14
M94 F1581
G41 D21
N73 M07
G01 X518.42 Y-1662.14
M50
G03 X515.42 Y-1659.14 I-3.00 J0.00
G01 X460.42 Y-1659.14
G03 X457.42 Y-1662.14 I0.00 J-3.00
G03 X460.42 Y-1665.14 I3.00 J0.00
G01 X515.42 Y-1665.14
G03 X518.42 Y-1662.14 I0.00 J3.00
G03 X517.65 Y-1660.13 I-3.00 J0.00
M08
G40
M51
M93
G00 X366.42 Y-1662.14
M94 F1581
G41 D21
N74 M07
G01 X372.02 Y-1662.14
M50
G03 X369.02 Y-1659.14 I-3.00 J0.00
G01 X314.02 Y-1659.14
G03 X311.02 Y-1662.14 I0.00 J-3.00
G03 X314.02 Y-1665.14 I3.00 J0.00
G01 X369.02 Y-1665.14
G03 X372.02 Y-1662.14 I-0.00 J3.00
G03 X371.25 Y-1660.13 I-3.00 J0.00
M08
G40
M51
M93
G00 X220.02 Y-1662.14
M94 F1581
G41 D21
N75 M07
G01 X225.62 Y-1662.14
M50
G03 X222.62 Y-1659.14 I-3.00 J-0.00
G01 X167.62 Y-1659.14
G03 X164.62 Y-1662.14 I0.00 J-3.00
G03 X167.62 Y-1665.14 I3.00 J0.00
G01 X222.62 Y-1665.14
G03 X225.62 Y-1662.14 I-0.00 J3.00
G03 X224.85 Y-1660.13 I-3.00 J0.00
M08
G40
M51
M93
G00 X73.62 Y-1662.14
M94 F1581
G41 D21
N76 M07
G01 X79.22 Y-1662.14
M50
G03 X76.22 Y-1659.14 I-3.00 J0.00
G01 X21.22 Y-1659.14
G03 X18.22 Y-1662.14 I0.00 J-3.00
G03 X21.22 Y-1665.14 I3.00 J0.00
G01 X76.22 Y-1665.14
G03 X79.22 Y-1662.14 I0.00 J3.00
G03 X78.45 Y-1660.13 I-3.00 J0.00
M08
G40
M51
M93
G00 X827.11 Y-1803.52
M94 F1788
G41 D21
N77 M07
G01 X832.70 Y-1803.13
M50
G03 X829.69 Y-1795.24 I-10.69 J0.45
G03 X809.12 Y-1795.57 I-10.15 J-8.43
G03 X813.47 Y-1816.30 I11.05 J-8.50
G03 X832.21 Y-1808.25 I6.16 J11.50
G01 X832.82 Y-1804.85
G01 X832.70 Y-1803.13
G01 X832.58 Y-1801.41
M08
G40
M51
M93
G00 X1121.59 Y-1809.33
M94 F1788
G41 D21
N78 M07
G01 X1127.17 Y-1808.94
M50
G03 X1124.16 Y-1801.05 I-10.69 J0.45
G03 X1103.60 Y-1801.38 I-10.15 J-8.43
G03 X1107.95 Y-1822.11 I11.05 J-8.50
G03 X1126.69 Y-1814.06 I6.16 J11.50
G01 X1127.29 Y-1810.66
G01 X1127.17 Y-1808.94
G01 X1127.06 Y-1807.22
M08
G40
M51
M93
G00 X524.38 Y-1803.52
M94 F1788
G41 D21
N79 M07
G01 X529.96 Y-1803.13
M50
G03 X526.95 Y-1795.24 I-10.69 J0.45
G03 X506.38 Y-1795.57 I-10.15 J-8.43
G03 X510.74 Y-1816.30 I11.05 J-8.50
G03 X529.48 Y-1808.25 I6.16 J11.50
G01 X530.08 Y-1804.85
G01 X529.96 Y-1803.13
G01 X529.84 Y-1801.41
M08
G40
M51
M93
G00 X221.64 Y-1803.52
M94 F1788
G41 D21
N80 M07
G01 X227.23 Y-1803.13
M50
G03 X224.22 Y-1795.24 I-10.69 J0.45
G03 X203.65 Y-1795.57 I-10.15 J-8.43
G03 X208.00 Y-1816.30 I11.05 J-8.50
G03 X226.74 Y-1808.25 I6.16 J11.50
G01 X227.34 Y-1804.85
G01 X227.23 Y-1803.13
G01 X227.11 Y-1801.41
M08
G40
M51
M93
G00 X112.12 Y-1452.03
M94 F1719
G41 D21
N81 M07
G01 X116.08 Y-1455.99
M50
G03 X119.97 Y-1446.58 I-9.40 J9.40
G03 X106.67 Y-1433.28 I-13.30 J-0.00
G03 X93.37 Y-1446.58 I-0.00 J-13.30
G03 X106.67 Y-1459.88 I13.30 J0.00
G03 X116.08 Y-1455.99 I0.00 J13.30
G03 X117.50 Y-1454.31 I-9.40 J9.40
M08
G40
M51
M93
G00 X414.85 Y-1452.03
M94 F1719
G41 D21
N82 M07
G01 X418.81 Y-1455.99
M50
G03 X422.71 Y-1446.58 I-9.40 J9.40
G03 X409.41 Y-1433.28 I-13.30 J-0.00
G03 X396.11 Y-1446.58 I-0.00 J-13.30
G03 X409.41 Y-1459.88 I13.30 J0.00
G03 X418.81 Y-1455.99 I0.00 J13.30
G03 X420.23 Y-1454.31 I-9.40 J9.40
M08
G40
M51
M93
G00 X1020.04 Y-1441.42
M94 F1719
G41 D21
N83 M07
G01 X1024.00 Y-1437.46
M50
G03 X1014.88 Y-1433.68 I-9.12 J-9.12
G03 X1001.98 Y-1446.58 I0.00 J-12.90
G03 X1014.88 Y-1459.48 I12.90 J0.00
G03 X1027.78 Y-1446.58 I-0.00 J12.90
G03 X1024.00 Y-1437.46 I-12.90 J0.00
G03 X1022.32 Y-1436.04 I-9.12 J-9.12
M08
G40
M51
M93
G00 X717.59 Y-1452.03
M94 F1719
G41 D21
N84 M07
G01 X721.55 Y-1455.99
M50
G03 X725.45 Y-1446.58 I-9.40 J9.40
G03 X712.15 Y-1433.28 I-13.30 J-0.00
G03 X698.85 Y-1446.58 I0.00 J-13.30
G03 X712.15 Y-1459.88 I13.30 J0.00
G03 X721.55 Y-1455.99 I0.00 J13.30
G03 X722.97 Y-1454.31 I-9.40 J9.40
M08
G40
M51
M93
G00 X221.65 Y-1520.50
M94 F1788
G41 D21
N85 M07
G01 X227.25 Y-1520.71
M50
G03 X225.10 Y-1512.52 I-10.61 J1.59
G03 X207.63 Y-1508.17 I-11.11 J-7.36
G03 X202.09 Y-1526.14 I6.64 J-11.88
G03 X219.18 Y-1532.83 I12.14 J5.83
G03 X226.22 Y-1525.75 I-5.27 J12.27
G01 X227.18 Y-1522.44
G01 X227.25 Y-1520.71
G01 X227.31 Y-1518.99
M08
G40
M51
M93
G00 X524.39 Y-1520.50
M94 F1788
G41 D21
N86 M07
G01 X529.99 Y-1520.71
M50
G03 X527.84 Y-1512.52 I-10.61 J1.59
G03 X510.36 Y-1508.17 I-11.11 J-7.36
G03 X504.83 Y-1526.14 I6.64 J-11.88
G03 X521.92 Y-1532.83 I12.14 J5.83
G03 X528.95 Y-1525.75 I-5.27 J12.27
G01 X529.92 Y-1522.44
G01 X529.99 Y-1520.71
G01 X530.05 Y-1518.99
M08
G40
M51
M93
G00 X1121.60 Y-1514.69
M94 F1788
G41 D21
N87 M07
G01 X1127.20 Y-1514.90
M50
G03 X1125.05 Y-1506.71 I-10.61 J1.59
G03 X1107.58 Y-1502.36 I-11.11 J-7.36
G03 X1102.04 Y-1520.33 I6.64 J-11.88
G03 X1119.13 Y-1527.02 I12.14 J5.83
G03 X1126.17 Y-1519.94 I-5.27 J12.27
G01 X1127.13 Y-1516.63
G01 X1127.20 Y-1514.90
G01 X1127.26 Y-1513.18
M08
G40
M51
M93
G00 X827.13 Y-1520.50
M94 F1788
G41 D21
N88 M07
G01 X832.72 Y-1520.71
M50
G03 X830.57 Y-1512.52 I-10.61 J1.59
G03 X813.10 Y-1508.17 I-11.11 J-7.36
G03 X807.56 Y-1526.14 I6.64 J-11.88
G03 X824.65 Y-1532.83 I12.14 J5.83
G03 X831.69 Y-1525.75 I-5.27 J12.27
G01 X832.66 Y-1522.44
G01 X832.72 Y-1520.71
G01 X832.79 Y-1518.99
M08
G40
M51
M93
G00 X717.59 Y-1872.25
M94 F1719
G41 D21
N89 M07
G01 X721.55 Y-1868.29
M50
G03 X712.15 Y-1864.39 I-9.40 J-9.40
G03 X698.85 Y-1877.69 I0.00 J-13.30
G03 X712.15 Y-1890.99 I13.30 J0.00
G03 X725.45 Y-1877.69 I0.00 J13.30
G03 X721.55 Y-1868.29 I-13.30 J0.00
G03 X719.87 Y-1866.87 I-9.40 J-9.40
M08
G40
M51
M93
G00 X1020.04 Y-1882.85
M94 F1719
G41 D21
N90 M07
G01 X1024.00 Y-1886.81
M50
G03 X1027.78 Y-1877.69 I-9.12 J9.12
G03 X1014.88 Y-1864.79 I-12.90 J0.00
G03 X1001.98 Y-1877.69 I0.00 J-12.90
G03 X1014.88 Y-1890.59 I12.90 J0.00
G03 X1024.00 Y-1886.81 I-0.00 J12.90
G03 X1025.42 Y-1885.13 I-9.12 J9.12
M08
G40
M51
M93
G00 X414.85 Y-1883.14
M94 F1719
G41 D21
N91 M07
G01 X418.81 Y-1887.10
M50
G03 X422.71 Y-1877.69 I-9.40 J9.40
G03 X409.41 Y-1864.39 I-13.30 J0.00
G03 X396.11 Y-1877.69 I-0.00 J-13.30
G03 X409.41 Y-1890.99 I13.30 J0.00
G03 X418.81 Y-1887.10 I0.00 J13.30
G03 X420.23 Y-1885.42 I-9.40 J9.40
M08
G40
M51
M93
G00 X112.12 Y-1872.25
M94 F1719
G41 D21
N92 M07
G01 X116.08 Y-1868.29
M50
G03 X106.67 Y-1864.39 I-9.40 J-9.40
G03 X93.37 Y-1877.69 I-0.00 J-13.30
G03 X106.67 Y-1890.99 I13.30 J0.00
G03 X119.97 Y-1877.69 I0.00 J13.30
G03 X116.08 Y-1868.29 I-13.30 J0.00
G03 X114.40 Y-1866.87 I-9.40 J-9.40
M08
G40
M51
M93
G00 X1068.79 Y-1978.26
M94 F2750
G41 D21
N93 M07
G01 X1068.79 Y-1972.66
G01 X1068.79 Y-1939.16
G03 X1058.79 Y-1929.16 I-10.00 J0.00
G01 X736.03 Y-1929.16
G03 X726.03 Y-1939.16 I0.00 J-10.00
G01 X726.03 Y-1972.66
G01 X696.97 Y-1972.66
G03 X690.19 Y-1958.24 I-21.40 J-1.27
G03 X674.38 Y-1949.53 I-21.67 J-20.62
G03 X642.14 Y-1956.18 I-9.00 J-37.87
G03 X633.49 Y-1969.93 I17.55 J-20.63
G01 X633.11 Y-1972.66
G01 X604.06 Y-1972.66
G01 X604.06 Y-1939.16
G03 X594.06 Y-1929.16 I-10.00 J0.00
G01 X271.29 Y-1929.16
G03 X261.29 Y-1939.16 I0.00 J-10.00
G01 X261.29 Y-1972.66
G01 X231.29 Y-1972.66
G01 X231.29 Y-1939.16
G03 X221.29 Y-1929.16 I-10.00 J0.00
G01 X10.00 Y-1929.16
G01 X10.00 Y-1395.12
G01 X221.29 Y-1395.12
G03 X231.29 Y-1385.12 I0.00 J10.00
G01 X231.29 Y-1351.62
G01 X261.29 Y-1351.62
G01 X261.29 Y-1385.12
G03 X271.29 Y-1395.12 I10.00 J0.00
G01 X594.06 Y-1395.12
G03 X604.06 Y-1385.12 I0.00 J10.00
G01 X604.06 Y-1351.62
G01 X633.11 Y-1351.62
G03 X639.90 Y-1366.03 I21.40 J1.27
G03 X655.70 Y-1374.74 I21.67 J20.62
G03 X687.94 Y-1368.09 I9.00 J37.87
G03 X696.59 Y-1354.34 I-17.55 J20.63
G01 X696.97 Y-1351.62
G01 X726.03 Y-1351.62
G01 X726.03 Y-1385.12
G03 X736.03 Y-1395.12 I10.00 J0.00
G01 X1058.79 Y-1395.12
G03 X1068.79 Y-1385.12 I0.00 J10.00
G01 X1068.79 Y-1351.62
G01 X1203.77 Y-1351.62
G01 X1203.77 Y-1406.37
G02 X1202.42 Y-1410.34 I-5.69 J-0.28
G02 X1199.65 Y-1413.79 I-12.66 J7.31
G02 X1199.17 Y-1414.33 I-100.53 J90.64
G01 X1144.40 Y-1494.62
G03 X1143.28 Y-1495.86 I1566.04 J-1409.09
G01 X1087.99 Y-1579.44
G03 X1086.93 Y-1580.68 I39.00 J-34.02
G01 X1041.25 Y-1656.67
G03 X1039.14 Y-1660.26 I17.73 J-12.82
G03 X1039.48 Y-1664.87 I6.52 J-1.84
G03 X1041.25 Y-1667.61 I9.06 J3.92
G01 X1086.93 Y-1743.59
G03 X1087.99 Y-1744.84 I19.91 J15.76
G01 X1143.28 Y-1828.41
G03 X1144.40 Y-1829.66 I41.29 J35.99
G01 X1199.17 Y-1909.94
G02 X1202.26 Y-1913.68 I-748.54 J-622.62
G02 X1203.74 Y-1917.37 I-11.46 J-6.75
G02 X1203.77 Y-1917.91 I-5.41 J-0.55
G01 X1203.77 Y-1972.66
G01 X1069.89 Y-1972.66
M50
G01 X1068.79 Y-1972.66
G03 X1066.79 Y-1974.66 I0.00 J-2.00
M08
G40
M51
M93
G00 X1490.25 Y-1093.45
M94 F1581
G41 D21
N94 M07
G01 X1492.56 Y-1093.45
M50
G01 X1492.56 Y-1065.95
G03 X1489.56 Y-1062.95 I-3.00 J0.00
G03 X1486.56 Y-1065.95 I-0.00 J-3.00
G01 X1486.56 Y-1120.95
G03 X1489.56 Y-1123.95 I3.00 J0.00
G03 X1492.56 Y-1120.95 I0.00 J3.00
G01 X1492.56 Y-1093.45
G01 X1492.56 Y-1091.25
M08
G40
M51
M93
G00 X1490.25 Y-947.05
M94 F1581
G41 D21
N95 M07
G01 X1492.56 Y-947.05
M50
G01 X1492.56 Y-919.55
G03 X1489.56 Y-916.55 I-3.00 J0.00
G03 X1486.56 Y-919.55 I-0.00 J-3.00
G01 X1486.56 Y-974.55
G03 X1489.56 Y-977.55 I3.00 J0.00
G03 X1492.56 Y-974.55 I0.00 J3.00
G01 X1492.56 Y-947.05
G01 X1492.56 Y-944.85
M08
G40
M51
M93
G00 X1490.25 Y-800.65
M94 F1581
G41 D21
N96 M07
G01 X1492.56 Y-800.65
M50
G01 X1492.56 Y-773.15
G03 X1489.56 Y-770.15 I-3.00 J0.00
G03 X1486.56 Y-773.15 I-0.00 J-3.00
G01 X1486.56 Y-828.15
G03 X1489.56 Y-831.15 I3.00 J0.00
G03 X1492.56 Y-828.15 I0.00 J3.00
G01 X1492.56 Y-800.65
G01 X1492.56 Y-798.45
M08
G40
M51
M93
G00 X1490.25 Y-654.25
M94 F1581
G41 D21
N97 M07
G01 X1492.56 Y-654.25
M50
G01 X1492.56 Y-626.75
G03 X1489.56 Y-623.75 I-3.00 J0.00
G03 X1486.56 Y-626.75 I-0.00 J-3.00
G01 X1486.56 Y-681.75
G03 X1489.56 Y-684.75 I3.00 J0.00
G03 X1492.56 Y-681.75 I0.00 J3.00
G01 X1492.56 Y-654.25
G01 X1492.56 Y-652.05
M08
G40
M51
M93
G00 X1490.25 Y-507.85
M94 F1581
G41 D21
N98 M07
G01 X1492.56 Y-507.85
M50
G01 X1492.56 Y-480.35
G03 X1489.56 Y-477.35 I-3.00 J0.00
G03 X1486.56 Y-480.35 I-0.00 J-3.00
G01 X1486.56 Y-535.35
G03 X1489.56 Y-538.35 I3.00 J0.00
G03 X1492.56 Y-535.35 I0.00 J3.00
G01 X1492.56 Y-507.85
G01 X1492.56 Y-505.65
M08
G40
M51
M93
G00 X1490.25 Y-361.45
M94 F1581
G41 D21
N99 M07
G01 X1492.56 Y-361.45
M50
G01 X1492.56 Y-333.95
G03 X1489.56 Y-330.95 I-3.00 J0.00
G03 X1486.56 Y-333.95 I-0.00 J-3.00
G01 X1486.56 Y-388.95
G03 X1489.56 Y-391.95 I3.00 J0.00
G03 X1492.56 Y-388.95 I0.00 J3.00
G01 X1492.56 Y-361.45
G01 X1492.56 Y-359.25
M08
G40
M51
M93
G00 X1490.25 Y-215.05
M94 F1581
G41 D21
N100 M07
G01 X1492.56 Y-215.05
M50
G01 X1492.56 Y-187.55
G03 X1489.56 Y-184.55 I-3.00 J0.00
G03 X1486.56 Y-187.55 I0.00 J-3.00
G01 X1486.56 Y-242.55
G03 X1489.56 Y-245.55 I3.00 J0.00
G03 X1492.56 Y-242.55 I-0.00 J3.00
G01 X1492.56 Y-215.05
G01 X1492.56 Y-212.85
M08
G40
M51
M93
G00 X1490.25 Y-288.25
M94 F1581
G41 D21
N101 M07
G01 X1492.56 Y-288.25
M50
G01 X1492.56 Y-260.75
G03 X1489.56 Y-257.75 I-3.00 J0.00
G03 X1486.56 Y-260.75 I-0.00 J-3.00
G01 X1486.56 Y-315.75
G03 X1489.56 Y-318.75 I3.00 J0.00
G03 X1492.56 Y-315.75 I0.00 J3.00
G01 X1492.56 Y-288.25
G01 X1492.56 Y-286.05
M08
G40
M51
M93
G00 X1490.25 Y-434.65
M94 F1581
G41 D21
N102 M07
G01 X1492.56 Y-434.65
M50
G01 X1492.56 Y-407.15
G03 X1489.56 Y-404.15 I-3.00 J0.00
G03 X1486.56 Y-407.15 I-0.00 J-3.00
G01 X1486.56 Y-462.15
G03 X1489.56 Y-465.15 I3.00 J0.00
G03 X1492.56 Y-462.15 I0.00 J3.00
G01 X1492.56 Y-434.65
G01 X1492.56 Y-432.45
M08
G40
M51
M93
G00 X1490.25 Y-581.05
M94 F1581
G41 D21
N103 M07
G01 X1492.56 Y-581.05
M50
G01 X1492.56 Y-553.55
G03 X1489.56 Y-550.55 I-3.00 J0.00
G03 X1486.56 Y-553.55 I-0.00 J-3.00
G01 X1486.56 Y-608.55
G03 X1489.56 Y-611.55 I3.00 J0.00
G03 X1492.56 Y-608.55 I0.00 J3.00
G01 X1492.56 Y-581.05
G01 X1492.56 Y-578.85
M08
G40
M51
M93
G00 X1490.25 Y-727.45
M94 F1581
G41 D21
N104 M07
G01 X1492.56 Y-727.45
M50
G01 X1492.56 Y-699.95
G03 X1489.56 Y-696.95 I-3.00 J0.00
G03 X1486.56 Y-699.95 I-0.00 J-3.00
G01 X1486.56 Y-754.95
G03 X1489.56 Y-757.95 I3.00 J0.00
G03 X1492.56 Y-754.95 I0.00 J3.00
G01 X1492.56 Y-727.45
G01 X1492.56 Y-725.25
M08
G40
M51
M93
G00 X1490.25 Y-873.85
M94 F1581
G41 D21
N105 M07
G01 X1492.56 Y-873.85
M50
G01 X1492.56 Y-846.35
G03 X1489.56 Y-843.35 I-3.00 J-0.00
G03 X1486.56 Y-846.35 I0.00 J-3.00
G01 X1486.56 Y-901.35
G03 X1489.56 Y-904.35 I3.00 J0.00
G03 X1492.56 Y-901.35 I0.00 J3.00
G01 X1492.56 Y-873.85
G01 X1492.56 Y-871.65
M08
G40
M51
M93
G00 X1490.25 Y-1020.25
M94 F1581
G41 D21
N106 M07
G01 X1492.56 Y-1020.25
M50
G01 X1492.56 Y-992.75
G03 X1489.56 Y-989.75 I-3.00 J-0.00
G03 X1486.56 Y-992.75 I0.00 J-3.00
G01 X1486.56 Y-1047.75
G03 X1489.56 Y-1050.75 I3.00 J0.00
G03 X1492.56 Y-1047.75 I0.00 J3.00
G01 X1492.56 Y-1020.25
G01 X1492.56 Y-1018.05
M08
G40
M51
M93
G00 X1490.25 Y-1166.65
M94 F1581
G41 D21
N107 M07
G01 X1492.56 Y-1166.65
M50
G01 X1492.56 Y-1139.15
G03 X1489.56 Y-1136.15 I-3.00 J0.00
G03 X1486.56 Y-1139.15 I-0.00 J-3.00
G01 X1486.56 Y-1194.15
G03 X1489.56 Y-1197.15 I3.00 J0.00
G03 X1492.56 Y-1194.15 I0.00 J3.00
G01 X1492.56 Y-1166.65
G01 X1492.56 Y-1164.45
M08
G40
M51
M93
G00 X1639.50 Y-396.65
M94 F1788
G41 D21
N108 M07
G01 X1645.07 Y-397.29
M50
G03 X1643.52 Y-389.39 I-9.81 J2.18
G03 X1625.56 Y-383.85 I-11.88 J-6.64
G03 X1618.86 Y-400.94 I5.83 J-12.14
G03 X1636.09 Y-408.37 I12.46 J5.21
G03 X1643.73 Y-401.90 I-4.45 J12.99
G01 X1644.90 Y-398.75
G01 X1645.07 Y-397.29
G01 X1645.23 Y-395.83
M08
G40
M51
M93
G00 X1645.31 Y-102.18
M94 F1788
G41 D21
N109 M07
G01 X1650.88 Y-102.81
M50
G03 X1649.33 Y-94.92 I-9.81 J2.18
G03 X1631.37 Y-89.38 I-11.88 J-6.64
G03 X1624.67 Y-106.47 I5.83 J-12.14
G03 X1641.90 Y-113.90 I12.46 J5.21
G03 X1649.54 Y-107.42 I-4.45 J12.99
G01 X1650.71 Y-104.27
G01 X1650.88 Y-102.81
G01 X1651.04 Y-101.36
M08
G40
M51
M93
G00 X1639.50 Y-699.39
M94 F1788
G41 D21
N110 M07
G01 X1645.07 Y-700.03
M50
G03 X1643.52 Y-692.13 I-9.81 J2.18
G03 X1625.56 Y-686.59 I-11.88 J-6.64
G03 X1618.86 Y-703.68 I5.83 J-12.14
G03 X1636.09 Y-711.11 I12.46 J5.21
G03 X1643.73 Y-704.63 I-4.45 J12.99
G01 X1644.90 Y-701.48
G01 X1645.07 Y-700.03
G01 X1645.23 Y-698.57
M08
G40
M51
M93
G00 X1639.50 Y-1002.13
M94 F1788
G41 D21
N111 M07
G01 X1645.07 Y-1002.76
M50
G03 X1643.52 Y-994.87 I-9.81 J2.18
G03 X1625.56 Y-989.33 I-11.88 J-6.64
G03 X1618.86 Y-1006.42 I5.83 J-12.14
G03 X1636.09 Y-1013.85 I12.46 J5.21
G03 X1643.73 Y-1007.37 I-4.45 J12.99
G01 X1644.90 Y-1004.22
G01 X1645.07 Y-1002.76
G01 X1645.23 Y-1001.30
M08
G40
M51
M93
G00 X1279.45 Y-1114.14
M94 F1719
G41 D21
N112 M07
G01 X1283.41 Y-1118.10
M50
G03 X1287.31 Y-1108.70 I-9.40 J9.40
G03 X1274.01 Y-1095.40 I-13.30 J-0.00
G03 X1260.71 Y-1108.70 I0.00 J-13.30
G03 X1274.01 Y-1122.00 I13.30 J0.00
G03 X1283.41 Y-1118.10 I0.00 J13.30
G03 X1284.83 Y-1116.42 I-9.40 J9.40
M08
G40
M51
M93
G00 X1279.45 Y-800.52
M94 F1719
G41 D21
N113 M07
G01 X1283.41 Y-796.56
M50
G03 X1274.01 Y-792.66 I-9.40 J-9.40
G03 X1260.71 Y-805.96 I0.00 J-13.30
G03 X1274.01 Y-819.26 I13.30 J0.00
G03 X1287.31 Y-805.96 I-0.00 J13.30
G03 X1283.41 Y-796.56 I-13.30 J0.00
G03 X1281.73 Y-795.14 I-9.40 J-9.40
M08
G40
M51
M93
G00 X1279.17 Y-195.33
M94 F1719
G41 D21
N114 M07
G01 X1283.13 Y-191.37
M50
G03 X1274.01 Y-187.59 I-9.12 J-9.12
G03 X1261.11 Y-200.49 I0.00 J-12.90
G03 X1274.01 Y-213.39 I12.90 J0.00
G03 X1286.91 Y-200.49 I0.00 J12.90
G03 X1283.13 Y-191.37 I-12.90 J0.00
G03 X1281.45 Y-189.95 I-9.12 J-9.12
M08
G40
M51
M93
G00 X1279.45 Y-508.67
M94 F1719
G41 D21
N115 M07
G01 X1283.41 Y-512.63
M50
G03 X1287.31 Y-503.22 I-9.40 J9.40
G03 X1274.01 Y-489.92 I-13.30 J0.00
G03 X1260.71 Y-503.22 I0.00 J-13.30
G03 X1274.01 Y-516.52 I13.30 J-0.00
G03 X1283.41 Y-512.63 I0.00 J13.30
G03 X1284.83 Y-510.95 I-9.40 J9.40
M08
G40
M51
M93
G00 X1355.60 Y-1001.19
M94 F1788
G41 D21
N116 M07
G01 X1361.20 Y-1001.10
M50
G03 X1358.54 Y-993.28 I-9.82 J1.01
G03 X1339.95 Y-990.27 I-10.90 J-8.39
G03 X1335.60 Y-1007.74 I7.36 J-11.11
G03 X1353.56 Y-1013.28 I11.88 J6.64
G03 X1360.42 Y-1006.03 I-5.77 J12.32
G01 X1361.23 Y-1002.77
G01 X1361.20 Y-1001.10
G01 X1361.17 Y-999.42
M08
G40
M51
M93
G00 X1355.60 Y-698.45
M94 F1788
G41 D21
N117 M07
G01 X1361.20 Y-698.36
M50
G03 X1358.54 Y-690.55 I-9.82 J1.01
G03 X1339.95 Y-687.53 I-10.90 J-8.39
G03 X1335.60 Y-705.00 I7.36 J-11.11
G03 X1353.56 Y-710.54 I11.88 J6.64
G03 X1360.42 Y-703.29 I-5.77 J12.32
G01 X1361.23 Y-700.03
G01 X1361.20 Y-698.36
G01 X1361.17 Y-696.68
M08
G40
M51
M93
G00 X1349.79 Y-101.24
M94 F1788
G41 D21
N118 M07
G01 X1355.39 Y-101.15
M50
G03 X1352.73 Y-93.34 I-9.82 J1.01
G03 X1334.14 Y-90.32 I-10.90 J-8.39
G03 X1329.79 Y-107.79 I7.36 J-11.11
G03 X1347.75 Y-113.33 I11.88 J6.64
G03 X1354.61 Y-106.08 I-5.77 J12.32
G01 X1355.42 Y-102.82
G01 X1355.39 Y-101.15
G01 X1355.36 Y-99.47
M08
G40
M51
M93
G00 X1355.60 Y-395.71
M94 F1788
G41 D21
N119 M07
G01 X1361.20 Y-395.62
M50
G03 X1358.54 Y-387.81 I-9.82 J1.01
G03 X1339.95 Y-384.79 I-10.90 J-8.39
G03 X1335.60 Y-402.27 I7.36 J-11.11
G03 X1353.56 Y-407.81 I11.88 J6.64
G03 X1360.42 Y-400.55 I-5.77 J12.32
G01 X1361.23 Y-397.30
G01 X1361.20 Y-395.62
G01 X1361.17 Y-393.95
M08
G40
M51
M93
G00 X1710.56 Y-508.67
M94 F1719
G41 D21
N120 M07
G01 X1714.52 Y-512.63
M50
G03 X1718.42 Y-503.22 I-9.40 J9.40
G03 X1705.12 Y-489.92 I-13.30 J0.00
G03 X1691.82 Y-503.22 I0.00 J-13.30
G03 X1705.12 Y-516.52 I13.30 J-0.00
G03 X1714.52 Y-512.63 I0.00 J13.30
G03 X1715.94 Y-510.95 I-9.40 J9.40
M08
G40
M51
M93
G00 X1710.28 Y-205.65
M94 F1719
G41 D21
N121 M07
G01 X1714.24 Y-209.61
M50
G03 X1718.02 Y-200.49 I-9.12 J9.12
G03 X1705.12 Y-187.59 I-12.90 J-0.00
G03 X1692.22 Y-200.49 I0.00 J-12.90
G03 X1705.12 Y-213.39 I12.90 J0.00
G03 X1714.24 Y-209.61 I0.00 J12.90
G03 X1715.65 Y-207.93 I-9.12 J9.12
M08
G40
M51
M93
G00 X1710.56 Y-811.41
M94 F1719
G41 D21
N122 M07
G01 X1714.52 Y-815.36
M50
G03 X1718.42 Y-805.96 I-9.40 J9.40
G03 X1705.12 Y-792.66 I-13.30 J0.00
G03 X1691.82 Y-805.96 I0.00 J-13.30
G03 X1705.12 Y-819.26 I13.30 J0.00
G03 X1714.52 Y-815.36 I0.00 J13.30
G03 X1715.94 Y-813.69 I-9.40 J9.40
M08
G40
M51
M93
G00 X1710.56 Y-1114.14
M94 F1719
G41 D21
N123 M07
G01 X1714.52 Y-1118.10
M50
G03 X1718.42 Y-1108.70 I-9.40 J9.40
G03 X1705.12 Y-1095.40 I-13.30 J-0.00
G03 X1691.82 Y-1108.70 I0.00 J-13.30
G03 X1705.12 Y-1122.00 I13.30 J0.00
G03 X1714.52 Y-1118.10 I0.00 J13.30
G03 X1715.94 Y-1116.42 I-9.40 J9.40
M08
G40
M51
M93
G00 X1800.08 Y-948.48
M94 F2750
G41 D21
N124 M07
G01 X1800.08 Y-954.08
G01 X1800.08 Y-984.08
G01 X1766.58 Y-984.08
G03 X1756.58 Y-994.08 I0.00 J-10.00
G01 X1756.58 Y-1205.37
G01 X1222.54 Y-1205.37
G01 X1222.54 Y-994.08
G03 X1212.54 Y-984.08 I-10.00 J0.00
G01 X1179.04 Y-984.08
G01 X1179.04 Y-954.08
G01 X1212.54 Y-954.08
G03 X1222.54 Y-944.08 I0.00 J10.00
G01 X1222.54 Y-621.31
G03 X1212.54 Y-611.31 I-10.00 J0.00
G01 X1179.04 Y-611.31
G01 X1179.04 Y-582.26
G03 X1193.46 Y-575.47 I-1.27 J21.40
G03 X1202.17 Y-559.67 I-20.62 J21.67
G03 X1195.52 Y-527.43 I-37.87 J9.00
G03 X1181.76 Y-518.77 I-20.63 J-17.55
G01 X1179.04 Y-518.40
G01 X1179.04 Y-489.34
G01 X1212.54 Y-489.34
G03 X1222.54 Y-479.34 I0.00 J10.00
G01 X1222.54 Y-156.58
G03 X1212.54 Y-146.58 I-10.00 J0.00
G01 X1179.04 Y-146.58
G01 X1179.04 Y-11.60
G01 X1233.79 Y-11.60
G02 X1237.77 Y-12.95 I0.28 J-5.69
G02 X1241.22 Y-15.72 I-7.31 J-12.66
G02 X1241.75 Y-16.20 I-90.64 J-100.53
G01 X1322.04 Y-70.97
G03 X1323.29 Y-72.09 I1409.09 J1566.04
G01 X1406.86 Y-127.38
G03 X1408.11 Y-128.44 I34.02 J39.00
G01 X1484.09 Y-174.12
G03 X1487.68 Y-176.23 I12.82 J17.73
G03 X1492.30 Y-175.89 I1.84 J6.52
G03 X1495.03 Y-174.12 I-3.92 J9.06
G01 X1571.01 Y-128.44
G03 X1572.26 Y-127.38 I-15.76 J19.91
G01 X1655.83 Y-72.09
G03 X1657.08 Y-70.97 I-35.99 J41.29
G01 X1737.37 Y-16.20
G02 X1741.11 Y-13.11 I622.62 J-748.54
G02 X1744.79 Y-11.62 I6.75 J-11.46
G02 X1745.33 Y-11.60 I0.55 J-5.41
G01 X1800.08 Y-11.60
G01 X1800.08 Y-146.58
G01 X1766.58 Y-146.58
G03 X1756.58 Y-156.58 I0.00 J-10.00
G01 X1756.58 Y-479.34
G03 X1766.58 Y-489.34 I10.00 J0.00
G01 X1800.08 Y-489.34
G01 X1800.08 Y-518.40
G03 X1785.66 Y-525.18 I1.27 J-21.40
G03 X1776.95 Y-540.98 I20.62 J-21.67
G03 X1783.60 Y-573.23 I37.87 J-9.00
G03 X1797.36 Y-581.88 I20.63 J17.55
G01 X1800.08 Y-582.26
G01 X1800.08 Y-611.31
G01 X1766.58 Y-611.31
G03 X1756.58 Y-621.31 I0.00 J-10.00
G01 X1756.58 Y-944.08
G03 X1766.58 Y-954.08 I10.00 J0.00
G01 X1798.98 Y-954.08
M50
G01 X1800.08 Y-954.08
G03 X1802.08 Y-952.08 I0.00 J2.00
M08
G40
M51
M93
(PlanFooterCommand)
M64
T0
M65
#CS OFF
M30
