(PP_NAME=	  PP_Din)
(PP_VERSION=	  4.0)
(PP_INI_NAME=	  GC_PLASMA_4.5.ini)
(PP_INI_VERSION=  2014-02-26)
(PLANNAME=        vange 2)
(MACHINE= 	  PowerMAX105_MS_45)
(MATERIAL= 	  S235JR)
(THICKNESS= 	  3)
#CONTOUR MODE [DEV PATH_DEV=0.2 RELEVANT_PATH=0.1]
#TRC [CONV_CIR_TO_LIN=1]
G71
G90
#CS ON [V.A.ABS.X, V.A.ABS.Y, 0, 0, 0, V.E.ROTATION]
M190
G162
G141
G237
G00 X321.21 Y-124.52
M64
T21
M65
M94 F1581
G41 D21
N1 M07
G01 X323.52 Y-124.52
M50
G01 X323.52 Y-96.12
G03 X320.52 Y-93.12 I-3.00 J0.00
G03 X317.52 Y-96.12 I0.00 J-3.00
G01 X317.52 Y-152.92
G03 X320.52 Y-155.92 I3.00 J0.00
G03 X323.52 Y-152.92 I0.00 J3.00
G01 X323.52 Y-124.52
G01 X323.52 Y-122.32
M08
G40
M51
M93
G00 X321.21 Y-275.24
M94 F1581
G41 D21
N2 M07
G01 X323.52 Y-275.24
M50
G01 X323.52 Y-246.84
G03 X320.52 Y-243.84 I-3.00 J0.00
G03 X317.52 Y-246.84 I0.00 J-3.00
G01 X317.52 Y-303.64
G03 X320.52 Y-306.64 I3.00 J0.00
G03 X323.52 Y-303.64 I0.00 J3.00
G01 X323.52 Y-275.24
G01 X323.52 Y-273.04
M08
G40
M51
M93
G00 X321.21 Y-425.96
M94 F1581
G41 D21
N3 M07
G01 X323.52 Y-425.96
M50
G01 X323.52 Y-397.56
G03 X320.52 Y-394.56 I-3.00 J0.00
G03 X317.52 Y-397.56 I0.00 J-3.00
G01 X317.52 Y-454.36
G03 X320.52 Y-457.36 I3.00 J0.00
G03 X323.52 Y-454.36 I0.00 J3.00
G01 X323.52 Y-425.96
G01 X323.52 Y-423.76
M08
G40
M51
M93
G00 X321.21 Y-576.68
M94 F1581
G41 D21
N4 M07
G01 X323.52 Y-576.68
M50
G01 X323.52 Y-548.28
G03 X320.52 Y-545.28 I-3.00 J0.00
G03 X317.52 Y-548.28 I0.00 J-3.00
G01 X317.52 Y-605.08
G03 X320.52 Y-608.08 I3.00 J0.00
G03 X323.52 Y-605.08 I0.00 J3.00
G01 X323.52 Y-576.68
G01 X323.52 Y-574.48
M08
G40
M51
M93
G00 X321.21 Y-727.40
M94 F1581
G41 D21
N5 M07
G01 X323.52 Y-727.40
M50
G01 X323.52 Y-699.00
G03 X320.52 Y-696.00 I-3.00 J0.00
G03 X317.52 Y-699.00 I0.00 J-3.00
G01 X317.52 Y-755.80
G03 X320.52 Y-758.80 I3.00 J0.00
G03 X323.52 Y-755.80 I0.00 J3.00
G01 X323.52 Y-727.40
G01 X323.52 Y-725.20
M08
G40
M51
M93
G00 X321.21 Y-878.12
M94 F1581
G41 D21
N6 M07
G01 X323.52 Y-878.12
M50
G01 X323.52 Y-849.72
G03 X320.52 Y-846.72 I-3.00 J0.00
G03 X317.52 Y-849.72 I0.00 J-3.00
G01 X317.52 Y-906.52
G03 X320.52 Y-909.52 I3.00 J0.00
G03 X323.52 Y-906.52 I0.00 J3.00
G01 X323.52 Y-878.12
G01 X323.52 Y-875.92
M08
G40
M51
M93
G00 X321.21 Y-1028.84
M94 F1581
G41 D21
N7 M07
G01 X323.52 Y-1028.84
M50
G01 X323.52 Y-1000.44
G03 X320.52 Y-997.44 I-3.00 J0.00
G03 X317.52 Y-1000.44 I0.00 J-3.00
G01 X317.52 Y-1057.24
G03 X320.52 Y-1060.24 I3.00 J0.00
G03 X323.52 Y-1057.24 I0.00 J3.00
G01 X323.52 Y-1028.84
G01 X323.52 Y-1026.64
M08
G40
M51
M93
G00 X321.21 Y-1179.56
M94 F1581
G41 D21
N8 M07
G01 X323.52 Y-1179.56
M50
G01 X323.52 Y-1151.16
G03 X320.52 Y-1148.16 I-3.00 J0.00
G03 X317.52 Y-1151.16 I0.00 J-3.00
G01 X317.52 Y-1207.96
G03 X320.52 Y-1210.96 I3.00 J0.00
G03 X323.52 Y-1207.96 I0.00 J3.00
G01 X323.52 Y-1179.56
G01 X323.52 Y-1177.36
M08
G40
M51
M93
G00 X321.21 Y-1104.20
M94 F1581
G41 D21
N9 M07
G01 X323.52 Y-1104.20
M50
G01 X323.52 Y-1075.80
G03 X320.52 Y-1072.80 I-3.00 J0.00
G03 X317.52 Y-1075.80 I0.00 J-3.00
G01 X317.52 Y-1132.60
G03 X320.52 Y-1135.60 I3.00 J0.00
G03 X323.52 Y-1132.60 I0.00 J3.00
G01 X323.52 Y-1104.20
G01 X323.52 Y-1102.00
M08
G40
M51
M93
G00 X321.21 Y-953.48
M94 F1581
G41 D21
N10 M07
G01 X323.52 Y-953.48
M50
G01 X323.52 Y-925.08
G03 X320.52 Y-922.08 I-3.00 J0.00
G03 X317.52 Y-925.08 I0.00 J-3.00
G01 X317.52 Y-981.88
G03 X320.52 Y-984.88 I3.00 J0.00
G03 X323.52 Y-981.88 I0.00 J3.00
G01 X323.52 Y-953.48
G01 X323.52 Y-951.28
M08
G40
M51
M93
G00 X321.21 Y-802.76
M94 F1581
G41 D21
N11 M07
G01 X323.52 Y-802.76
M50
G01 X323.52 Y-774.36
G03 X320.52 Y-771.36 I-3.00 J0.00
G03 X317.52 Y-774.36 I0.00 J-3.00
G01 X317.52 Y-831.16
G03 X320.52 Y-834.16 I3.00 J0.00
G03 X323.52 Y-831.16 I0.00 J3.00
G01 X323.52 Y-802.76
G01 X323.52 Y-800.56
M08
G40
M51
M93
G00 X321.21 Y-652.04
M94 F1581
G41 D21
N12 M07
G01 X323.52 Y-652.04
M50
G01 X323.52 Y-623.64
G03 X320.52 Y-620.64 I-3.00 J0.00
G03 X317.52 Y-623.64 I0.00 J-3.00
G01 X317.52 Y-680.44
G03 X320.52 Y-683.44 I3.00 J0.00
G03 X323.52 Y-680.44 I0.00 J3.00
G01 X323.52 Y-652.04
G01 X323.52 Y-649.84
M08
G40
M51
M93
G00 X321.21 Y-501.32
M94 F1581
G41 D21
N13 M07
G01 X323.52 Y-501.32
M50
G01 X323.52 Y-472.92
G03 X320.52 Y-469.92 I-3.00 J0.00
G03 X317.52 Y-472.92 I0.00 J-3.00
G01 X317.52 Y-529.72
G03 X320.52 Y-532.72 I3.00 J0.00
G03 X323.52 Y-529.72 I0.00 J3.00
G01 X323.52 Y-501.32
G01 X323.52 Y-499.12
M08
G40
M51
M93
G00 X321.21 Y-350.60
M94 F1581
G41 D21
N14 M07
G01 X323.52 Y-350.60
M50
G01 X323.52 Y-322.20
G03 X320.52 Y-319.20 I-3.00 J0.00
G03 X317.52 Y-322.20 I0.00 J-3.00
G01 X317.52 Y-379.00
G03 X320.52 Y-382.00 I3.00 J0.00
G03 X323.52 Y-379.00 I0.00 J3.00
G01 X323.52 Y-350.60
G01 X323.52 Y-348.40
M08
G40
M51
M93
G00 X321.21 Y-199.88
M94 F1581
G41 D21
N15 M07
G01 X323.52 Y-199.88
M50
G01 X323.52 Y-171.48
G03 X320.52 Y-168.48 I-3.00 J0.00
G03 X317.52 Y-171.48 I0.00 J-3.00
G01 X317.52 Y-228.28
G03 X320.52 Y-231.28 I3.00 J0.00
G03 X323.52 Y-228.28 I0.00 J3.00
G01 X323.52 Y-199.88
G01 X323.52 Y-197.68
M08
G40
M51
M93
G00 X321.21 Y-49.16
M94 F1581
G41 D21
N16 M07
G01 X323.52 Y-49.16
M50
G01 X323.52 Y-20.76
G03 X320.52 Y-17.76 I-3.00 J0.00
G03 X317.52 Y-20.76 I0.00 J-3.00
G01 X317.52 Y-77.56
G03 X320.52 Y-80.56 I3.00 J0.00
G03 X323.52 Y-77.56 I0.00 J3.00
G01 X323.52 Y-49.16
G01 X323.52 Y-46.96
M08
G40
M51
M93
G00 X470.46 Y-107.51
M94 F1788
G41 D21
N17 M07
G01 X476.03 Y-108.14
M50
G03 X474.48 Y-100.25 I-9.81 J2.18
G03 X456.52 Y-94.71 I-11.88 J-6.64
G03 X449.82 Y-111.80 I5.83 J-12.14
G03 X467.05 Y-119.23 I12.46 J5.21
G03 X474.69 Y-112.75 I-4.45 J12.99
G01 X475.86 Y-109.60
G01 X476.03 Y-108.14
G01 X476.19 Y-106.69
M08
G40
M51
M93
G00 X470.46 Y-410.24
M94 F1788
G41 D21
N18 M07
G01 X476.03 Y-410.88
M50
G03 X474.48 Y-402.99 I-9.81 J2.18
G03 X456.52 Y-397.45 I-11.88 J-6.64
G03 X449.82 Y-414.54 I5.83 J-12.14
G03 X467.05 Y-421.96 I12.46 J5.21
G03 X474.69 Y-415.49 I-4.45 J12.99
G01 X475.86 Y-412.34
G01 X476.03 Y-410.88
G01 X476.19 Y-409.42
M08
G40
M51
M93
G00 X470.46 Y-712.98
M94 F1788
G41 D21
N19 M07
G01 X476.03 Y-713.62
M50
G03 X474.48 Y-705.72 I-9.81 J2.18
G03 X456.52 Y-700.18 I-11.88 J-6.64
G03 X449.82 Y-717.27 I5.83 J-12.14
G03 X467.05 Y-724.70 I12.46 J5.21
G03 X474.69 Y-718.23 I-4.45 J12.99
G01 X475.86 Y-715.08
G01 X476.03 Y-713.62
G01 X476.19 Y-712.16
M08
G40
M51
M93
G00 X470.46 Y-1015.72
M94 F1788
G41 D21
N20 M07
G01 X476.03 Y-1016.36
M50
G03 X474.48 Y-1008.46 I-9.81 J2.18
G03 X456.52 Y-1002.92 I-11.88 J-6.64
G03 X449.82 Y-1020.01 I5.83 J-12.14
G03 X467.05 Y-1027.44 I12.46 J5.21
G03 X474.69 Y-1020.96 I-4.45 J12.99
G01 X475.86 Y-1017.81
G01 X476.03 Y-1016.36
G01 X476.19 Y-1014.90
M08
G40
M51
M93
G00 X271.83 Y-41.33
M94 F1375
G41 D21
N21 M07
G01 X275.79 Y-45.29
M50
G03 X277.77 Y-40.51 I-4.77 J4.77
G03 X271.02 Y-33.76 I-6.75 J0.00
G03 X264.27 Y-40.51 I0.00 J-6.75
G03 X271.02 Y-47.26 I6.75 J0.00
G03 X275.79 Y-45.29 I0.00 J6.75
G03 X277.07 Y-43.51 I-4.77 J4.77
M08
G40
M51
M93
G00 X271.83 Y-93.33
M94 F1375
G41 D21
N22 M07
G01 X275.79 Y-97.29
M50
G03 X277.77 Y-92.51 I-4.77 J4.77
G03 X271.02 Y-85.76 I-6.75 J0.00
G03 X264.27 Y-92.51 I0.00 J-6.75
G03 X271.02 Y-99.26 I6.75 J0.00
G03 X275.79 Y-97.29 I0.00 J6.75
G03 X277.07 Y-95.51 I-4.77 J4.77
M08
G40
M51
M93
G00 X110.13 Y-1117.13
M94 F1719
G41 D21
N23 M07
G01 X114.09 Y-1113.17
M50
G03 X104.97 Y-1109.39 I-9.12 J-9.12
G03 X92.07 Y-1122.29 I0.00 J-12.90
G03 X104.97 Y-1135.19 I12.90 J0.00
G03 X117.87 Y-1122.29 I-0.00 J12.90
G03 X114.09 Y-1113.17 I-12.90 J0.00
G03 X112.41 Y-1111.75 I-9.12 J-9.12
M08
G40
M51
M93
G00 X110.13 Y-814.39
M94 F1719
G41 D21
N24 M07
G01 X114.09 Y-810.43
M50
G03 X104.97 Y-806.65 I-9.12 J-9.12
G03 X92.07 Y-819.55 I-0.00 J-12.90
G03 X104.97 Y-832.45 I12.90 J0.00
G03 X117.87 Y-819.55 I0.00 J12.90
G03 X114.09 Y-810.43 I-12.90 J-0.00
G03 X112.41 Y-809.02 I-9.12 J-9.12
M08
G40
M51
M93
G00 X110.13 Y-521.98
M94 F1719
G41 D21
N25 M07
G01 X114.09 Y-525.94
M50
G03 X117.87 Y-516.82 I-9.12 J9.12
G03 X104.97 Y-503.92 I-12.90 J0.00
G03 X92.07 Y-516.82 I-0.00 J-12.90
G03 X104.97 Y-529.72 I12.90 J0.00
G03 X114.09 Y-525.94 I0.00 J12.90
G03 X115.50 Y-524.26 I-9.12 J9.12
M08
G40
M51
M93
G00 X110.13 Y-219.24
M94 F1719
G41 D21
N26 M07
G01 X114.09 Y-223.20
M50
G03 X117.87 Y-214.08 I-9.12 J9.12
G03 X104.97 Y-201.18 I-12.90 J0.00
G03 X92.07 Y-214.08 I0.00 J-12.90
G03 X104.97 Y-226.98 I12.90 J0.00
G03 X114.09 Y-223.20 I0.00 J12.90
G03 X115.50 Y-221.52 I-9.12 J9.12
M08
G40
M51
M93
G00 X121.33 Y-41.33
M94 F1375
G41 D21
N27 M07
G01 X125.29 Y-45.29
M50
G03 X127.27 Y-40.51 I-4.77 J4.77
G03 X120.52 Y-33.76 I-6.75 J0.00
G03 X113.77 Y-40.51 I0.00 J-6.75
G03 X120.52 Y-47.26 I6.75 J0.00
G03 X125.29 Y-45.29 I0.00 J6.75
G03 X126.57 Y-43.51 I-4.77 J4.77
M08
G40
M51
M93
G00 X121.33 Y-93.33
M94 F1375
G41 D21
N28 M07
G01 X125.29 Y-97.29
M50
G03 X127.27 Y-92.51 I-4.77 J4.77
G03 X120.52 Y-85.76 I-6.75 J0.00
G03 X113.77 Y-92.51 I0.00 J-6.75
G03 X120.52 Y-99.26 I6.75 J0.00
G03 X125.29 Y-97.29 I0.00 J6.75
G03 X126.57 Y-95.51 I-4.77 J4.77
M08
G40
M51
M93
G00 X186.56 Y-1014.78
M94 F1788
G41 D21
N29 M07
G01 X192.16 Y-1014.69
M50
G03 X189.50 Y-1006.88 I-9.82 J1.01
G03 X170.91 Y-1003.86 I-10.90 J-8.39
G03 X166.56 Y-1021.33 I7.36 J-11.11
G03 X184.52 Y-1026.87 I11.88 J6.64
G03 X191.38 Y-1019.62 I-5.77 J12.32
G01 X192.19 Y-1016.36
G01 X192.16 Y-1014.69
G01 X192.13 Y-1013.01
M08
G40
M51
M93
G00 X186.56 Y-712.04
M94 F1788
G41 D21
N30 M07
G01 X192.16 Y-711.95
M50
G03 X189.50 Y-704.14 I-9.82 J1.01
G03 X170.91 Y-701.12 I-10.90 J-8.39
G03 X166.56 Y-718.60 I7.36 J-11.11
G03 X184.52 Y-724.14 I11.88 J6.64
G03 X191.38 Y-716.88 I-5.77 J12.32
G01 X192.19 Y-713.63
G01 X192.16 Y-711.95
G01 X192.13 Y-710.28
M08
G40
M51
M93
G00 X186.56 Y-409.31
M94 F1788
G41 D21
N31 M07
G01 X192.16 Y-409.22
M50
G03 X189.50 Y-401.40 I-9.82 J1.01
G03 X170.91 Y-398.39 I-10.90 J-8.39
G03 X166.56 Y-415.86 I7.36 J-11.11
G03 X184.52 Y-421.40 I11.88 J6.64
G03 X191.38 Y-414.15 I-5.77 J12.32
G01 X192.19 Y-410.89
G01 X192.16 Y-409.22
G01 X192.13 Y-407.54
M08
G40
M51
M93
G00 X186.56 Y-106.57
M94 F1788
G41 D21
N32 M07
G01 X192.16 Y-106.48
M50
G03 X189.50 Y-98.67 I-9.82 J1.01
G03 X170.91 Y-95.65 I-10.90 J-8.39
G03 X166.56 Y-113.12 I7.36 J-11.11
G03 X184.52 Y-118.66 I11.88 J6.64
G03 X191.38 Y-111.41 I-5.77 J12.32
G01 X192.19 Y-108.15
G01 X192.16 Y-106.48
G01 X192.13 Y-104.80
M08
G40
M51
M93
G00 X370.83 Y-93.33
M94 F1375
G41 D21
N33 M07
G01 X374.79 Y-97.29
M50
G03 X376.77 Y-92.51 I-4.77 J4.77
G03 X370.02 Y-85.76 I-6.75 J0.00
G03 X363.27 Y-92.51 I0.00 J-6.75
G03 X370.02 Y-99.26 I6.75 J0.00
G03 X374.79 Y-97.29 I0.00 J6.75
G03 X376.07 Y-95.51 I-4.77 J4.77
M08
G40
M51
M93
G00 X370.83 Y-41.33
M94 F1375
G41 D21
N34 M07
G01 X374.79 Y-45.29
M50
G03 X376.77 Y-40.51 I-4.77 J4.77
G03 X370.02 Y-33.76 I-6.75 J0.00
G03 X363.27 Y-40.51 I0.00 J-6.75
G03 X370.02 Y-47.26 I6.75 J0.00
G03 X374.79 Y-45.29 I0.00 J6.75
G03 X376.07 Y-43.51 I-4.77 J4.77
M08
G40
M51
M93
G00 X521.34 Y-93.33
M94 F1375
G41 D21
N35 M07
G01 X525.29 Y-97.29
M50
G03 X527.27 Y-92.51 I-4.77 J4.77
G03 X520.52 Y-85.76 I-6.75 J0.00
G03 X513.77 Y-92.51 I0.00 J-6.75
G03 X520.52 Y-99.26 I6.75 J0.00
G03 X525.29 Y-97.29 I0.00 J6.75
G03 X526.57 Y-95.51 I-4.77 J4.77
M08
G40
M51
M93
G00 X521.34 Y-39.70
M94 F1375
G41 D21
N36 M07
G01 X525.29 Y-35.74
M50
G03 X520.52 Y-33.76 I-4.77 J-4.77
G03 X513.77 Y-40.51 I0.00 J-6.75
G03 X520.52 Y-47.26 I6.75 J0.00
G03 X527.27 Y-40.51 I0.00 J6.75
G03 X525.29 Y-35.74 I-6.75 J0.00
G03 X523.52 Y-34.46 I-4.77 J-4.77
M08
G40
M51
M93
G00 X541.24 Y-219.24
M94 F1719
G41 D21
N37 M07
G01 X545.20 Y-223.20
M50
G03 X548.98 Y-214.08 I-9.12 J9.12
G03 X536.08 Y-201.18 I-12.90 J0.00
G03 X523.18 Y-214.08 I0.00 J-12.90
G03 X536.08 Y-226.98 I12.90 J0.00
G03 X545.20 Y-223.20 I-0.00 J12.90
G03 X546.61 Y-221.52 I-9.12 J9.12
M08
G40
M51
M93
G00 X541.24 Y-511.65
M94 F1719
G41 D21
N38 M07
G01 X545.20 Y-507.69
M50
G03 X536.08 Y-503.92 I-9.12 J-9.12
G03 X523.18 Y-516.82 I0.00 J-12.90
G03 X536.08 Y-529.72 I12.90 J0.00
G03 X548.98 Y-516.82 I-0.00 J12.90
G03 X545.20 Y-507.69 I-12.90 J0.00
G03 X543.52 Y-506.28 I-9.12 J-9.12
M08
G40
M51
M93
G00 X541.24 Y-824.72
M94 F1719
G41 D21
N39 M07
G01 X545.20 Y-828.67
M50
G03 X548.98 Y-819.55 I-9.12 J9.12
G03 X536.08 Y-806.65 I-12.90 J-0.00
G03 X523.18 Y-819.55 I0.00 J-12.90
G03 X536.08 Y-832.45 I12.90 J0.00
G03 X545.20 Y-828.67 I-0.00 J12.90
G03 X546.61 Y-826.99 I-9.12 J9.12
M08
G40
M51
M93
G00 X541.24 Y-1127.45
M94 F1719
G41 D21
N40 M07
G01 X545.20 Y-1131.41
M50
G03 X548.98 Y-1122.29 I-9.12 J9.12
G03 X536.08 Y-1109.39 I-12.90 J0.00
G03 X523.18 Y-1122.29 I0.00 J-12.90
G03 X536.08 Y-1135.19 I12.90 J0.00
G03 X545.20 Y-1131.41 I-0.00 J12.90
G03 X546.61 Y-1129.73 I-9.12 J9.12
M08
G40
M51
M93
G00 X631.04 Y-962.06
M94 F2750
G41 D21
N41 M07
G01 X631.04 Y-967.66
G01 X631.04 Y-997.66
G01 X597.54 Y-997.66
G03 X587.54 Y-1007.66 I0.00 J-10.00
G01 X587.54 Y-1218.96
G01 X53.50 Y-1218.96
G01 X53.50 Y-1007.66
G03 X43.50 Y-997.66 I-10.00 J0.00
G01 X10.00 Y-997.66
G01 X10.00 Y-967.66
G01 X43.50 Y-967.66
G03 X53.50 Y-957.66 I0.00 J10.00
G01 X53.50 Y-634.66
G03 X43.50 Y-624.66 I-10.00 J0.00
G01 X10.00 Y-624.66
G01 X10.00 Y-595.61
G03 X24.42 Y-588.82 I-1.27 J21.40
G03 X33.13 Y-573.02 I-20.62 J21.67
G03 X26.48 Y-540.78 I-37.87 J9.00
G03 X12.72 Y-532.13 I-20.63 J-17.55
G01 X10.00 Y-531.75
G01 X10.00 Y-502.69
G01 X43.50 Y-502.69
G03 X53.50 Y-492.69 I0.00 J10.00
G01 X53.50 Y-169.70
G03 X43.50 Y-159.70 I-10.00 J0.00
G01 X10.00 Y-159.70
G01 X10.00 Y-129.70
G01 X43.50 Y-129.70
G03 X53.50 Y-119.70 I0.00 J10.00
G01 X53.50 Y-10.01
G01 X587.54 Y-10.01
G01 X587.54 Y-119.70
G03 X597.54 Y-129.70 I10.00 J0.00
G01 X631.04 Y-129.70
G01 X631.04 Y-159.70
G01 X597.54 Y-159.70
G03 X587.54 Y-169.70 I0.00 J-10.00
G01 X587.54 Y-492.69
G03 X597.54 Y-502.69 I10.00 J0.00
G01 X631.04 Y-502.69
G01 X631.04 Y-531.75
G03 X616.62 Y-538.53 I1.27 J-21.40
G03 X607.91 Y-554.34 I20.62 J-21.67
G03 X614.56 Y-586.58 I37.87 J-9.00
G03 X628.32 Y-595.23 I20.63 J17.55
G01 X631.04 Y-595.61
G01 X631.04 Y-624.66
G01 X597.54 Y-624.66
G03 X587.54 Y-634.66 I0.00 J-10.00
G01 X587.54 Y-957.66
G03 X597.54 Y-967.66 I10.00 J0.00
G01 X629.94 Y-967.66
M50
G01 X631.04 Y-967.66
G03 X633.04 Y-965.66 I0.00 J2.00
M08
G40
M51
M93
G00 X905.73 Y-1131.64
M94 F1581
G41 D21
N42 M07
G01 X908.04 Y-1131.64
M50
G01 X908.04 Y-1103.24
G03 X905.04 Y-1100.24 I-3.00 J0.00
G03 X902.04 Y-1103.24 I-0.00 J-3.00
G01 X902.04 Y-1160.04
G03 X905.04 Y-1163.04 I3.00 J0.00
G03 X908.04 Y-1160.04 I0.00 J3.00
G01 X908.04 Y-1131.64
G01 X908.04 Y-1129.44
M08
G40
M51
M93
G00 X905.73 Y-980.92
M94 F1581
G41 D21
N43 M07
G01 X908.04 Y-980.92
M50
G01 X908.04 Y-952.52
G03 X905.04 Y-949.52 I-3.00 J0.00
G03 X902.04 Y-952.52 I-0.00 J-3.00
G01 X902.04 Y-1009.32
G03 X905.04 Y-1012.32 I3.00 J0.00
G03 X908.04 Y-1009.32 I0.00 J3.00
G01 X908.04 Y-980.92
G01 X908.04 Y-978.72
M08
G40
M51
M93
G00 X905.73 Y-830.20
M94 F1581
G41 D21
N44 M07
G01 X908.04 Y-830.20
M50
G01 X908.04 Y-801.80
G03 X905.04 Y-798.80 I-3.00 J0.00
G03 X902.04 Y-801.80 I-0.00 J-3.00
G01 X902.04 Y-858.60
G03 X905.04 Y-861.60 I3.00 J0.00
G03 X908.04 Y-858.60 I0.00 J3.00
G01 X908.04 Y-830.20
G01 X908.04 Y-828.00
M08
G40
M51
M93
G00 X905.73 Y-679.48
M94 F1581
G41 D21
N45 M07
G01 X908.04 Y-679.48
M50
G01 X908.04 Y-651.08
G03 X905.04 Y-648.08 I-3.00 J-0.00
G03 X902.04 Y-651.08 I0.00 J-3.00
G01 X902.04 Y-707.88
G03 X905.04 Y-710.88 I3.00 J0.00
G03 X908.04 Y-707.88 I0.00 J3.00
G01 X908.04 Y-679.48
G01 X908.04 Y-677.28
M08
G40
M51
M93
G00 X905.73 Y-528.76
M94 F1581
G41 D21
N46 M07
G01 X908.04 Y-528.76
M50
G01 X908.04 Y-500.36
G03 X905.04 Y-497.36 I-3.00 J0.00
G03 X902.04 Y-500.36 I0.00 J-3.00
G01 X902.04 Y-557.16
G03 X905.04 Y-560.16 I3.00 J0.00
G03 X908.04 Y-557.16 I0.00 J3.00
G01 X908.04 Y-528.76
G01 X908.04 Y-526.56
M08
G40
M51
M93
G00 X905.73 Y-378.04
M94 F1581
G41 D21
N47 M07
G01 X908.04 Y-378.04
M50
G01 X908.04 Y-349.64
G03 X905.04 Y-346.64 I-3.00 J0.00
G03 X902.04 Y-349.64 I-0.00 J-3.00
G01 X902.04 Y-406.44
G03 X905.04 Y-409.44 I3.00 J0.00
G03 X908.04 Y-406.44 I0.00 J3.00
G01 X908.04 Y-378.04
G01 X908.04 Y-375.84
M08
G40
M51
M93
G00 X905.73 Y-227.32
M94 F1581
G41 D21
N48 M07
G01 X908.04 Y-227.32
M50
G01 X908.04 Y-198.92
G03 X905.04 Y-195.92 I-3.00 J0.00
G03 X902.04 Y-198.92 I-0.00 J-3.00
G01 X902.04 Y-255.72
G03 X905.04 Y-258.72 I3.00 J0.00
G03 X908.04 Y-255.72 I0.00 J3.00
G01 X908.04 Y-227.32
G01 X908.04 Y-225.12
M08
G40
M51
M93
G00 X905.73 Y-76.60
M94 F1581
G41 D21
N49 M07
G01 X908.04 Y-76.60
M50
G01 X908.04 Y-48.20
G03 X905.04 Y-45.20 I-3.00 J0.00
G03 X902.04 Y-48.20 I0.00 J-3.00
G01 X902.04 Y-105.00
G03 X905.04 Y-108.00 I3.00 J0.00
G03 X908.04 Y-105.00 I-0.00 J3.00
G01 X908.04 Y-76.60
G01 X908.04 Y-74.40
M08
G40
M51
M93
G00 X905.73 Y-151.96
M94 F1581
G41 D21
N50 M07
G01 X908.04 Y-151.96
M50
G01 X908.04 Y-123.56
G03 X905.04 Y-120.56 I-3.00 J0.00
G03 X902.04 Y-123.56 I-0.00 J-3.00
G01 X902.04 Y-180.36
G03 X905.04 Y-183.36 I3.00 J0.00
G03 X908.04 Y-180.36 I0.00 J3.00
G01 X908.04 Y-151.96
G01 X908.04 Y-149.76
M08
G40
M51
M93
G00 X905.73 Y-302.68
M94 F1581
G41 D21
N51 M07
G01 X908.04 Y-302.68
M50
G01 X908.04 Y-274.28
G03 X905.04 Y-271.28 I-3.00 J0.00
G03 X902.04 Y-274.28 I-0.00 J-3.00
G01 X902.04 Y-331.08
G03 X905.04 Y-334.08 I3.00 J0.00
G03 X908.04 Y-331.08 I0.00 J3.00
G01 X908.04 Y-302.68
G01 X908.04 Y-300.48
M08
G40
M51
M93
G00 X905.73 Y-453.40
M94 F1581
G41 D21
N52 M07
G01 X908.04 Y-453.40
M50
G01 X908.04 Y-425.00
G03 X905.04 Y-422.00 I-3.00 J0.00
G03 X902.04 Y-425.00 I-0.00 J-3.00
G01 X902.04 Y-481.80
G03 X905.04 Y-484.80 I3.00 J0.00
G03 X908.04 Y-481.80 I0.00 J3.00
G01 X908.04 Y-453.40
G01 X908.04 Y-451.20
M08
G40
M51
M93
G00 X905.73 Y-604.12
M94 F1581
G41 D21
N53 M07
G01 X908.04 Y-604.12
M50
G01 X908.04 Y-575.72
G03 X905.04 Y-572.72 I-3.00 J-0.00
G03 X902.04 Y-575.72 I0.00 J-3.00
G01 X902.04 Y-632.52
G03 X905.04 Y-635.52 I3.00 J0.00
G03 X908.04 Y-632.52 I0.00 J3.00
G01 X908.04 Y-604.12
G01 X908.04 Y-601.92
M08
G40
M51
M93
G00 X905.73 Y-754.84
M94 F1581
G41 D21
N54 M07
G01 X908.04 Y-754.84
M50
G01 X908.04 Y-726.44
G03 X905.04 Y-723.44 I-3.00 J0.00
G03 X902.04 Y-726.44 I0.00 J-3.00
G01 X902.04 Y-783.24
G03 X905.04 Y-786.24 I3.00 J0.00
G03 X908.04 Y-783.24 I0.00 J3.00
G01 X908.04 Y-754.84
G01 X908.04 Y-752.64
M08
G40
M51
M93
G00 X905.73 Y-905.56
M94 F1581
G41 D21
N55 M07
G01 X908.04 Y-905.56
M50
G01 X908.04 Y-877.16
G03 X905.04 Y-874.16 I-3.00 J0.00
G03 X902.04 Y-877.16 I-0.00 J-3.00
G01 X902.04 Y-933.96
G03 X905.04 Y-936.96 I3.00 J0.00
G03 X908.04 Y-933.96 I0.00 J3.00
G01 X908.04 Y-905.56
G01 X908.04 Y-903.36
M08
G40
M51
M93
G00 X905.73 Y-1056.28
M94 F1581
G41 D21
N56 M07
G01 X908.04 Y-1056.28
M50
G01 X908.04 Y-1027.88
G03 X905.04 Y-1024.88 I-3.00 J0.00
G03 X902.04 Y-1027.88 I-0.00 J-3.00
G01 X902.04 Y-1084.68
G03 X905.04 Y-1087.68 I3.00 J0.00
G03 X908.04 Y-1084.68 I0.00 J3.00
G01 X908.04 Y-1056.28
G01 X908.04 Y-1054.08
M08
G40
M51
M93
G00 X905.73 Y-1207.00
M94 F1581
G41 D21
N57 M07
G01 X908.04 Y-1207.00
M50
G01 X908.04 Y-1178.60
G03 X905.04 Y-1175.60 I-3.00 J0.00
G03 X902.04 Y-1178.60 I-0.00 J-3.00
G01 X902.04 Y-1235.40
G03 X905.04 Y-1238.40 I3.00 J0.00
G03 X908.04 Y-1235.40 I0.00 J3.00
G01 X908.04 Y-1207.00
G01 X908.04 Y-1204.80
M08
G40
M51
M93
G00 X771.08 Y-1149.36
M94 F1788
G41 D21
N58 M07
G01 X776.68 Y-1149.27
M50
G03 X774.02 Y-1141.46 I-9.82 J1.01
G03 X755.43 Y-1138.44 I-10.90 J-8.39
G03 X751.08 Y-1155.91 I7.36 J-11.11
G03 X769.04 Y-1161.45 I11.88 J6.64
G03 X775.90 Y-1154.20 I-5.77 J12.32
G01 X776.71 Y-1150.94
G01 X776.68 Y-1149.27
G01 X776.65 Y-1147.59
M08
G40
M51
M93
G00 X771.08 Y-846.62
M94 F1788
G41 D21
N59 M07
G01 X776.68 Y-846.53
M50
G03 X774.02 Y-838.72 I-9.82 J1.01
G03 X755.43 Y-835.70 I-10.90 J-8.39
G03 X751.08 Y-853.18 I7.36 J-11.11
G03 X769.04 Y-858.72 I11.88 J6.64
G03 X775.90 Y-851.46 I-5.77 J12.32
G01 X776.71 Y-848.21
G01 X776.68 Y-846.53
G01 X776.65 Y-844.86
M08
G40
M51
M93
G00 X771.08 Y-543.89
M94 F1788
G41 D21
N60 M07
G01 X776.68 Y-543.80
M50
G03 X774.02 Y-535.98 I-9.82 J1.01
G03 X755.43 Y-532.97 I-10.90 J-8.39
G03 X751.08 Y-550.44 I7.36 J-11.11
G03 X769.04 Y-555.98 I11.88 J6.64
G03 X775.90 Y-548.73 I-5.77 J12.32
G01 X776.71 Y-545.47
G01 X776.68 Y-543.80
G01 X776.65 Y-542.12
M08
G40
M51
M93
G00 X771.08 Y-241.15
M94 F1788
G41 D21
N61 M07
G01 X776.68 Y-241.06
M50
G03 X774.02 Y-233.25 I-9.82 J1.01
G03 X755.43 Y-230.23 I-10.90 J-8.39
G03 X751.08 Y-247.70 I7.36 J-11.11
G03 X769.04 Y-253.24 I11.88 J6.64
G03 X775.90 Y-245.99 I-5.77 J12.32
G01 X776.71 Y-242.73
G01 X776.68 Y-241.06
G01 X776.65 Y-239.38
M08
G40
M51
M93
G00 X955.35 Y-1216.46
M94 F1375
G41 D21
N62 M07
G01 X959.31 Y-1220.42
M50
G03 X961.29 Y-1215.65 I-4.77 J4.77
G03 X954.54 Y-1208.90 I-6.75 J0.00
G03 X947.79 Y-1215.65 I0.00 J-6.75
G03 X954.54 Y-1222.40 I6.75 J0.00
G03 X959.31 Y-1220.42 I-0.00 J6.75
G03 X960.59 Y-1218.64 I-4.77 J4.77
M08
G40
M51
M93
G00 X955.35 Y-1164.46
M94 F1375
G41 D21
N63 M07
G01 X959.31 Y-1168.42
M50
G03 X961.29 Y-1163.65 I-4.77 J4.77
G03 X954.54 Y-1156.90 I-6.75 J0.00
G03 X947.79 Y-1163.65 I0.00 J-6.75
G03 X954.54 Y-1170.40 I6.75 J0.00
G03 X959.31 Y-1168.42 I-0.00 J6.75
G03 X960.59 Y-1166.64 I-4.77 J4.77
M08
G40
M51
M93
G00 X1125.76 Y-128.71
M94 F1719
G41 D21
N64 M07
G01 X1129.72 Y-124.75
M50
G03 X1120.60 Y-120.97 I-9.12 J-9.12
G03 X1107.70 Y-133.87 I0.00 J-12.90
G03 X1120.60 Y-146.77 I12.90 J0.00
G03 X1133.50 Y-133.87 I0.00 J12.90
G03 X1129.72 Y-124.75 I-12.90 J0.00
G03 X1128.04 Y-123.34 I-9.12 J-9.12
M08
G40
M51
M93
G00 X1125.76 Y-431.45
M94 F1719
G41 D21
N65 M07
G01 X1129.72 Y-427.49
M50
G03 X1120.60 Y-423.71 I-9.12 J-9.12
G03 X1107.70 Y-436.61 I0.00 J-12.90
G03 X1120.60 Y-449.51 I12.90 J0.00
G03 X1133.50 Y-436.61 I0.00 J12.90
G03 X1129.72 Y-427.49 I-12.90 J0.00
G03 X1128.04 Y-426.07 I-9.12 J-9.12
M08
G40
M51
M93
G00 X1125.76 Y-744.51
M94 F1719
G41 D21
N66 M07
G01 X1129.72 Y-748.47
M50
G03 X1133.50 Y-739.35 I-9.12 J9.12
G03 X1120.60 Y-726.45 I-12.90 J-0.00
G03 X1107.70 Y-739.35 I0.00 J-12.90
G03 X1120.60 Y-752.25 I12.90 J0.00
G03 X1129.72 Y-748.47 I0.00 J12.90
G03 X1131.13 Y-746.79 I-9.12 J9.12
M08
G40
M51
M93
G00 X1125.76 Y-1047.25
M94 F1719
G41 D21
N67 M07
G01 X1129.72 Y-1051.21
M50
G03 X1133.50 Y-1042.08 I-9.12 J9.12
G03 X1120.60 Y-1029.18 I-12.90 J0.00
G03 X1107.70 Y-1042.08 I0.00 J-12.90
G03 X1120.60 Y-1054.98 I12.90 J0.00
G03 X1129.72 Y-1051.21 I0.00 J12.90
G03 X1131.13 Y-1049.53 I-9.12 J9.12
M08
G40
M51
M93
G00 X1105.86 Y-1216.46
M94 F1375
G41 D21
N68 M07
G01 X1109.82 Y-1220.42
M50
G03 X1111.79 Y-1215.65 I-4.77 J4.77
G03 X1105.04 Y-1208.90 I-6.75 J0.00
G03 X1098.29 Y-1215.65 I0.00 J-6.75
G03 X1105.04 Y-1222.40 I6.75 J0.00
G03 X1109.82 Y-1220.42 I-0.00 J6.75
G03 X1111.09 Y-1218.64 I-4.77 J4.77
M08
G40
M51
M93
G00 X1105.86 Y-1164.46
M94 F1375
G41 D21
N69 M07
G01 X1109.82 Y-1168.42
M50
G03 X1111.79 Y-1163.65 I-4.77 J4.77
G03 X1105.04 Y-1156.90 I-6.75 J0.00
G03 X1098.29 Y-1163.65 I0.00 J-6.75
G03 X1105.04 Y-1170.40 I6.75 J0.00
G03 X1109.82 Y-1168.42 I-0.00 J6.75
G03 X1111.09 Y-1166.64 I-4.77 J4.77
M08
G40
M51
M93
G00 X1054.98 Y-242.09
M94 F1788
G41 D21
N70 M07
G01 X1060.55 Y-242.72
M50
G03 X1059.00 Y-234.83 I-9.81 J2.18
G03 X1041.04 Y-229.29 I-11.88 J-6.64
G03 X1034.34 Y-246.38 I5.83 J-12.14
G03 X1051.57 Y-253.81 I12.46 J5.21
G03 X1059.21 Y-247.33 I-4.45 J12.99
G01 X1060.38 Y-244.18
G01 X1060.55 Y-242.72
G01 X1060.71 Y-241.27
M08
G40
M51
M93
G00 X1054.98 Y-544.82
M94 F1788
G41 D21
N71 M07
G01 X1060.55 Y-545.46
M50
G03 X1059.00 Y-537.57 I-9.81 J2.18
G03 X1041.04 Y-532.03 I-11.88 J-6.64
G03 X1034.34 Y-549.12 I5.83 J-12.14
G03 X1051.57 Y-556.54 I12.46 J5.21
G03 X1059.21 Y-550.07 I-4.45 J12.99
G01 X1060.38 Y-546.92
G01 X1060.55 Y-545.46
G01 X1060.71 Y-544.00
M08
G40
M51
M93
G00 X1054.98 Y-847.56
M94 F1788
G41 D21
N72 M07
G01 X1060.55 Y-848.20
M50
G03 X1059.00 Y-840.30 I-9.81 J2.18
G03 X1041.04 Y-834.76 I-11.88 J-6.64
G03 X1034.34 Y-851.85 I5.83 J-12.14
G03 X1051.57 Y-859.28 I12.46 J5.21
G03 X1059.21 Y-852.81 I-4.45 J12.99
G01 X1060.38 Y-849.66
G01 X1060.55 Y-848.20
G01 X1060.71 Y-846.74
M08
G40
M51
M93
G00 X1054.98 Y-1150.30
M94 F1788
G41 D21
N73 M07
G01 X1060.55 Y-1150.94
M50
G03 X1059.00 Y-1143.04 I-9.81 J2.18
G03 X1041.04 Y-1137.50 I-11.88 J-6.64
G03 X1034.34 Y-1154.59 I5.83 J-12.14
G03 X1051.57 Y-1162.02 I12.46 J5.21
G03 X1059.21 Y-1155.54 I-4.45 J12.99
G01 X1060.38 Y-1152.39
G01 X1060.55 Y-1150.94
G01 X1060.71 Y-1149.48
M08
G40
M51
M93
G00 X856.35 Y-1164.46
M94 F1375
G41 D21
N74 M07
G01 X860.31 Y-1168.42
M50
G03 X862.29 Y-1163.65 I-4.77 J4.77
G03 X855.54 Y-1156.90 I-6.75 J0.00
G03 X848.79 Y-1163.65 I0.00 J-6.75
G03 X855.54 Y-1170.40 I6.75 J0.00
G03 X860.31 Y-1168.42 I-0.00 J6.75
G03 X861.59 Y-1166.64 I-4.77 J4.77
M08
G40
M51
M93
G00 X856.35 Y-1216.46
M94 F1375
G41 D21
N75 M07
G01 X860.31 Y-1220.42
M50
G03 X862.29 Y-1215.65 I-4.77 J4.77
G03 X855.54 Y-1208.90 I-6.75 J0.00
G03 X848.79 Y-1215.65 I0.00 J-6.75
G03 X855.54 Y-1222.40 I6.75 J0.00
G03 X860.31 Y-1220.42 I-0.00 J6.75
G03 X861.59 Y-1218.64 I-4.77 J4.77
M08
G40
M51
M93
G00 X705.85 Y-1164.46
M94 F1375
G41 D21
N76 M07
G01 X709.81 Y-1168.42
M50
G03 X711.79 Y-1163.65 I-4.77 J4.77
G03 X705.04 Y-1156.90 I-6.75 J0.00
G03 X698.29 Y-1163.65 I0.00 J-6.75
G03 X705.04 Y-1170.40 I6.75 J0.00
G03 X709.81 Y-1168.42 I-0.00 J6.75
G03 X711.09 Y-1166.64 I-4.77 J4.77
M08
G40
M51
M93
G00 X705.85 Y-1216.46
M94 F1375
G41 D21
N77 M07
G01 X709.81 Y-1220.42
M50
G03 X711.79 Y-1215.65 I-4.77 J4.77
G03 X705.04 Y-1208.90 I-6.75 J0.00
G03 X698.29 Y-1215.65 I0.00 J-6.75
G03 X705.04 Y-1222.40 I6.75 J0.00
G03 X709.81 Y-1220.42 I-0.00 J6.75
G03 X711.09 Y-1218.64 I-4.77 J4.77
M08
G40
M51
M93
G00 X694.65 Y-1036.92
M94 F1719
G41 D21
N78 M07
G01 X698.61 Y-1032.96
M50
G03 X689.49 Y-1029.18 I-9.12 J-9.12
G03 X676.59 Y-1042.08 I0.00 J-12.90
G03 X689.49 Y-1054.98 I12.90 J0.00
G03 X702.39 Y-1042.08 I0.00 J12.90
G03 X698.61 Y-1032.96 I-12.90 J0.00
G03 X696.93 Y-1031.55 I-9.12 J-9.12
M08
G40
M51
M93
G00 X694.65 Y-734.19
M94 F1719
G41 D21
N79 M07
G01 X698.61 Y-730.23
M50
G03 X689.49 Y-726.45 I-9.12 J-9.12
G03 X676.59 Y-739.35 I0.00 J-12.90
G03 X689.49 Y-752.25 I12.90 J0.00
G03 X702.39 Y-739.35 I0.00 J12.90
G03 X698.61 Y-730.23 I-12.90 J-0.00
G03 X696.93 Y-728.81 I-9.12 J-9.12
M08
G40
M51
M93
G00 X694.65 Y-441.77
M94 F1719
G41 D21
N80 M07
G01 X698.61 Y-445.73
M50
G03 X702.39 Y-436.61 I-9.12 J9.12
G03 X689.49 Y-423.71 I-12.90 J0.00
G03 X676.59 Y-436.61 I0.00 J-12.90
G03 X689.49 Y-449.51 I12.90 J0.00
G03 X698.61 Y-445.73 I0.00 J12.90
G03 X700.02 Y-444.05 I-9.12 J9.12
M08
G40
M51
M93
G00 X694.65 Y-139.04
M94 F1719
G41 D21
N81 M07
G01 X698.61 Y-143.00
M50
G03 X702.39 Y-133.87 I-9.12 J9.12
G03 X689.49 Y-120.97 I-12.90 J0.00
G03 X676.59 Y-133.87 I0.00 J-12.90
G03 X689.49 Y-146.77 I12.90 J-0.00
G03 X698.61 Y-143.00 I0.00 J12.90
G03 X700.02 Y-141.31 I-9.12 J9.12
M08
G40
M51
M93
G00 X1215.56 Y-1090.86
M94 F2750
G41 D21
N82 M07
G01 X1215.56 Y-1096.46
G01 X1215.56 Y-1126.46
G01 X1182.06 Y-1126.46
G03 X1172.06 Y-1136.46 I0.00 J-10.00
G01 X1172.06 Y-1246.15
G01 X638.02 Y-1246.15
G01 X638.02 Y-1136.46
G03 X628.02 Y-1126.46 I-10.00 J0.00
G01 X594.52 Y-1126.46
G01 X594.52 Y-1096.46
G01 X628.02 Y-1096.46
G03 X638.02 Y-1086.46 I0.00 J10.00
G01 X638.02 Y-763.47
G03 X628.02 Y-753.47 I-10.00 J0.00
G01 X594.52 Y-753.47
G01 X594.52 Y-724.42
G03 X608.94 Y-717.63 I-1.27 J21.40
G03 X617.65 Y-701.83 I-20.62 J21.67
G03 X611.00 Y-669.58 I-37.87 J9.00
G03 X597.24 Y-660.93 I-20.63 J-17.55
G01 X594.52 Y-660.56
G01 X594.52 Y-631.50
G01 X628.02 Y-631.50
G03 X638.02 Y-621.50 I0.00 J10.00
G01 X638.02 Y-298.51
G03 X628.02 Y-288.51 I-10.00 J0.00
G01 X594.52 Y-288.51
G01 X594.52 Y-258.51
G01 X628.02 Y-258.51
G03 X638.02 Y-248.51 I0.00 J10.00
G01 X638.02 Y-37.20
G01 X1172.06 Y-37.20
G01 X1172.06 Y-248.51
G03 X1182.06 Y-258.51 I10.00 J0.00
G01 X1215.56 Y-258.51
G01 X1215.56 Y-288.51
G01 X1182.06 Y-288.51
G03 X1172.06 Y-298.51 I0.00 J-10.00
G01 X1172.06 Y-621.50
G03 X1182.06 Y-631.50 I10.00 J0.00
G01 X1215.56 Y-631.50
G01 X1215.56 Y-660.56
G03 X1201.14 Y-667.34 I1.27 J-21.40
G03 X1192.43 Y-683.14 I20.62 J-21.67
G03 X1199.08 Y-715.39 I37.87 J-9.00
G03 X1212.84 Y-724.04 I20.63 J17.55
G01 X1215.56 Y-724.42
G01 X1215.56 Y-753.47
G01 X1182.06 Y-753.47
G03 X1172.06 Y-763.47 I0.00 J-10.00
G01 X1172.06 Y-1086.46
G03 X1182.06 Y-1096.46 I10.00 J0.00
G01 X1214.46 Y-1096.46
M50
G01 X1215.56 Y-1096.46
G03 X1217.56 Y-1094.46 I0.00 J2.00
M08
G40
M51
M93
G00 X1490.25 Y-124.52
M94 F1581
G41 D21
N83 M07
G01 X1492.56 Y-124.52
M50
G01 X1492.56 Y-96.12
G03 X1489.56 Y-93.12 I-3.00 J0.00
G03 X1486.56 Y-96.12 I0.00 J-3.00
G01 X1486.56 Y-152.92
G03 X1489.56 Y-155.92 I3.00 J0.00
G03 X1492.56 Y-152.92 I-0.00 J3.00
G01 X1492.56 Y-124.52
G01 X1492.56 Y-122.32
M08
G40
M51
M93
G00 X1490.25 Y-275.24
M94 F1581
G41 D21
N84 M07
G01 X1492.56 Y-275.24
M50
G01 X1492.56 Y-246.84
G03 X1489.56 Y-243.84 I-3.00 J0.00
G03 X1486.56 Y-246.84 I0.00 J-3.00
G01 X1486.56 Y-303.64
G03 X1489.56 Y-306.64 I3.00 J0.00
G03 X1492.56 Y-303.64 I-0.00 J3.00
G01 X1492.56 Y-275.24
G01 X1492.56 Y-273.04
M08
G40
M51
M93
G00 X1490.25 Y-425.96
M94 F1581
G41 D21
N85 M07
G01 X1492.56 Y-425.96
M50
G01 X1492.56 Y-397.56
G03 X1489.56 Y-394.56 I-3.00 J0.00
G03 X1486.56 Y-397.56 I0.00 J-3.00
G01 X1486.56 Y-454.36
G03 X1489.56 Y-457.36 I3.00 J0.00
G03 X1492.56 Y-454.36 I-0.00 J3.00
G01 X1492.56 Y-425.96
G01 X1492.56 Y-423.76
M08
G40
M51
M93
G00 X1490.25 Y-576.68
M94 F1581
G41 D21
N86 M07
G01 X1492.56 Y-576.68
M50
G01 X1492.56 Y-548.28
G03 X1489.56 Y-545.28 I-3.00 J0.00
G03 X1486.56 Y-548.28 I0.00 J-3.00
G01 X1486.56 Y-605.08
G03 X1489.56 Y-608.08 I3.00 J0.00
G03 X1492.56 Y-605.08 I-0.00 J3.00
G01 X1492.56 Y-576.68
G01 X1492.56 Y-574.48
M08
G40
M51
M93
G00 X1490.25 Y-727.40
M94 F1581
G41 D21
N87 M07
G01 X1492.56 Y-727.40
M50
G01 X1492.56 Y-699.00
G03 X1489.56 Y-696.00 I-3.00 J0.00
G03 X1486.56 Y-699.00 I0.00 J-3.00
G01 X1486.56 Y-755.80
G03 X1489.56 Y-758.80 I3.00 J0.00
G03 X1492.56 Y-755.80 I-0.00 J3.00
G01 X1492.56 Y-727.40
G01 X1492.56 Y-725.20
M08
G40
M51
M93
G00 X1490.25 Y-878.12
M94 F1581
G41 D21
N88 M07
G01 X1492.56 Y-878.12
M50
G01 X1492.56 Y-849.72
G03 X1489.56 Y-846.72 I-3.00 J0.00
G03 X1486.56 Y-849.72 I0.00 J-3.00
G01 X1486.56 Y-906.52
G03 X1489.56 Y-909.52 I3.00 J0.00
G03 X1492.56 Y-906.52 I-0.00 J3.00
G01 X1492.56 Y-878.12
G01 X1492.56 Y-875.92
M08
G40
M51
M93
G00 X1490.25 Y-1028.84
M94 F1581
G41 D21
N89 M07
G01 X1492.56 Y-1028.84
M50
G01 X1492.56 Y-1000.44
G03 X1489.56 Y-997.44 I-3.00 J0.00
G03 X1486.56 Y-1000.44 I0.00 J-3.00
G01 X1486.56 Y-1057.24
G03 X1489.56 Y-1060.24 I3.00 J0.00
G03 X1492.56 Y-1057.24 I-0.00 J3.00
G01 X1492.56 Y-1028.84
G01 X1492.56 Y-1026.64
M08
G40
M51
M93
G00 X1490.25 Y-1179.56
M94 F1581
G41 D21
N90 M07
G01 X1492.56 Y-1179.56
M50
G01 X1492.56 Y-1151.16
G03 X1489.56 Y-1148.16 I-3.00 J0.00
G03 X1486.56 Y-1151.16 I0.00 J-3.00
G01 X1486.56 Y-1207.96
G03 X1489.56 Y-1210.96 I3.00 J0.00
G03 X1492.56 Y-1207.96 I0.00 J3.00
G01 X1492.56 Y-1179.56
G01 X1492.56 Y-1177.36
M08
G40
M51
M93
G00 X1490.25 Y-1104.20
M94 F1581
G41 D21
N91 M07
G01 X1492.56 Y-1104.20
M50
G01 X1492.56 Y-1075.80
G03 X1489.56 Y-1072.80 I-3.00 J0.00
G03 X1486.56 Y-1075.80 I0.00 J-3.00
G01 X1486.56 Y-1132.60
G03 X1489.56 Y-1135.60 I3.00 J0.00
G03 X1492.56 Y-1132.60 I-0.00 J3.00
G01 X1492.56 Y-1104.20
G01 X1492.56 Y-1102.00
M08
G40
M51
M93
G00 X1490.25 Y-953.48
M94 F1581
G41 D21
N92 M07
G01 X1492.56 Y-953.48
M50
G01 X1492.56 Y-925.08
G03 X1489.56 Y-922.08 I-3.00 J0.00
G03 X1486.56 Y-925.08 I0.00 J-3.00
G01 X1486.56 Y-981.88
G03 X1489.56 Y-984.88 I3.00 J0.00
G03 X1492.56 Y-981.88 I-0.00 J3.00
G01 X1492.56 Y-953.48
G01 X1492.56 Y-951.28
M08
G40
M51
M93
G00 X1490.25 Y-802.76
M94 F1581
G41 D21
N93 M07
G01 X1492.56 Y-802.76
M50
G01 X1492.56 Y-774.36
G03 X1489.56 Y-771.36 I-3.00 J0.00
G03 X1486.56 Y-774.36 I0.00 J-3.00
G01 X1486.56 Y-831.16
G03 X1489.56 Y-834.16 I3.00 J0.00
G03 X1492.56 Y-831.16 I-0.00 J3.00
G01 X1492.56 Y-802.76
G01 X1492.56 Y-800.56
M08
G40
M51
M93
G00 X1490.25 Y-652.04
M94 F1581
G41 D21
N94 M07
G01 X1492.56 Y-652.04
M50
G01 X1492.56 Y-623.64
G03 X1489.56 Y-620.64 I-3.00 J0.00
G03 X1486.56 Y-623.64 I0.00 J-3.00
G01 X1486.56 Y-680.44
G03 X1489.56 Y-683.44 I3.00 J0.00
G03 X1492.56 Y-680.44 I-0.00 J3.00
G01 X1492.56 Y-652.04
G01 X1492.56 Y-649.84
M08
G40
M51
M93
G00 X1490.25 Y-501.32
M94 F1581
G41 D21
N95 M07
G01 X1492.56 Y-501.32
M50
G01 X1492.56 Y-472.92
G03 X1489.56 Y-469.92 I-3.00 J0.00
G03 X1486.56 Y-472.92 I0.00 J-3.00
G01 X1486.56 Y-529.72
G03 X1489.56 Y-532.72 I3.00 J0.00
G03 X1492.56 Y-529.72 I-0.00 J3.00
G01 X1492.56 Y-501.32
G01 X1492.56 Y-499.12
M08
G40
M51
M93
G00 X1490.25 Y-350.60
M94 F1581
G41 D21
N96 M07
G01 X1492.56 Y-350.60
M50
G01 X1492.56 Y-322.20
G03 X1489.56 Y-319.20 I-3.00 J0.00
G03 X1486.56 Y-322.20 I0.00 J-3.00
G01 X1486.56 Y-379.00
G03 X1489.56 Y-382.00 I3.00 J0.00
G03 X1492.56 Y-379.00 I-0.00 J3.00
G01 X1492.56 Y-350.60
G01 X1492.56 Y-348.40
M08
G40
M51
M93
G00 X1490.25 Y-199.88
M94 F1581
G41 D21
N97 M07
G01 X1492.56 Y-199.88
M50
G01 X1492.56 Y-171.48
G03 X1489.56 Y-168.48 I-3.00 J0.00
G03 X1486.56 Y-171.48 I0.00 J-3.00
G01 X1486.56 Y-228.28
G03 X1489.56 Y-231.28 I3.00 J0.00
G03 X1492.56 Y-228.28 I-0.00 J3.00
G01 X1492.56 Y-199.88
G01 X1492.56 Y-197.68
M08
G40
M51
M93
G00 X1490.25 Y-49.16
M94 F1581
G41 D21
N98 M07
G01 X1492.56 Y-49.16
M50
G01 X1492.56 Y-20.76
G03 X1489.56 Y-17.76 I-3.00 J0.00
G03 X1486.56 Y-20.76 I0.00 J-3.00
G01 X1486.56 Y-77.56
G03 X1489.56 Y-80.56 I3.00 J0.00
G03 X1492.56 Y-77.56 I-0.00 J3.00
G01 X1492.56 Y-49.16
G01 X1492.56 Y-46.96
M08
G40
M51
M93
G00 X1639.50 Y-107.51
M94 F1788
G41 D21
N99 M07
G01 X1645.07 Y-108.14
M50
G03 X1643.52 Y-100.25 I-9.81 J2.18
G03 X1625.56 Y-94.71 I-11.88 J-6.64
G03 X1618.86 Y-111.80 I5.83 J-12.14
G03 X1636.09 Y-119.23 I12.46 J5.21
G03 X1643.73 Y-112.75 I-4.45 J12.99
G01 X1644.90 Y-109.60
G01 X1645.07 Y-108.14
G01 X1645.23 Y-106.69
M08
G40
M51
M93
G00 X1639.50 Y-410.24
M94 F1788
G41 D21
N100 M07
G01 X1645.07 Y-410.88
M50
G03 X1643.52 Y-402.99 I-9.81 J2.18
G03 X1625.56 Y-397.45 I-11.88 J-6.64
G03 X1618.86 Y-414.54 I5.83 J-12.14
G03 X1636.09 Y-421.96 I12.46 J5.21
G03 X1643.73 Y-415.49 I-4.45 J12.99
G01 X1644.90 Y-412.34
G01 X1645.07 Y-410.88
G01 X1645.23 Y-409.42
M08
G40
M51
M93
G00 X1639.50 Y-712.98
M94 F1788
G41 D21
N101 M07
G01 X1645.07 Y-713.62
M50
G03 X1643.52 Y-705.72 I-9.81 J2.18
G03 X1625.56 Y-700.18 I-11.88 J-6.64
G03 X1618.86 Y-717.27 I5.83 J-12.14
G03 X1636.09 Y-724.70 I12.46 J5.21
G03 X1643.73 Y-718.23 I-4.45 J12.99
G01 X1644.90 Y-715.08
G01 X1645.07 Y-713.62
G01 X1645.23 Y-712.16
M08
G40
M51
M93
G00 X1639.50 Y-1015.72
M94 F1788
G41 D21
N102 M07
G01 X1645.07 Y-1016.36
M50
G03 X1643.52 Y-1008.46 I-9.81 J2.18
G03 X1625.56 Y-1002.92 I-11.88 J-6.64
G03 X1618.86 Y-1020.01 I5.83 J-12.14
G03 X1636.09 Y-1027.44 I12.46 J5.21
G03 X1643.73 Y-1020.96 I-4.45 J12.99
G01 X1644.90 Y-1017.81
G01 X1645.07 Y-1016.36
G01 X1645.23 Y-1014.90
M08
G40
M51
M93
G00 X1440.87 Y-41.33
M94 F1375
G41 D21
N103 M07
G01 X1444.83 Y-45.29
M50
G03 X1446.81 Y-40.51 I-4.77 J4.77
G03 X1440.06 Y-33.76 I-6.75 J0.00
G03 X1433.31 Y-40.51 I0.00 J-6.75
G03 X1440.06 Y-47.26 I6.75 J0.00
G03 X1444.83 Y-45.29 I0.00 J6.75
G03 X1446.11 Y-43.51 I-4.77 J4.77
M08
G40
M51
M93
G00 X1440.87 Y-93.33
M94 F1375
G41 D21
N104 M07
G01 X1444.83 Y-97.29
M50
G03 X1446.81 Y-92.51 I-4.77 J4.77
G03 X1440.06 Y-85.76 I-6.75 J0.00
G03 X1433.31 Y-92.51 I0.00 J-6.75
G03 X1440.06 Y-99.26 I6.75 J0.00
G03 X1444.83 Y-97.29 I0.00 J6.75
G03 X1446.11 Y-95.51 I-4.77 J4.77
M08
G40
M51
M93
G00 X1279.17 Y-1117.13
M94 F1719
G41 D21
N105 M07
G01 X1283.13 Y-1113.17
M50
G03 X1274.01 Y-1109.39 I-9.12 J-9.12
G03 X1261.11 Y-1122.29 I0.00 J-12.90
G03 X1274.01 Y-1135.19 I12.90 J0.00
G03 X1286.91 Y-1122.29 I0.00 J12.90
G03 X1283.13 Y-1113.17 I-12.90 J0.00
G03 X1281.45 Y-1111.75 I-9.12 J-9.12
M08
G40
M51
M93
G00 X1279.17 Y-814.39
M94 F1719
G41 D21
N106 M07
G01 X1283.13 Y-810.43
M50
G03 X1274.01 Y-806.65 I-9.12 J-9.12
G03 X1261.11 Y-819.55 I0.00 J-12.90
G03 X1274.01 Y-832.45 I12.90 J0.00
G03 X1286.91 Y-819.55 I0.00 J12.90
G03 X1283.13 Y-810.43 I-12.90 J-0.00
G03 X1281.45 Y-809.02 I-9.12 J-9.12
M08
G40
M51
M93
G00 X1279.17 Y-521.98
M94 F1719
G41 D21
N107 M07
G01 X1283.13 Y-525.94
M50
G03 X1286.91 Y-516.82 I-9.12 J9.12
G03 X1274.01 Y-503.92 I-12.90 J-0.00
G03 X1261.11 Y-516.82 I0.00 J-12.90
G03 X1274.01 Y-529.72 I12.90 J0.00
G03 X1283.13 Y-525.94 I0.00 J12.90
G03 X1284.54 Y-524.26 I-9.12 J9.12
M08
G40
M51
M93
G00 X1279.17 Y-219.24
M94 F1719
G41 D21
N108 M07
G01 X1283.13 Y-223.20
M50
G03 X1286.91 Y-214.08 I-9.12 J9.12
G03 X1274.01 Y-201.18 I-12.90 J-0.00
G03 X1261.11 Y-214.08 I0.00 J-12.90
G03 X1274.01 Y-226.98 I12.90 J0.00
G03 X1283.13 Y-223.20 I0.00 J12.90
G03 X1284.54 Y-221.52 I-9.12 J9.12
M08
G40
M51
M93
G00 X1290.37 Y-41.33
M94 F1375
G41 D21
N109 M07
G01 X1294.33 Y-45.29
M50
G03 X1296.31 Y-40.51 I-4.77 J4.77
G03 X1289.56 Y-33.76 I-6.75 J0.00
G03 X1282.81 Y-40.51 I0.00 J-6.75
G03 X1289.56 Y-47.26 I6.75 J0.00
G03 X1294.33 Y-45.29 I0.00 J6.75
G03 X1295.61 Y-43.51 I-4.77 J4.77
M08
G40
M51
M93
G00 X1290.37 Y-93.33
M94 F1375
G41 D21
N110 M07
G01 X1294.33 Y-97.29
M50
G03 X1296.31 Y-92.51 I-4.77 J4.77
G03 X1289.56 Y-85.76 I-6.75 J0.00
G03 X1282.81 Y-92.51 I0.00 J-6.75
G03 X1289.56 Y-99.26 I6.75 J0.00
G03 X1294.33 Y-97.29 I0.00 J6.75
G03 X1295.61 Y-95.51 I-4.77 J4.77
M08
G40
M51
M93
G00 X1355.60 Y-1014.78
M94 F1788
G41 D21
N111 M07
G01 X1361.20 Y-1014.69
M50
G03 X1358.54 Y-1006.88 I-9.82 J1.01
G03 X1339.95 Y-1003.86 I-10.90 J-8.39
G03 X1335.60 Y-1021.33 I7.36 J-11.11
G03 X1353.56 Y-1026.87 I11.88 J6.64
G03 X1360.42 Y-1019.62 I-5.77 J12.32
G01 X1361.23 Y-1016.36
G01 X1361.20 Y-1014.69
G01 X1361.17 Y-1013.01
M08
G40
M51
M93
G00 X1355.60 Y-712.04
M94 F1788
G41 D21
N112 M07
G01 X1361.20 Y-711.95
M50
G03 X1358.54 Y-704.14 I-9.82 J1.01
G03 X1339.95 Y-701.12 I-10.90 J-8.39
G03 X1335.60 Y-718.60 I7.36 J-11.11
G03 X1353.56 Y-724.14 I11.88 J6.64
G03 X1360.42 Y-716.88 I-5.77 J12.32
G01 X1361.23 Y-713.63
G01 X1361.20 Y-711.95
G01 X1361.17 Y-710.28
M08
G40
M51
M93
G00 X1355.60 Y-409.31
M94 F1788
G41 D21
N113 M07
G01 X1361.20 Y-409.22
M50
G03 X1358.54 Y-401.40 I-9.82 J1.01
G03 X1339.95 Y-398.39 I-10.90 J-8.39
G03 X1335.60 Y-415.86 I7.36 J-11.11
G03 X1353.56 Y-421.40 I11.88 J6.64
G03 X1360.42 Y-414.15 I-5.77 J12.32
G01 X1361.23 Y-410.89
G01 X1361.20 Y-409.22
G01 X1361.17 Y-407.54
M08
G40
M51
M93
G00 X1355.60 Y-106.57
M94 F1788
G41 D21
N114 M07
G01 X1361.20 Y-106.48
M50
G03 X1358.54 Y-98.67 I-9.82 J1.01
G03 X1339.95 Y-95.65 I-10.90 J-8.39
G03 X1335.60 Y-113.12 I7.36 J-11.11
G03 X1353.56 Y-118.66 I11.88 J6.64
G03 X1360.42 Y-111.41 I-5.77 J12.32
G01 X1361.23 Y-108.15
G01 X1361.20 Y-106.48
G01 X1361.17 Y-104.80
M08
G40
M51
M93
G00 X1539.87 Y-93.33
M94 F1375
G41 D21
N115 M07
G01 X1543.83 Y-97.29
M50
G03 X1545.81 Y-92.51 I-4.77 J4.77
G03 X1539.06 Y-85.76 I-6.75 J0.00
G03 X1532.31 Y-92.51 I0.00 J-6.75
G03 X1539.06 Y-99.26 I6.75 J0.00
G03 X1543.83 Y-97.29 I0.00 J6.75
G03 X1545.11 Y-95.51 I-4.77 J4.77
M08
G40
M51
M93
G00 X1539.87 Y-41.33
M94 F1375
G41 D21
N116 M07
G01 X1543.83 Y-45.29
M50
G03 X1545.81 Y-40.51 I-4.77 J4.77
G03 X1539.06 Y-33.76 I-6.75 J0.00
G03 X1532.31 Y-40.51 I0.00 J-6.75
G03 X1539.06 Y-47.26 I6.75 J0.00
G03 X1543.83 Y-45.29 I0.00 J6.75
G03 X1545.11 Y-43.51 I-4.77 J4.77
M08
G40
M51
M93
G00 X1690.38 Y-93.33
M94 F1375
G41 D21
N117 M07
G01 X1694.34 Y-97.29
M50
G03 X1696.31 Y-92.51 I-4.77 J4.77
G03 X1689.56 Y-85.76 I-6.75 J0.00
G03 X1682.81 Y-92.51 I0.00 J-6.75
G03 X1689.56 Y-99.26 I6.75 J0.00
G03 X1694.34 Y-97.29 I0.00 J6.75
G03 X1695.61 Y-95.51 I-4.77 J4.77
M08
G40
M51
M93
G00 X1690.38 Y-39.70
M94 F1375
G41 D21
N118 M07
G01 X1694.34 Y-35.74
M50
G03 X1689.56 Y-33.76 I-4.77 J-4.77
G03 X1682.81 Y-40.51 I0.00 J-6.75
G03 X1689.56 Y-47.26 I6.75 J0.00
G03 X1696.31 Y-40.51 I0.00 J6.75
G03 X1694.34 Y-35.74 I-6.75 J-0.00
G03 X1692.56 Y-34.46 I-4.77 J-4.77
M08
G40
M51
M93
G00 X1710.28 Y-219.24
M94 F1719
G41 D21
N119 M07
G01 X1714.24 Y-223.20
M50
G03 X1718.02 Y-214.08 I-9.12 J9.12
G03 X1705.12 Y-201.18 I-12.90 J-0.00
G03 X1692.22 Y-214.08 I0.00 J-12.90
G03 X1705.12 Y-226.98 I12.90 J0.00
G03 X1714.24 Y-223.20 I0.00 J12.90
G03 X1715.65 Y-221.52 I-9.12 J9.12
M08
G40
M51
M93
G00 X1710.28 Y-511.65
M94 F1719
G41 D21
N120 M07
G01 X1714.24 Y-507.69
M50
G03 X1705.12 Y-503.92 I-9.12 J-9.12
G03 X1692.22 Y-516.82 I0.00 J-12.90
G03 X1705.12 Y-529.72 I12.90 J0.00
G03 X1718.02 Y-516.82 I0.00 J12.90
G03 X1714.24 Y-507.69 I-12.90 J0.00
G03 X1712.56 Y-506.28 I-9.12 J-9.12
M08
G40
M51
M93
G00 X1710.28 Y-824.72
M94 F1719
G41 D21
N121 M07
G01 X1714.24 Y-828.67
M50
G03 X1718.02 Y-819.55 I-9.12 J9.12
G03 X1705.12 Y-806.65 I-12.90 J-0.00
G03 X1692.22 Y-819.55 I0.00 J-12.90
G03 X1705.12 Y-832.45 I12.90 J0.00
G03 X1714.24 Y-828.67 I0.00 J12.90
G03 X1715.65 Y-826.99 I-9.12 J9.12
M08
G40
M51
M93
G00 X1710.28 Y-1127.45
M94 F1719
G41 D21
N122 M07
G01 X1714.24 Y-1131.41
M50
G03 X1718.02 Y-1122.29 I-9.12 J9.12
G03 X1705.12 Y-1109.39 I-12.90 J0.00
G03 X1692.22 Y-1122.29 I0.00 J-12.90
G03 X1705.12 Y-1135.19 I12.90 J0.00
G03 X1714.24 Y-1131.41 I0.00 J12.90
G03 X1715.65 Y-1129.73 I-9.12 J9.12
M08
G40
M51
M93
G00 X1800.08 Y-962.06
M94 F2750
G41 D21
N123 M07
G01 X1800.08 Y-967.66
G01 X1800.08 Y-997.66
G01 X1766.58 Y-997.66
G03 X1756.58 Y-1007.66 I0.00 J-10.00
G01 X1756.58 Y-1218.96
G01 X1222.54 Y-1218.96
G01 X1222.54 Y-1007.66
G03 X1212.54 Y-997.66 I-10.00 J0.00
G01 X1179.04 Y-997.66
G01 X1179.04 Y-967.66
G01 X1212.54 Y-967.66
G03 X1222.54 Y-957.66 I0.00 J10.00
G01 X1222.54 Y-634.66
G03 X1212.54 Y-624.66 I-10.00 J0.00
G01 X1179.04 Y-624.66
G01 X1179.04 Y-595.61
G03 X1193.46 Y-588.82 I-1.27 J21.40
G03 X1202.17 Y-573.02 I-20.62 J21.67
G03 X1195.52 Y-540.78 I-37.87 J9.00
G03 X1181.76 Y-532.13 I-20.63 J-17.55
G01 X1179.04 Y-531.75
G01 X1179.04 Y-502.69
G01 X1212.54 Y-502.69
G03 X1222.54 Y-492.69 I0.00 J10.00
G01 X1222.54 Y-169.70
G03 X1212.54 Y-159.70 I-10.00 J0.00
G01 X1179.04 Y-159.70
G01 X1179.04 Y-129.70
G01 X1212.54 Y-129.70
G03 X1222.54 Y-119.70 I0.00 J10.00
G01 X1222.54 Y-10.01
G01 X1756.58 Y-10.01
G01 X1756.58 Y-119.70
G03 X1766.58 Y-129.70 I10.00 J0.00
G01 X1800.08 Y-129.70
G01 X1800.08 Y-159.70
G01 X1766.58 Y-159.70
G03 X1756.58 Y-169.70 I0.00 J-10.00
G01 X1756.58 Y-492.69
G03 X1766.58 Y-502.69 I10.00 J0.00
G01 X1800.08 Y-502.69
G01 X1800.08 Y-531.75
G03 X1785.66 Y-538.53 I1.27 J-21.40
G03 X1776.95 Y-554.34 I20.62 J-21.67
G03 X1783.60 Y-586.58 I37.87 J-9.00
G03 X1797.36 Y-595.23 I20.63 J17.55
G01 X1800.08 Y-595.61
G01 X1800.08 Y-624.66
G01 X1766.58 Y-624.66
G03 X1756.58 Y-634.66 I0.00 J-10.00
G01 X1756.58 Y-957.66
G03 X1766.58 Y-967.66 I10.00 J0.00
G01 X1798.98 Y-967.66
M50
G01 X1800.08 Y-967.66
G03 X1802.08 Y-965.66 I0.00 J2.00
M08
G40
M51
M93
G00 X2659.29 Y-124.52
M94 F1581
G41 D21
N124 M07
G01 X2661.60 Y-124.52
M50
G01 X2661.60 Y-96.12
G03 X2658.60 Y-93.12 I-3.00 J0.00
G03 X2655.60 Y-96.12 I0.00 J-3.00
G01 X2655.60 Y-152.92
G03 X2658.60 Y-155.92 I3.00 J0.00
G03 X2661.60 Y-152.92 I0.00 J3.00
G01 X2661.60 Y-124.52
G01 X2661.60 Y-122.32
M08
G40
M51
M93
G00 X2659.29 Y-275.24
M94 F1581
G41 D21
N125 M07
G01 X2661.60 Y-275.24
M50
G01 X2661.60 Y-246.84
G03 X2658.60 Y-243.84 I-3.00 J0.00
G03 X2655.60 Y-246.84 I0.00 J-3.00
G01 X2655.60 Y-303.64
G03 X2658.60 Y-306.64 I3.00 J0.00
G03 X2661.60 Y-303.64 I0.00 J3.00
G01 X2661.60 Y-275.24
G01 X2661.60 Y-273.04
M08
G40
M51
M93
G00 X2659.29 Y-425.96
M94 F1581
G41 D21
N126 M07
G01 X2661.60 Y-425.96
M50
G01 X2661.60 Y-397.56
G03 X2658.60 Y-394.56 I-3.00 J0.00
G03 X2655.60 Y-397.56 I0.00 J-3.00
G01 X2655.60 Y-454.36
G03 X2658.60 Y-457.36 I3.00 J0.00
G03 X2661.60 Y-454.36 I0.00 J3.00
G01 X2661.60 Y-425.96
G01 X2661.60 Y-423.76
M08
G40
M51
M93
G00 X2659.29 Y-576.68
M94 F1581
G41 D21
N127 M07
G01 X2661.60 Y-576.68
M50
G01 X2661.60 Y-548.28
G03 X2658.60 Y-545.28 I-3.00 J0.00
G03 X2655.60 Y-548.28 I0.00 J-3.00
G01 X2655.60 Y-605.08
G03 X2658.60 Y-608.08 I3.00 J0.00
G03 X2661.60 Y-605.08 I0.00 J3.00
G01 X2661.60 Y-576.68
G01 X2661.60 Y-574.48
M08
G40
M51
M93
G00 X2659.29 Y-727.40
M94 F1581
G41 D21
N128 M07
G01 X2661.60 Y-727.40
M50
G01 X2661.60 Y-699.00
G03 X2658.60 Y-696.00 I-3.00 J0.00
G03 X2655.60 Y-699.00 I0.00 J-3.00
G01 X2655.60 Y-755.80
G03 X2658.60 Y-758.80 I3.00 J0.00
G03 X2661.60 Y-755.80 I0.00 J3.00
G01 X2661.60 Y-727.40
G01 X2661.60 Y-725.20
M08
G40
M51
M93
G00 X2659.29 Y-878.12
M94 F1581
G41 D21
N129 M07
G01 X2661.60 Y-878.12
M50
G01 X2661.60 Y-849.72
G03 X2658.60 Y-846.72 I-3.00 J0.00
G03 X2655.60 Y-849.72 I0.00 J-3.00
G01 X2655.60 Y-906.52
G03 X2658.60 Y-909.52 I3.00 J0.00
G03 X2661.60 Y-906.52 I0.00 J3.00
G01 X2661.60 Y-878.12
G01 X2661.60 Y-875.92
M08
G40
M51
M93
G00 X2659.29 Y-1028.84
M94 F1581
G41 D21
N130 M07
G01 X2661.60 Y-1028.84
M50
G01 X2661.60 Y-1000.44
G03 X2658.60 Y-997.44 I-3.00 J0.00
G03 X2655.60 Y-1000.44 I0.00 J-3.00
G01 X2655.60 Y-1057.24
G03 X2658.60 Y-1060.24 I3.00 J0.00
G03 X2661.60 Y-1057.24 I0.00 J3.00
G01 X2661.60 Y-1028.84
G01 X2661.60 Y-1026.64
M08
G40
M51
M93
G00 X2659.29 Y-1179.56
M94 F1581
G41 D21
N131 M07
G01 X2661.60 Y-1179.56
M50
G01 X2661.60 Y-1151.16
G03 X2658.60 Y-1148.16 I-3.00 J0.00
G03 X2655.60 Y-1151.16 I0.00 J-3.00
G01 X2655.60 Y-1207.96
G03 X2658.60 Y-1210.96 I3.00 J0.00
G03 X2661.60 Y-1207.96 I0.00 J3.00
G01 X2661.60 Y-1179.56
G01 X2661.60 Y-1177.36
M08
G40
M51
M93
G00 X2659.29 Y-1104.20
M94 F1581
G41 D21
N132 M07
G01 X2661.60 Y-1104.20
M50
G01 X2661.60 Y-1075.80
G03 X2658.60 Y-1072.80 I-3.00 J0.00
G03 X2655.60 Y-1075.80 I0.00 J-3.00
G01 X2655.60 Y-1132.60
G03 X2658.60 Y-1135.60 I3.00 J0.00
G03 X2661.60 Y-1132.60 I0.00 J3.00
G01 X2661.60 Y-1104.20
G01 X2661.60 Y-1102.00
M08
G40
M51
M93
G00 X2659.29 Y-953.48
M94 F1581
G41 D21
N133 M07
G01 X2661.60 Y-953.48
M50
G01 X2661.60 Y-925.08
G03 X2658.60 Y-922.08 I-3.00 J0.00
G03 X2655.60 Y-925.08 I0.00 J-3.00
G01 X2655.60 Y-981.88
G03 X2658.60 Y-984.88 I3.00 J0.00
G03 X2661.60 Y-981.88 I0.00 J3.00
G01 X2661.60 Y-953.48
G01 X2661.60 Y-951.28
M08
G40
M51
M93
G00 X2659.29 Y-802.76
M94 F1581
G41 D21
N134 M07
G01 X2661.60 Y-802.76
M50
G01 X2661.60 Y-774.36
G03 X2658.60 Y-771.36 I-3.00 J0.00
G03 X2655.60 Y-774.36 I0.00 J-3.00
G01 X2655.60 Y-831.16
G03 X2658.60 Y-834.16 I3.00 J0.00
G03 X2661.60 Y-831.16 I0.00 J3.00
G01 X2661.60 Y-802.76
G01 X2661.60 Y-800.56
M08
G40
M51
M93
G00 X2659.29 Y-652.04
M94 F1581
G41 D21
N135 M07
G01 X2661.60 Y-652.04
M50
G01 X2661.60 Y-623.64
G03 X2658.60 Y-620.64 I-3.00 J0.00
G03 X2655.60 Y-623.64 I0.00 J-3.00
G01 X2655.60 Y-680.44
G03 X2658.60 Y-683.44 I3.00 J0.00
G03 X2661.60 Y-680.44 I0.00 J3.00
G01 X2661.60 Y-652.04
G01 X2661.60 Y-649.84
M08
G40
M51
M93
G00 X2659.29 Y-501.32
M94 F1581
G41 D21
N136 M07
G01 X2661.60 Y-501.32
M50
G01 X2661.60 Y-472.92
G03 X2658.60 Y-469.92 I-3.00 J0.00
G03 X2655.60 Y-472.92 I0.00 J-3.00
G01 X2655.60 Y-529.72
G03 X2658.60 Y-532.72 I3.00 J0.00
G03 X2661.60 Y-529.72 I0.00 J3.00
G01 X2661.60 Y-501.32
G01 X2661.60 Y-499.12
M08
G40
M51
M93
G00 X2659.29 Y-350.60
M94 F1581
G41 D21
N137 M07
G01 X2661.60 Y-350.60
M50
G01 X2661.60 Y-322.20
G03 X2658.60 Y-319.20 I-3.00 J0.00
G03 X2655.60 Y-322.20 I0.00 J-3.00
G01 X2655.60 Y-379.00
G03 X2658.60 Y-382.00 I3.00 J0.00
G03 X2661.60 Y-379.00 I0.00 J3.00
G01 X2661.60 Y-350.60
G01 X2661.60 Y-348.40
M08
G40
M51
M93
G00 X2659.29 Y-199.88
M94 F1581
G41 D21
N138 M07
G01 X2661.60 Y-199.88
M50
G01 X2661.60 Y-171.48
G03 X2658.60 Y-168.48 I-3.00 J0.00
G03 X2655.60 Y-171.48 I0.00 J-3.00
G01 X2655.60 Y-228.28
G03 X2658.60 Y-231.28 I3.00 J0.00
G03 X2661.60 Y-228.28 I0.00 J3.00
G01 X2661.60 Y-199.88
G01 X2661.60 Y-197.68
M08
G40
M51
M93
G00 X2659.29 Y-49.16
M94 F1581
G41 D21
N139 M07
G01 X2661.60 Y-49.16
M50
G01 X2661.60 Y-20.76
G03 X2658.60 Y-17.76 I-3.00 J0.00
G03 X2655.60 Y-20.76 I0.00 J-3.00
G01 X2655.60 Y-77.56
G03 X2658.60 Y-80.56 I3.00 J0.00
G03 X2661.60 Y-77.56 I0.00 J3.00
G01 X2661.60 Y-49.16
G01 X2661.60 Y-46.96
M08
G40
M51
M93
G00 X2808.54 Y-107.51
M94 F1788
G41 D21
N140 M07
G01 X2814.11 Y-108.14
M50
G03 X2812.56 Y-100.25 I-9.81 J2.18
G03 X2794.60 Y-94.71 I-11.88 J-6.64
G03 X2787.90 Y-111.80 I5.83 J-12.14
G03 X2805.13 Y-119.23 I12.46 J5.21
G03 X2812.77 Y-112.75 I-4.45 J12.99
G01 X2813.94 Y-109.60
G01 X2814.11 Y-108.14
G01 X2814.27 Y-106.69
M08
G40
M51
M93
G00 X2808.54 Y-410.24
M94 F1788
G41 D21
N141 M07
G01 X2814.11 Y-410.88
M50
G03 X2812.56 Y-402.99 I-9.81 J2.18
G03 X2794.60 Y-397.45 I-11.88 J-6.64
G03 X2787.90 Y-414.54 I5.83 J-12.14
G03 X2805.13 Y-421.96 I12.46 J5.21
G03 X2812.77 Y-415.49 I-4.45 J12.99
G01 X2813.94 Y-412.34
G01 X2814.11 Y-410.88
G01 X2814.27 Y-409.42
M08
G40
M51
M93
G00 X2808.54 Y-712.98
M94 F1788
G41 D21
N142 M07
G01 X2814.11 Y-713.62
M50
G03 X2812.56 Y-705.72 I-9.81 J2.18
G03 X2794.60 Y-700.18 I-11.88 J-6.64
G03 X2787.90 Y-717.27 I5.83 J-12.14
G03 X2805.13 Y-724.70 I12.46 J5.21
G03 X2812.77 Y-718.23 I-4.45 J12.99
G01 X2813.94 Y-715.08
G01 X2814.11 Y-713.62
G01 X2814.27 Y-712.16
M08
G40
M51
M93
G00 X2808.54 Y-1015.72
M94 F1788
G41 D21
N143 M07
G01 X2814.11 Y-1016.36
M50
G03 X2812.56 Y-1008.46 I-9.81 J2.18
G03 X2794.60 Y-1002.92 I-11.88 J-6.64
G03 X2787.90 Y-1020.01 I5.83 J-12.14
G03 X2805.13 Y-1027.44 I12.46 J5.21
G03 X2812.77 Y-1020.96 I-4.45 J12.99
G01 X2813.94 Y-1017.81
G01 X2814.11 Y-1016.36
G01 X2814.27 Y-1014.90
M08
G40
M51
M93
G00 X2609.91 Y-41.33
M94 F1375
G41 D21
N144 M07
G01 X2613.87 Y-45.29
M50
G03 X2615.85 Y-40.51 I-4.77 J4.77
G03 X2609.10 Y-33.76 I-6.75 J0.00
G03 X2602.35 Y-40.51 I0.00 J-6.75
G03 X2609.10 Y-47.26 I6.75 J0.00
G03 X2613.87 Y-45.29 I0.00 J6.75
G03 X2615.15 Y-43.51 I-4.77 J4.77
M08
G40
M51
M93
G00 X2609.91 Y-93.33
M94 F1375
G41 D21
N145 M07
G01 X2613.87 Y-97.29
M50
G03 X2615.85 Y-92.51 I-4.77 J4.77
G03 X2609.10 Y-85.76 I-6.75 J0.00
G03 X2602.35 Y-92.51 I0.00 J-6.75
G03 X2609.10 Y-99.26 I6.75 J0.00
G03 X2613.87 Y-97.29 I0.00 J6.75
G03 X2615.15 Y-95.51 I-4.77 J4.77
M08
G40
M51
M93
G00 X2448.21 Y-1117.13
M94 F1719
G41 D21
N146 M07
G01 X2452.17 Y-1113.17
M50
G03 X2443.05 Y-1109.39 I-9.12 J-9.12
G03 X2430.15 Y-1122.29 I0.00 J-12.90
G03 X2443.05 Y-1135.19 I12.90 J0.00
G03 X2455.95 Y-1122.29 I0.00 J12.90
G03 X2452.17 Y-1113.17 I-12.90 J0.00
G03 X2450.49 Y-1111.75 I-9.12 J-9.12
M08
G40
M51
M93
G00 X2448.21 Y-814.39
M94 F1719
G41 D21
N147 M07
G01 X2452.17 Y-810.43
M50
G03 X2443.05 Y-806.65 I-9.12 J-9.12
G03 X2430.15 Y-819.55 I-0.00 J-12.90
G03 X2443.05 Y-832.45 I12.90 J0.00
G03 X2455.95 Y-819.55 I0.00 J12.90
G03 X2452.17 Y-810.43 I-12.90 J-0.00
G03 X2450.49 Y-809.02 I-9.12 J-9.12
M08
G40
M51
M93
G00 X2448.21 Y-521.98
M94 F1719
G41 D21
N148 M07
G01 X2452.17 Y-525.94
M50
G03 X2455.95 Y-516.82 I-9.12 J9.12
G03 X2443.05 Y-503.92 I-12.90 J-0.00
G03 X2430.15 Y-516.82 I-0.00 J-12.90
G03 X2443.05 Y-529.72 I12.90 J0.00
G03 X2452.17 Y-525.94 I0.00 J12.90
G03 X2453.58 Y-524.26 I-9.12 J9.12
M08
G40
M51
M93
G00 X2448.21 Y-219.24
M94 F1719
G41 D21
N149 M07
G01 X2452.17 Y-223.20
M50
G03 X2455.95 Y-214.08 I-9.12 J9.12
G03 X2443.05 Y-201.18 I-12.90 J-0.00
G03 X2430.15 Y-214.08 I-0.00 J-12.90
G03 X2443.05 Y-226.98 I12.90 J0.00
G03 X2452.17 Y-223.20 I0.00 J12.90
G03 X2453.58 Y-221.52 I-9.12 J9.12
M08
G40
M51
M93
G00 X2459.41 Y-41.33
M94 F1375
G41 D21
N150 M07
G01 X2463.37 Y-45.29
M50
G03 X2465.35 Y-40.51 I-4.77 J4.77
G03 X2458.60 Y-33.76 I-6.75 J0.00
G03 X2451.85 Y-40.51 I0.00 J-6.75
G03 X2458.60 Y-47.26 I6.75 J0.00
G03 X2463.37 Y-45.29 I0.00 J6.75
G03 X2464.65 Y-43.51 I-4.77 J4.77
M08
G40
M51
M93
G00 X2459.41 Y-93.33
M94 F1375
G41 D21
N151 M07
G01 X2463.37 Y-97.29
M50
G03 X2465.35 Y-92.51 I-4.77 J4.77
G03 X2458.60 Y-85.76 I-6.75 J0.00
G03 X2451.85 Y-92.51 I0.00 J-6.75
G03 X2458.60 Y-99.26 I6.75 J0.00
G03 X2463.37 Y-97.29 I0.00 J6.75
G03 X2464.65 Y-95.51 I-4.77 J4.77
M08
G40
M51
M93
G00 X2524.64 Y-1014.78
M94 F1788
G41 D21
N152 M07
G01 X2530.24 Y-1014.69
M50
G03 X2527.58 Y-1006.88 I-9.82 J1.01
G03 X2508.99 Y-1003.86 I-10.90 J-8.39
G03 X2504.64 Y-1021.33 I7.36 J-11.11
G03 X2522.60 Y-1026.87 I11.88 J6.64
G03 X2529.46 Y-1019.62 I-5.77 J12.32
G01 X2530.27 Y-1016.36
G01 X2530.24 Y-1014.69
G01 X2530.21 Y-1013.01
M08
G40
M51
M93
G00 X2524.64 Y-712.04
M94 F1788
G41 D21
N153 M07
G01 X2530.24 Y-711.95
M50
G03 X2527.58 Y-704.14 I-9.82 J1.01
G03 X2508.99 Y-701.12 I-10.90 J-8.39
G03 X2504.64 Y-718.60 I7.36 J-11.11
G03 X2522.60 Y-724.14 I11.88 J6.64
G03 X2529.46 Y-716.88 I-5.77 J12.32
G01 X2530.27 Y-713.63
G01 X2530.24 Y-711.95
G01 X2530.21 Y-710.28
M08
G40
M51
M93
G00 X2524.64 Y-409.31
M94 F1788
G41 D21
N154 M07
G01 X2530.24 Y-409.22
M50
G03 X2527.58 Y-401.40 I-9.82 J1.01
G03 X2508.99 Y-398.39 I-10.90 J-8.39
G03 X2504.64 Y-415.86 I7.36 J-11.11
G03 X2522.60 Y-421.40 I11.88 J6.64
G03 X2529.46 Y-414.15 I-5.77 J12.32
G01 X2530.27 Y-410.89
G01 X2530.24 Y-409.22
G01 X2530.21 Y-407.54
M08
G40
M51
M93
G00 X2524.64 Y-106.57
M94 F1788
G41 D21
N155 M07
G01 X2530.24 Y-106.48
M50
G03 X2527.58 Y-98.67 I-9.82 J1.01
G03 X2508.99 Y-95.65 I-10.90 J-8.39
G03 X2504.64 Y-113.12 I7.36 J-11.11
G03 X2522.60 Y-118.66 I11.88 J6.64
G03 X2529.46 Y-111.41 I-5.77 J12.32
G01 X2530.27 Y-108.15
G01 X2530.24 Y-106.48
G01 X2530.21 Y-104.80
M08
G40
M51
M93
G00 X2708.91 Y-93.33
M94 F1375
G41 D21
N156 M07
G01 X2712.87 Y-97.29
M50
G03 X2714.85 Y-92.51 I-4.77 J4.77
G03 X2708.10 Y-85.76 I-6.75 J0.00
G03 X2701.35 Y-92.51 I0.00 J-6.75
G03 X2708.10 Y-99.26 I6.75 J0.00
G03 X2712.87 Y-97.29 I0.00 J6.75
G03 X2714.15 Y-95.51 I-4.77 J4.77
M08
G40
M51
M93
G00 X2708.91 Y-41.33
M94 F1375
G41 D21
N157 M07
G01 X2712.87 Y-45.29
M50
G03 X2714.85 Y-40.51 I-4.77 J4.77
G03 X2708.10 Y-33.76 I-6.75 J0.00
G03 X2701.35 Y-40.51 I0.00 J-6.75
G03 X2708.10 Y-47.26 I6.75 J0.00
G03 X2712.87 Y-45.29 I0.00 J6.75
G03 X2714.15 Y-43.51 I-4.77 J4.77
M08
G40
M51
M93
G00 X2859.42 Y-93.33
M94 F1375
G41 D21
N158 M07
G01 X2863.38 Y-97.29
M50
G03 X2865.35 Y-92.51 I-4.77 J4.77
G03 X2858.60 Y-85.76 I-6.75 J0.00
G03 X2851.85 Y-92.51 I0.00 J-6.75
G03 X2858.60 Y-99.26 I6.75 J0.00
G03 X2863.38 Y-97.29 I-0.00 J6.75
G03 X2864.65 Y-95.51 I-4.77 J4.77
M08
G40
M51
M93
G00 X2859.42 Y-39.70
M94 F1375
G41 D21
N159 M07
G01 X2863.38 Y-35.74
M50
G03 X2858.60 Y-33.76 I-4.77 J-4.77
G03 X2851.85 Y-40.51 I0.00 J-6.75
G03 X2858.60 Y-47.26 I6.75 J0.00
G03 X2865.35 Y-40.51 I0.00 J6.75
G03 X2863.38 Y-35.74 I-6.75 J-0.00
G03 X2861.60 Y-34.46 I-4.77 J-4.77
M08
G40
M51
M93
G00 X2879.32 Y-219.24
M94 F1719
G41 D21
N160 M07
G01 X2883.28 Y-223.20
M50
G03 X2887.06 Y-214.08 I-9.12 J9.12
G03 X2874.16 Y-201.18 I-12.90 J-0.00
G03 X2861.26 Y-214.08 I-0.00 J-12.90
G03 X2874.16 Y-226.98 I12.90 J0.00
G03 X2883.28 Y-223.20 I0.00 J12.90
G03 X2884.69 Y-221.52 I-9.12 J9.12
M08
G40
M51
M93
G00 X2879.32 Y-511.65
M94 F1719
G41 D21
N161 M07
G01 X2883.28 Y-507.69
M50
G03 X2874.16 Y-503.92 I-9.12 J-9.12
G03 X2861.26 Y-516.82 I-0.00 J-12.90
G03 X2874.16 Y-529.72 I12.90 J0.00
G03 X2887.06 Y-516.82 I0.00 J12.90
G03 X2883.28 Y-507.69 I-12.90 J0.00
G03 X2881.60 Y-506.28 I-9.12 J-9.12
M08
G40
M51
M93
G00 X2879.32 Y-824.72
M94 F1719
G41 D21
N162 M07
G01 X2883.28 Y-828.67
M50
G03 X2887.06 Y-819.55 I-9.12 J9.12
G03 X2874.16 Y-806.65 I-12.90 J-0.00
G03 X2861.26 Y-819.55 I-0.00 J-12.90
G03 X2874.16 Y-832.45 I12.90 J0.00
G03 X2883.28 Y-828.67 I0.00 J12.90
G03 X2884.69 Y-826.99 I-9.12 J9.12
M08
G40
M51
M93
G00 X2879.32 Y-1127.45
M94 F1719
G41 D21
N163 M07
G01 X2883.28 Y-1131.41
M50
G03 X2887.06 Y-1122.29 I-9.12 J9.12
G03 X2874.16 Y-1109.39 I-12.90 J0.00
G03 X2861.26 Y-1122.29 I0.00 J-12.90
G03 X2874.16 Y-1135.19 I12.90 J0.00
G03 X2883.28 Y-1131.41 I0.00 J12.90
G03 X2884.69 Y-1129.73 I-9.12 J9.12
M08
G40
M51
M93
G00 X2969.12 Y-962.06
M94 F2750
G41 D21
N164 M07
G01 X2969.12 Y-967.66
G01 X2969.12 Y-997.66
G01 X2935.62 Y-997.66
G03 X2925.62 Y-1007.66 I0.00 J-10.00
G01 X2925.62 Y-1218.96
G01 X2391.58 Y-1218.96
G01 X2391.58 Y-1007.66
G03 X2381.58 Y-997.66 I-10.00 J0.00
G01 X2348.08 Y-997.66
G01 X2348.08 Y-967.66
G01 X2381.58 Y-967.66
G03 X2391.58 Y-957.66 I0.00 J10.00
G01 X2391.58 Y-634.66
G03 X2381.58 Y-624.66 I-10.00 J0.00
G01 X2348.08 Y-624.66
G01 X2348.08 Y-595.61
G03 X2362.50 Y-588.82 I-1.27 J21.40
G03 X2371.21 Y-573.02 I-20.62 J21.67
G03 X2364.56 Y-540.78 I-37.87 J9.00
G03 X2350.80 Y-532.13 I-20.63 J-17.55
G01 X2348.08 Y-531.75
G01 X2348.08 Y-502.69
G01 X2381.58 Y-502.69
G03 X2391.58 Y-492.69 I0.00 J10.00
G01 X2391.58 Y-169.70
G03 X2381.58 Y-159.70 I-10.00 J0.00
G01 X2348.08 Y-159.70
G01 X2348.08 Y-129.70
G01 X2381.58 Y-129.70
G03 X2391.58 Y-119.70 I0.00 J10.00
G01 X2391.58 Y-10.01
G01 X2925.62 Y-10.01
G01 X2925.62 Y-119.70
G03 X2935.62 Y-129.70 I10.00 J0.00
G01 X2969.12 Y-129.70
G01 X2969.12 Y-159.70
G01 X2935.62 Y-159.70
G03 X2925.62 Y-169.70 I0.00 J-10.00
G01 X2925.62 Y-492.69
G03 X2935.62 Y-502.69 I10.00 J0.00
G01 X2969.12 Y-502.69
G01 X2969.12 Y-531.75
G03 X2954.70 Y-538.53 I1.27 J-21.40
G03 X2945.99 Y-554.34 I20.62 J-21.67
G03 X2952.64 Y-586.58 I37.87 J-9.00
G03 X2966.40 Y-595.23 I20.63 J17.55
G01 X2969.12 Y-595.61
G01 X2969.12 Y-624.66
G01 X2935.62 Y-624.66
G03 X2925.62 Y-634.66 I0.00 J-10.00
G01 X2925.62 Y-957.66
G03 X2935.62 Y-967.66 I10.00 J0.00
G01 X2968.02 Y-967.66
M50
G01 X2969.12 Y-967.66
G03 X2971.12 Y-965.66 I0.00 J2.00
M08
G40
M51
M93
G00 X2074.77 Y-1131.64
M94 F1581
G41 D21
N165 M07
G01 X2077.08 Y-1131.64
M50
G01 X2077.08 Y-1103.24
G03 X2074.08 Y-1100.24 I-3.00 J0.00
G03 X2071.08 Y-1103.24 I-0.00 J-3.00
G01 X2071.08 Y-1160.04
G03 X2074.08 Y-1163.04 I3.00 J0.00
G03 X2077.08 Y-1160.04 I0.00 J3.00
G01 X2077.08 Y-1131.64
G01 X2077.08 Y-1129.44
M08
G40
M51
M93
G00 X2074.77 Y-980.92
M94 F1581
G41 D21
N166 M07
G01 X2077.08 Y-980.92
M50
G01 X2077.08 Y-952.52
G03 X2074.08 Y-949.52 I-3.00 J0.00
G03 X2071.08 Y-952.52 I-0.00 J-3.00
G01 X2071.08 Y-1009.32
G03 X2074.08 Y-1012.32 I3.00 J0.00
G03 X2077.08 Y-1009.32 I0.00 J3.00
G01 X2077.08 Y-980.92
G01 X2077.08 Y-978.72
M08
G40
M51
M93
G00 X2074.77 Y-830.20
M94 F1581
G41 D21
N167 M07
G01 X2077.08 Y-830.20
M50
G01 X2077.08 Y-801.80
G03 X2074.08 Y-798.80 I-3.00 J0.00
G03 X2071.08 Y-801.80 I-0.00 J-3.00
G01 X2071.08 Y-858.60
G03 X2074.08 Y-861.60 I3.00 J0.00
G03 X2077.08 Y-858.60 I0.00 J3.00
G01 X2077.08 Y-830.20
G01 X2077.08 Y-828.00
M08
G40
M51
M93
G00 X2074.77 Y-679.48
M94 F1581
G41 D21
N168 M07
G01 X2077.08 Y-679.48
M50
G01 X2077.08 Y-651.08
G03 X2074.08 Y-648.08 I-3.00 J0.00
G03 X2071.08 Y-651.08 I-0.00 J-3.00
G01 X2071.08 Y-707.88
G03 X2074.08 Y-710.88 I3.00 J0.00
G03 X2077.08 Y-707.88 I0.00 J3.00
G01 X2077.08 Y-679.48
G01 X2077.08 Y-677.28
M08
G40
M51
M93
G00 X2074.77 Y-528.76
M94 F1581
G41 D21
N169 M07
G01 X2077.08 Y-528.76
M50
G01 X2077.08 Y-500.36
G03 X2074.08 Y-497.36 I-3.00 J0.00
G03 X2071.08 Y-500.36 I-0.00 J-3.00
G01 X2071.08 Y-557.16
G03 X2074.08 Y-560.16 I3.00 J0.00
G03 X2077.08 Y-557.16 I0.00 J3.00
G01 X2077.08 Y-528.76
G01 X2077.08 Y-526.56
M08
G40
M51
M93
G00 X2074.77 Y-378.04
M94 F1581
G41 D21
N170 M07
G01 X2077.08 Y-378.04
M50
G01 X2077.08 Y-349.64
G03 X2074.08 Y-346.64 I-3.00 J0.00
G03 X2071.08 Y-349.64 I0.00 J-3.00
G01 X2071.08 Y-406.44
G03 X2074.08 Y-409.44 I3.00 J0.00
G03 X2077.08 Y-406.44 I0.00 J3.00
G01 X2077.08 Y-378.04
G01 X2077.08 Y-375.84
M08
G40
M51
M93
G00 X2074.77 Y-227.32
M94 F1581
G41 D21
N171 M07
G01 X2077.08 Y-227.32
M50
G01 X2077.08 Y-198.92
G03 X2074.08 Y-195.92 I-3.00 J0.00
G03 X2071.08 Y-198.92 I0.00 J-3.00
G01 X2071.08 Y-255.72
G03 X2074.08 Y-258.72 I3.00 J0.00
G03 X2077.08 Y-255.72 I0.00 J3.00
G01 X2077.08 Y-227.32
G01 X2077.08 Y-225.12
M08
G40
M51
M93
G00 X2074.77 Y-76.60
M94 F1581
G41 D21
N172 M07
G01 X2077.08 Y-76.60
M50
G01 X2077.08 Y-48.20
G03 X2074.08 Y-45.20 I-3.00 J0.00
G03 X2071.08 Y-48.20 I0.00 J-3.00
G01 X2071.08 Y-105.00
G03 X2074.08 Y-108.00 I3.00 J0.00
G03 X2077.08 Y-105.00 I0.00 J3.00
G01 X2077.08 Y-76.60
G01 X2077.08 Y-74.40
M08
G40
M51
M93
G00 X2074.77 Y-151.96
M94 F1581
G41 D21
N173 M07
G01 X2077.08 Y-151.96
M50
G01 X2077.08 Y-123.56
G03 X2074.08 Y-120.56 I-3.00 J0.00
G03 X2071.08 Y-123.56 I0.00 J-3.00
G01 X2071.08 Y-180.36
G03 X2074.08 Y-183.36 I3.00 J0.00
G03 X2077.08 Y-180.36 I0.00 J3.00
G01 X2077.08 Y-151.96
G01 X2077.08 Y-149.76
M08
G40
M51
M93
G00 X2074.77 Y-302.68
M94 F1581
G41 D21
N174 M07
G01 X2077.08 Y-302.68
M50
G01 X2077.08 Y-274.28
G03 X2074.08 Y-271.28 I-3.00 J0.00
G03 X2071.08 Y-274.28 I0.00 J-3.00
G01 X2071.08 Y-331.08
G03 X2074.08 Y-334.08 I3.00 J0.00
G03 X2077.08 Y-331.08 I0.00 J3.00
G01 X2077.08 Y-302.68
G01 X2077.08 Y-300.48
M08
G40
M51
M93
G00 X2074.77 Y-453.40
M94 F1581
G41 D21
N175 M07
G01 X2077.08 Y-453.40
M50
G01 X2077.08 Y-425.00
G03 X2074.08 Y-422.00 I-3.00 J0.00
G03 X2071.08 Y-425.00 I0.00 J-3.00
G01 X2071.08 Y-481.80
G03 X2074.08 Y-484.80 I3.00 J0.00
G03 X2077.08 Y-481.80 I0.00 J3.00
G01 X2077.08 Y-453.40
G01 X2077.08 Y-451.20
M08
G40
M51
M93
G00 X2074.77 Y-604.12
M94 F1581
G41 D21
N176 M07
G01 X2077.08 Y-604.12
M50
G01 X2077.08 Y-575.72
G03 X2074.08 Y-572.72 I-3.00 J0.00
G03 X2071.08 Y-575.72 I-0.00 J-3.00
G01 X2071.08 Y-632.52
G03 X2074.08 Y-635.52 I3.00 J0.00
G03 X2077.08 Y-632.52 I0.00 J3.00
G01 X2077.08 Y-604.12
G01 X2077.08 Y-601.92
M08
G40
M51
M93
G00 X2074.77 Y-754.84
M94 F1581
G41 D21
N177 M07
G01 X2077.08 Y-754.84
M50
G01 X2077.08 Y-726.44
G03 X2074.08 Y-723.44 I-3.00 J0.00
G03 X2071.08 Y-726.44 I-0.00 J-3.00
G01 X2071.08 Y-783.24
G03 X2074.08 Y-786.24 I3.00 J0.00
G03 X2077.08 Y-783.24 I0.00 J3.00
G01 X2077.08 Y-754.84
G01 X2077.08 Y-752.64
M08
G40
M51
M93
G00 X2074.77 Y-905.56
M94 F1581
G41 D21
N178 M07
G01 X2077.08 Y-905.56
M50
G01 X2077.08 Y-877.16
G03 X2074.08 Y-874.16 I-3.00 J0.00
G03 X2071.08 Y-877.16 I-0.00 J-3.00
G01 X2071.08 Y-933.96
G03 X2074.08 Y-936.96 I3.00 J0.00
G03 X2077.08 Y-933.96 I0.00 J3.00
G01 X2077.08 Y-905.56
G01 X2077.08 Y-903.36
M08
G40
M51
M93
G00 X2074.77 Y-1056.28
M94 F1581
G41 D21
N179 M07
G01 X2077.08 Y-1056.28
M50
G01 X2077.08 Y-1027.88
G03 X2074.08 Y-1024.88 I-3.00 J0.00
G03 X2071.08 Y-1027.88 I-0.00 J-3.00
G01 X2071.08 Y-1084.68
G03 X2074.08 Y-1087.68 I3.00 J0.00
G03 X2077.08 Y-1084.68 I0.00 J3.00
G01 X2077.08 Y-1056.28
G01 X2077.08 Y-1054.08
M08
G40
M51
M93
G00 X2074.77 Y-1207.00
M94 F1581
G41 D21
N180 M07
G01 X2077.08 Y-1207.00
M50
G01 X2077.08 Y-1178.60
G03 X2074.08 Y-1175.60 I-3.00 J0.00
G03 X2071.08 Y-1178.60 I-0.00 J-3.00
G01 X2071.08 Y-1235.40
G03 X2074.08 Y-1238.40 I3.00 J0.00
G03 X2077.08 Y-1235.40 I0.00 J3.00
G01 X2077.08 Y-1207.00
G01 X2077.08 Y-1204.80
M08
G40
M51
M93
G00 X1940.12 Y-1149.36
M94 F1788
G41 D21
N181 M07
G01 X1945.72 Y-1149.27
M50
G03 X1943.06 Y-1141.46 I-9.82 J1.01
G03 X1924.47 Y-1138.44 I-10.90 J-8.39
G03 X1920.12 Y-1155.91 I7.36 J-11.11
G03 X1938.08 Y-1161.45 I11.88 J6.64
G03 X1944.94 Y-1154.20 I-5.77 J12.32
G01 X1945.75 Y-1150.94
G01 X1945.72 Y-1149.27
G01 X1945.69 Y-1147.59
M08
G40
M51
M93
G00 X1940.12 Y-846.62
M94 F1788
G41 D21
N182 M07
G01 X1945.72 Y-846.53
M50
G03 X1943.06 Y-838.72 I-9.82 J1.01
G03 X1924.47 Y-835.70 I-10.90 J-8.39
G03 X1920.12 Y-853.18 I7.36 J-11.11
G03 X1938.08 Y-858.72 I11.88 J6.64
G03 X1944.94 Y-851.46 I-5.77 J12.32
G01 X1945.75 Y-848.21
G01 X1945.72 Y-846.53
G01 X1945.69 Y-844.86
M08
G40
M51
M93
G00 X1940.12 Y-543.89
M94 F1788
G41 D21
N183 M07
G01 X1945.72 Y-543.80
M50
G03 X1943.06 Y-535.98 I-9.82 J1.01
G03 X1924.47 Y-532.97 I-10.90 J-8.39
G03 X1920.12 Y-550.44 I7.36 J-11.11
G03 X1938.08 Y-555.98 I11.88 J6.64
G03 X1944.94 Y-548.73 I-5.77 J12.32
G01 X1945.75 Y-545.47
G01 X1945.72 Y-543.80
G01 X1945.69 Y-542.12
M08
G40
M51
M93
G00 X1940.12 Y-241.15
M94 F1788
G41 D21
N184 M07
G01 X1945.72 Y-241.06
M50
G03 X1943.06 Y-233.25 I-9.82 J1.01
G03 X1924.47 Y-230.23 I-10.90 J-8.39
G03 X1920.12 Y-247.70 I7.36 J-11.11
G03 X1938.08 Y-253.24 I11.88 J6.64
G03 X1944.94 Y-245.99 I-5.77 J12.32
G01 X1945.75 Y-242.73
G01 X1945.72 Y-241.06
G01 X1945.69 Y-239.38
M08
G40
M51
M93
G00 X2124.39 Y-1216.46
M94 F1375
G41 D21
N185 M07
G01 X2128.35 Y-1220.42
M50
G03 X2130.33 Y-1215.65 I-4.77 J4.77
G03 X2123.58 Y-1208.90 I-6.75 J0.00
G03 X2116.83 Y-1215.65 I0.00 J-6.75
G03 X2123.58 Y-1222.40 I6.75 J0.00
G03 X2128.35 Y-1220.42 I-0.00 J6.75
G03 X2129.63 Y-1218.64 I-4.77 J4.77
M08
G40
M51
M93
G00 X2124.39 Y-1164.46
M94 F1375
G41 D21
N186 M07
G01 X2128.35 Y-1168.42
M50
G03 X2130.33 Y-1163.65 I-4.77 J4.77
G03 X2123.58 Y-1156.90 I-6.75 J0.00
G03 X2116.83 Y-1163.65 I0.00 J-6.75
G03 X2123.58 Y-1170.40 I6.75 J0.00
G03 X2128.35 Y-1168.42 I-0.00 J6.75
G03 X2129.63 Y-1166.64 I-4.77 J4.77
M08
G40
M51
M93
G00 X2294.80 Y-128.71
M94 F1719
G41 D21
N187 M07
G01 X2298.76 Y-124.75
M50
G03 X2289.64 Y-120.97 I-9.12 J-9.12
G03 X2276.74 Y-133.87 I0.00 J-12.90
G03 X2289.64 Y-146.77 I12.90 J0.00
G03 X2302.54 Y-133.87 I0.00 J12.90
G03 X2298.76 Y-124.75 I-12.90 J0.00
G03 X2297.08 Y-123.34 I-9.12 J-9.12
M08
G40
M51
M93
G00 X2294.80 Y-431.45
M94 F1719
G41 D21
N188 M07
G01 X2298.76 Y-427.49
M50
G03 X2289.64 Y-423.71 I-9.12 J-9.12
G03 X2276.74 Y-436.61 I0.00 J-12.90
G03 X2289.64 Y-449.51 I12.90 J0.00
G03 X2302.54 Y-436.61 I0.00 J12.90
G03 X2298.76 Y-427.49 I-12.90 J0.00
G03 X2297.08 Y-426.07 I-9.12 J-9.12
M08
G40
M51
M93
G00 X2294.80 Y-744.51
M94 F1719
G41 D21
N189 M07
G01 X2298.76 Y-748.47
M50
G03 X2302.54 Y-739.35 I-9.12 J9.12
G03 X2289.64 Y-726.45 I-12.90 J-0.00
G03 X2276.74 Y-739.35 I0.00 J-12.90
G03 X2289.64 Y-752.25 I12.90 J0.00
G03 X2298.76 Y-748.47 I0.00 J12.90
G03 X2300.17 Y-746.79 I-9.12 J9.12
M08
G40
M51
M93
G00 X2294.80 Y-1047.25
M94 F1719
G41 D21
N190 M07
G01 X2298.76 Y-1051.21
M50
G03 X2302.54 Y-1042.08 I-9.12 J9.12
G03 X2289.64 Y-1029.18 I-12.90 J0.00
G03 X2276.74 Y-1042.08 I0.00 J-12.90
G03 X2289.64 Y-1054.98 I12.90 J0.00
G03 X2298.76 Y-1051.21 I0.00 J12.90
G03 X2300.17 Y-1049.53 I-9.12 J9.12
M08
G40
M51
M93
G00 X2274.90 Y-1216.46
M94 F1375
G41 D21
N191 M07
G01 X2278.86 Y-1220.42
M50
G03 X2280.83 Y-1215.65 I-4.77 J4.77
G03 X2274.08 Y-1208.90 I-6.75 J0.00
G03 X2267.33 Y-1215.65 I0.00 J-6.75
G03 X2274.08 Y-1222.40 I6.75 J0.00
G03 X2278.86 Y-1220.42 I-0.00 J6.75
G03 X2280.13 Y-1218.64 I-4.77 J4.77
M08
G40
M51
M93
G00 X2274.90 Y-1164.46
M94 F1375
G41 D21
N192 M07
G01 X2278.86 Y-1168.42
M50
G03 X2280.83 Y-1163.65 I-4.77 J4.77
G03 X2274.08 Y-1156.90 I-6.75 J0.00
G03 X2267.33 Y-1163.65 I0.00 J-6.75
G03 X2274.08 Y-1170.40 I6.75 J0.00
G03 X2278.86 Y-1168.42 I-0.00 J6.75
G03 X2280.13 Y-1166.64 I-4.77 J4.77
M08
G40
M51
M93
G00 X2224.02 Y-242.09
M94 F1788
G41 D21
N193 M07
G01 X2229.59 Y-242.72
M50
G03 X2228.04 Y-234.83 I-9.81 J2.18
G03 X2210.08 Y-229.29 I-11.88 J-6.64
G03 X2203.38 Y-246.38 I5.83 J-12.14
G03 X2220.61 Y-253.81 I12.46 J5.21
G03 X2228.25 Y-247.33 I-4.45 J12.99
G01 X2229.42 Y-244.18
G01 X2229.59 Y-242.72
G01 X2229.75 Y-241.27
M08
G40
M51
M93
G00 X2224.02 Y-544.82
M94 F1788
G41 D21
N194 M07
G01 X2229.59 Y-545.46
M50
G03 X2228.04 Y-537.57 I-9.81 J2.18
G03 X2210.08 Y-532.03 I-11.88 J-6.64
G03 X2203.38 Y-549.12 I5.83 J-12.14
G03 X2220.61 Y-556.54 I12.46 J5.21
G03 X2228.25 Y-550.07 I-4.45 J12.99
G01 X2229.42 Y-546.92
G01 X2229.59 Y-545.46
G01 X2229.75 Y-544.00
M08
G40
M51
M93
G00 X2224.02 Y-847.56
M94 F1788
G41 D21
N195 M07
G01 X2229.59 Y-848.20
M50
G03 X2228.04 Y-840.30 I-9.81 J2.18
G03 X2210.08 Y-834.76 I-11.88 J-6.64
G03 X2203.38 Y-851.85 I5.83 J-12.14
G03 X2220.61 Y-859.28 I12.46 J5.21
G03 X2228.25 Y-852.81 I-4.45 J12.99
G01 X2229.42 Y-849.66
G01 X2229.59 Y-848.20
G01 X2229.75 Y-846.74
M08
G40
M51
M93
G00 X2224.02 Y-1150.30
M94 F1788
G41 D21
N196 M07
G01 X2229.59 Y-1150.94
M50
G03 X2228.04 Y-1143.04 I-9.81 J2.18
G03 X2210.08 Y-1137.50 I-11.88 J-6.64
G03 X2203.38 Y-1154.59 I5.83 J-12.14
G03 X2220.61 Y-1162.02 I12.46 J5.21
G03 X2228.25 Y-1155.54 I-4.45 J12.99
G01 X2229.42 Y-1152.39
G01 X2229.59 Y-1150.94
G01 X2229.75 Y-1149.48
M08
G40
M51
M93
G00 X2025.39 Y-1164.46
M94 F1375
G41 D21
N197 M07
G01 X2029.35 Y-1168.42
M50
G03 X2031.33 Y-1163.65 I-4.77 J4.77
G03 X2024.58 Y-1156.90 I-6.75 J0.00
G03 X2017.83 Y-1163.65 I0.00 J-6.75
G03 X2024.58 Y-1170.40 I6.75 J0.00
G03 X2029.35 Y-1168.42 I-0.00 J6.75
G03 X2030.63 Y-1166.64 I-4.77 J4.77
M08
G40
M51
M93
G00 X2025.39 Y-1216.46
M94 F1375
G41 D21
N198 M07
G01 X2029.35 Y-1220.42
M50
G03 X2031.33 Y-1215.65 I-4.77 J4.77
G03 X2024.58 Y-1208.90 I-6.75 J0.00
G03 X2017.83 Y-1215.65 I0.00 J-6.75
G03 X2024.58 Y-1222.40 I6.75 J0.00
G03 X2029.35 Y-1220.42 I-0.00 J6.75
G03 X2030.63 Y-1218.64 I-4.77 J4.77
M08
G40
M51
M93
G00 X1874.89 Y-1164.46
M94 F1375
G41 D21
N199 M07
G01 X1878.85 Y-1168.42
M50
G03 X1880.83 Y-1163.65 I-4.77 J4.77
G03 X1874.08 Y-1156.90 I-6.75 J0.00
G03 X1867.33 Y-1163.65 I0.00 J-6.75
G03 X1874.08 Y-1170.40 I6.75 J0.00
G03 X1878.85 Y-1168.42 I-0.00 J6.75
G03 X1880.13 Y-1166.64 I-4.77 J4.77
M08
G40
M51
M93
G00 X1874.89 Y-1216.46
M94 F1375
G41 D21
N200 M07
G01 X1878.85 Y-1220.42
M50
G03 X1880.83 Y-1215.65 I-4.77 J4.77
G03 X1874.08 Y-1208.90 I-6.75 J0.00
G03 X1867.33 Y-1215.65 I0.00 J-6.75
G03 X1874.08 Y-1222.40 I6.75 J0.00
G03 X1878.85 Y-1220.42 I-0.00 J6.75
G03 X1880.13 Y-1218.64 I-4.77 J4.77
M08
G40
M51
M93
G00 X1863.69 Y-1036.92
M94 F1719
G41 D21
N201 M07
G01 X1867.65 Y-1032.96
M50
G03 X1858.53 Y-1029.18 I-9.12 J-9.12
G03 X1845.63 Y-1042.08 I0.00 J-12.90
G03 X1858.53 Y-1054.98 I12.90 J0.00
G03 X1871.43 Y-1042.08 I0.00 J12.90
G03 X1867.65 Y-1032.96 I-12.90 J0.00
G03 X1865.97 Y-1031.55 I-9.12 J-9.12
M08
G40
M51
M93
G00 X1863.69 Y-734.19
M94 F1719
G41 D21
N202 M07
G01 X1867.65 Y-730.23
M50
G03 X1858.53 Y-726.45 I-9.12 J-9.12
G03 X1845.63 Y-739.35 I0.00 J-12.90
G03 X1858.53 Y-752.25 I12.90 J0.00
G03 X1871.43 Y-739.35 I0.00 J12.90
G03 X1867.65 Y-730.23 I-12.90 J-0.00
G03 X1865.97 Y-728.81 I-9.12 J-9.12
M08
G40
M51
M93
G00 X1863.69 Y-441.77
M94 F1719
G41 D21
N203 M07
G01 X1867.65 Y-445.73
M50
G03 X1871.43 Y-436.61 I-9.12 J9.12
G03 X1858.53 Y-423.71 I-12.90 J-0.00
G03 X1845.63 Y-436.61 I0.00 J-12.90
G03 X1858.53 Y-449.51 I12.90 J0.00
G03 X1867.65 Y-445.73 I0.00 J12.90
G03 X1869.06 Y-444.05 I-9.12 J9.12
M08
G40
M51
M93
G00 X1863.69 Y-139.04
M94 F1719
G41 D21
N204 M07
G01 X1867.65 Y-143.00
M50
G03 X1871.43 Y-133.87 I-9.12 J9.12
G03 X1858.53 Y-120.97 I-12.90 J-0.00
G03 X1845.63 Y-133.87 I0.00 J-12.90
G03 X1858.53 Y-146.77 I12.90 J0.00
G03 X1867.65 Y-143.00 I0.00 J12.90
G03 X1869.06 Y-141.31 I-9.12 J9.12
M08
G40
M51
M93
G00 X2384.60 Y-1090.86
M94 F2750
G41 D21
N205 M07
G01 X2384.60 Y-1096.46
G01 X2384.60 Y-1126.46
G01 X2351.10 Y-1126.46
G03 X2341.10 Y-1136.46 I0.00 J-10.00
G01 X2341.10 Y-1246.15
G01 X1807.06 Y-1246.15
G01 X1807.06 Y-1136.46
G03 X1797.06 Y-1126.46 I-10.00 J0.00
G01 X1763.56 Y-1126.46
G01 X1763.56 Y-1096.46
G01 X1797.06 Y-1096.46
G03 X1807.06 Y-1086.46 I0.00 J10.00
G01 X1807.06 Y-763.47
G03 X1797.06 Y-753.47 I-10.00 J0.00
G01 X1763.56 Y-753.47
G01 X1763.56 Y-724.42
G03 X1777.98 Y-717.63 I-1.27 J21.40
G03 X1786.69 Y-701.83 I-20.62 J21.67
G03 X1780.04 Y-669.58 I-37.87 J9.00
G03 X1766.28 Y-660.93 I-20.63 J-17.55
G01 X1763.56 Y-660.56
G01 X1763.56 Y-631.50
G01 X1797.06 Y-631.50
G03 X1807.06 Y-621.50 I0.00 J10.00
G01 X1807.06 Y-298.51
G03 X1797.06 Y-288.51 I-10.00 J0.00
G01 X1763.56 Y-288.51
G01 X1763.56 Y-258.51
G01 X1797.06 Y-258.51
G03 X1807.06 Y-248.51 I0.00 J10.00
G01 X1807.06 Y-37.20
G01 X2341.10 Y-37.20
G01 X2341.10 Y-248.51
G03 X2351.10 Y-258.51 I10.00 J0.00
G01 X2384.60 Y-258.51
G01 X2384.60 Y-288.51
G01 X2351.10 Y-288.51
G03 X2341.10 Y-298.51 I0.00 J-10.00
G01 X2341.10 Y-621.50
G03 X2351.10 Y-631.50 I10.00 J0.00
G01 X2384.60 Y-631.50
G01 X2384.60 Y-660.56
G03 X2370.18 Y-667.34 I1.27 J-21.40
G03 X2361.47 Y-683.14 I20.62 J-21.67
G03 X2368.12 Y-715.39 I37.87 J-9.00
G03 X2381.88 Y-724.04 I20.63 J17.55
G01 X2384.60 Y-724.42
G01 X2384.60 Y-753.47
G01 X2351.10 Y-753.47
G03 X2341.10 Y-763.47 I0.00 J-10.00
G01 X2341.10 Y-1086.46
G03 X2351.10 Y-1096.46 I10.00 J0.00
G01 X2383.50 Y-1096.46
M50
G01 X2384.60 Y-1096.46
G03 X2386.60 Y-1094.46 I0.00 J2.00
M08
G40
M51
M93
(PlanFooterCommand)
M64
T0
M65
#CS OFF
M30
