(PP_NAME=	  PP_Din)
(PP_VERSION=	  4.0)
(PP_INI_NAME=	  GC_PLASMA_4.5.ini)
(PP_INI_VERSION=  2014-02-26)
(PLANNAME=        vange 4)
(MACHINE= 	  PowerMAX105_MS_45)
(MATERIAL= 	  S235JR)
(THICKNESS= 	  3)
#CONTOUR MODE [DEV PATH_DEV=0.2 RELEVANT_PATH=0.1]
#TRC [CONV_CIR_TO_LIN=1]
G71
G90
#CS ON [V.A.ABS.X, V.A.ABS.Y, 0, 0, 0, V.E.ROTATION]
M190
G162
G141
G237
G00 X321.21 Y-123.52
M64
T21
M65
M94 F1581
G41 D21
N1 M07
G01 X323.52 Y-123.52
M50
G01 X323.52 Y-96.02
G03 X320.52 Y-93.02 I-3.00 J0.00
G03 X317.52 Y-96.02 I0.00 J-3.00
G01 X317.52 Y-151.02
G03 X320.52 Y-154.02 I3.00 J0.00
G03 X323.52 Y-151.02 I0.00 J3.00
G01 X323.52 Y-123.52
G01 X323.52 Y-121.32
M08
G40
M51
M93
G00 X321.21 Y-269.92
M94 F1581
G41 D21
N2 M07
G01 X323.52 Y-269.92
M50
G01 X323.52 Y-242.42
G03 X320.52 Y-239.42 I-3.00 J0.00
G03 X317.52 Y-242.42 I0.00 J-3.00
G01 X317.52 Y-297.42
G03 X320.52 Y-300.42 I3.00 J0.00
G03 X323.52 Y-297.42 I0.00 J3.00
G01 X323.52 Y-269.92
G01 X323.52 Y-267.72
M08
G40
M51
M93
G00 X321.21 Y-416.32
M94 F1581
G41 D21
N3 M07
G01 X323.52 Y-416.32
M50
G01 X323.52 Y-388.82
G03 X320.52 Y-385.82 I-3.00 J0.00
G03 X317.52 Y-388.82 I0.00 J-3.00
G01 X317.52 Y-443.82
G03 X320.52 Y-446.82 I3.00 J0.00
G03 X323.52 Y-443.82 I0.00 J3.00
G01 X323.52 Y-416.32
G01 X323.52 Y-414.12
M08
G40
M51
M93
G00 X321.21 Y-562.72
M94 F1581
G41 D21
N4 M07
G01 X323.52 Y-562.72
M50
G01 X323.52 Y-535.22
G03 X320.52 Y-532.22 I-3.00 J0.00
G03 X317.52 Y-535.22 I0.00 J-3.00
G01 X317.52 Y-590.22
G03 X320.52 Y-593.22 I3.00 J0.00
G03 X323.52 Y-590.22 I0.00 J3.00
G01 X323.52 Y-562.72
G01 X323.52 Y-560.52
M08
G40
M51
M93
G00 X321.21 Y-709.12
M94 F1581
G41 D21
N5 M07
G01 X323.52 Y-709.12
M50
G01 X323.52 Y-681.62
G03 X320.52 Y-678.62 I-3.00 J0.00
G03 X317.52 Y-681.62 I0.00 J-3.00
G01 X317.52 Y-736.62
G03 X320.52 Y-739.62 I3.00 J0.00
G03 X323.52 Y-736.62 I0.00 J3.00
G01 X323.52 Y-709.12
G01 X323.52 Y-706.92
M08
G40
M51
M93
G00 X321.21 Y-855.52
M94 F1581
G41 D21
N6 M07
G01 X323.52 Y-855.52
M50
G01 X323.52 Y-828.02
G03 X320.52 Y-825.02 I-3.00 J0.00
G03 X317.52 Y-828.02 I0.00 J-3.00
G01 X317.52 Y-883.02
G03 X320.52 Y-886.02 I3.00 J0.00
G03 X323.52 Y-883.02 I0.00 J3.00
G01 X323.52 Y-855.52
G01 X323.52 Y-853.32
M08
G40
M51
M93
G00 X321.21 Y-1001.92
M94 F1581
G41 D21
N7 M07
G01 X323.52 Y-1001.92
M50
G01 X323.52 Y-974.42
G03 X320.52 Y-971.42 I-3.00 J0.00
G03 X317.52 Y-974.42 I0.00 J-3.00
G01 X317.52 Y-1029.42
G03 X320.52 Y-1032.42 I3.00 J0.00
G03 X323.52 Y-1029.42 I0.00 J3.00
G01 X323.52 Y-1001.92
G01 X323.52 Y-999.72
M08
G40
M51
M93
G00 X321.21 Y-928.72
M94 F1581
G41 D21
N8 M07
G01 X323.52 Y-928.72
M50
G01 X323.52 Y-901.22
G03 X320.52 Y-898.22 I-3.00 J0.00
G03 X317.52 Y-901.22 I0.00 J-3.00
G01 X317.52 Y-956.22
G03 X320.52 Y-959.22 I3.00 J0.00
G03 X323.52 Y-956.22 I0.00 J3.00
G01 X323.52 Y-928.72
G01 X323.52 Y-926.52
M08
G40
M51
M93
G00 X321.21 Y-782.32
M94 F1581
G41 D21
N9 M07
G01 X323.52 Y-782.32
M50
G01 X323.52 Y-754.82
G03 X320.52 Y-751.82 I-3.00 J0.00
G03 X317.52 Y-754.82 I0.00 J-3.00
G01 X317.52 Y-809.82
G03 X320.52 Y-812.82 I3.00 J0.00
G03 X323.52 Y-809.82 I0.00 J3.00
G01 X323.52 Y-782.32
G01 X323.52 Y-780.12
M08
G40
M51
M93
G00 X321.21 Y-635.92
M94 F1581
G41 D21
N10 M07
G01 X323.52 Y-635.92
M50
G01 X323.52 Y-608.42
G03 X320.52 Y-605.42 I-3.00 J0.00
G03 X317.52 Y-608.42 I0.00 J-3.00
G01 X317.52 Y-663.42
G03 X320.52 Y-666.42 I3.00 J0.00
G03 X323.52 Y-663.42 I0.00 J3.00
G01 X323.52 Y-635.92
G01 X323.52 Y-633.72
M08
G40
M51
M93
G00 X321.21 Y-489.52
M94 F1581
G41 D21
N11 M07
G01 X323.52 Y-489.52
M50
G01 X323.52 Y-462.02
G03 X320.52 Y-459.02 I-3.00 J0.00
G03 X317.52 Y-462.02 I0.00 J-3.00
G01 X317.52 Y-517.02
G03 X320.52 Y-520.02 I3.00 J0.00
G03 X323.52 Y-517.02 I0.00 J3.00
G01 X323.52 Y-489.52
G01 X323.52 Y-487.32
M08
G40
M51
M93
G00 X321.21 Y-343.12
M94 F1581
G41 D21
N12 M07
G01 X323.52 Y-343.12
M50
G01 X323.52 Y-315.62
G03 X320.52 Y-312.62 I-3.00 J0.00
G03 X317.52 Y-315.62 I0.00 J-3.00
G01 X317.52 Y-370.62
G03 X320.52 Y-373.62 I3.00 J0.00
G03 X323.52 Y-370.62 I0.00 J3.00
G01 X323.52 Y-343.12
G01 X323.52 Y-340.92
M08
G40
M51
M93
G00 X321.21 Y-196.72
M94 F1581
G41 D21
N13 M07
G01 X323.52 Y-196.72
M50
G01 X323.52 Y-169.22
G03 X320.52 Y-166.22 I-3.00 J0.00
G03 X317.52 Y-169.22 I0.00 J-3.00
G01 X317.52 Y-224.22
G03 X320.52 Y-227.22 I3.00 J0.00
G03 X323.52 Y-224.22 I0.00 J3.00
G01 X323.52 Y-196.72
G01 X323.52 Y-194.52
M08
G40
M51
M93
G00 X321.21 Y-50.32
M94 F1581
G41 D21
N14 M07
G01 X323.52 Y-50.32
M50
G01 X323.52 Y-22.82
G03 X320.52 Y-19.82 I-3.00 J0.00
G03 X317.52 Y-22.82 I0.00 J-3.00
G01 X317.52 Y-77.82
G03 X320.52 Y-80.82 I3.00 J0.00
G03 X323.52 Y-77.82 I0.00 J3.00
G01 X323.52 Y-50.32
G01 X323.52 Y-48.12
M08
G40
M51
M93
G00 X186.56 Y-821.02
M94 F1788
G41 D21
N15 M07
G01 X192.16 Y-820.93
M50
G03 X189.50 Y-813.12 I-9.82 J1.01
G03 X170.91 Y-810.10 I-10.90 J-8.39
G03 X166.56 Y-827.57 I7.36 J-11.11
G03 X184.52 Y-833.11 I11.88 J6.64
G03 X191.38 Y-825.86 I-5.77 J12.32
G01 X192.19 Y-822.60
G01 X192.16 Y-820.93
G01 X192.13 Y-819.25
M08
G40
M51
M93
G00 X180.75 Y-1115.49
M94 F1788
G41 D21
N16 M07
G01 X186.35 Y-1115.40
M50
G03 X183.69 Y-1107.59 I-9.82 J1.01
G03 X165.10 Y-1104.57 I-10.90 J-8.39
G03 X160.75 Y-1122.05 I7.36 J-11.11
G03 X178.71 Y-1127.59 I11.88 J6.64
G03 X185.57 Y-1120.33 I-5.77 J12.32
G01 X186.38 Y-1117.08
G01 X186.35 Y-1115.40
G01 X186.32 Y-1113.73
M08
G40
M51
M93
G00 X186.56 Y-518.28
M94 F1788
G41 D21
N17 M07
G01 X192.16 Y-518.19
M50
G03 X189.50 Y-510.38 I-9.82 J1.01
G03 X170.91 Y-507.36 I-10.90 J-8.39
G03 X166.56 Y-524.84 I7.36 J-11.11
G03 X184.52 Y-530.37 I11.88 J6.64
G03 X191.38 Y-523.12 I-5.77 J12.32
G01 X192.19 Y-519.87
G01 X192.16 Y-518.19
G01 X192.13 Y-516.52
M08
G40
M51
M93
G00 X186.56 Y-215.54
M94 F1788
G41 D21
N18 M07
G01 X192.16 Y-215.45
M50
G03 X189.50 Y-207.64 I-9.82 J1.01
G03 X170.91 Y-204.63 I-10.90 J-8.39
G03 X166.56 Y-222.10 I7.36 J-11.11
G03 X184.52 Y-227.64 I11.88 J6.64
G03 X191.38 Y-220.39 I-5.77 J12.32
G01 X192.19 Y-217.13
G01 X192.16 Y-215.45
G01 X192.13 Y-213.78
M08
G40
M51
M93
G00 X541.52 Y-102.82
M94 F1719
G41 D21
N19 M07
G01 X545.48 Y-98.86
M50
G03 X536.08 Y-94.97 I-9.40 J-9.40
G03 X522.78 Y-108.27 I0.00 J-13.30
G03 X536.08 Y-121.57 I13.30 J-0.00
G03 X549.38 Y-108.27 I0.00 J13.30
G03 X545.48 Y-98.86 I-13.30 J0.00
G03 X543.80 Y-97.44 I-9.40 J-9.40
M08
G40
M51
M93
G00 X541.52 Y-405.56
M94 F1719
G41 D21
N20 M07
G01 X545.48 Y-401.60
M50
G03 X536.08 Y-397.71 I-9.40 J-9.40
G03 X522.78 Y-411.01 I0.00 J-13.30
G03 X536.08 Y-424.31 I13.30 J0.00
G03 X549.38 Y-411.01 I0.00 J13.30
G03 X545.48 Y-401.60 I-13.30 J0.00
G03 X543.80 Y-400.18 I-9.40 J-9.40
M08
G40
M51
M93
G00 X541.24 Y-1011.32
M94 F1719
G41 D21
N21 M07
G01 X545.20 Y-1007.36
M50
G03 X536.08 Y-1003.58 I-9.12 J-9.12
G03 X523.18 Y-1016.48 I0.00 J-12.90
G03 X536.08 Y-1029.38 I12.90 J0.00
G03 X548.98 Y-1016.48 I-0.00 J12.90
G03 X545.20 Y-1007.36 I-12.90 J0.00
G03 X543.52 Y-1005.94 I-9.12 J-9.12
M08
G40
M51
M93
G00 X541.52 Y-708.30
M94 F1719
G41 D21
N22 M07
G01 X545.48 Y-704.34
M50
G03 X536.08 Y-700.44 I-9.40 J-9.40
G03 X522.78 Y-713.74 I0.00 J-13.30
G03 X536.08 Y-727.04 I13.30 J0.00
G03 X549.38 Y-713.74 I0.00 J13.30
G03 X545.48 Y-704.34 I-13.30 J0.00
G03 X543.80 Y-702.92 I-9.40 J-9.40
M08
G40
M51
M93
G00 X470.46 Y-216.48
M94 F1788
G41 D21
N23 M07
G01 X476.03 Y-217.12
M50
G03 X474.48 Y-209.22 I-9.81 J2.18
G03 X456.52 Y-203.69 I-11.88 J-6.64
G03 X449.82 Y-220.78 I5.83 J-12.14
G03 X467.05 Y-228.20 I12.46 J5.21
G03 X474.69 Y-221.73 I-4.45 J12.99
G01 X475.86 Y-218.58
G01 X476.03 Y-217.12
G01 X476.19 Y-215.66
M08
G40
M51
M93
G00 X470.46 Y-519.22
M94 F1788
G41 D21
N24 M07
G01 X476.03 Y-519.86
M50
G03 X474.48 Y-511.96 I-9.81 J2.18
G03 X456.52 Y-506.42 I-11.88 J-6.64
G03 X449.82 Y-523.51 I5.83 J-12.14
G03 X467.05 Y-530.94 I12.46 J5.21
G03 X474.69 Y-524.46 I-4.45 J12.99
G01 X475.86 Y-521.31
G01 X476.03 Y-519.86
G01 X476.19 Y-518.40
M08
G40
M51
M93
G00 X476.27 Y-1116.43
M94 F1788
G41 D21
N25 M07
G01 X481.84 Y-1117.07
M50
G03 X480.29 Y-1109.17 I-9.81 J2.18
G03 X462.33 Y-1103.63 I-11.88 J-6.64
G03 X455.63 Y-1120.72 I5.83 J-12.14
G03 X472.86 Y-1128.15 I12.46 J5.21
G03 X480.50 Y-1121.68 I-4.45 J12.99
G01 X481.67 Y-1118.53
G01 X481.84 Y-1117.07
G01 X482.00 Y-1115.61
M08
G40
M51
M93
G00 X470.46 Y-821.96
M94 F1788
G41 D21
N26 M07
G01 X476.03 Y-822.59
M50
G03 X474.48 Y-814.70 I-9.81 J2.18
G03 X456.52 Y-809.16 I-11.88 J-6.64
G03 X449.82 Y-826.25 I5.83 J-12.14
G03 X467.05 Y-833.68 I12.46 J5.21
G03 X474.69 Y-827.20 I-4.45 J12.99
G01 X475.86 Y-824.05
G01 X476.03 Y-822.59
G01 X476.19 Y-821.14
M08
G40
M51
M93
G00 X110.41 Y-708.30
M94 F1719
G41 D21
N27 M07
G01 X114.37 Y-704.34
M50
G03 X104.97 Y-700.44 I-9.40 J-9.40
G03 X91.67 Y-713.74 I-0.00 J-13.30
G03 X104.97 Y-727.04 I13.30 J0.00
G03 X118.27 Y-713.74 I0.00 J13.30
G03 X114.37 Y-704.34 I-13.30 J0.00
G03 X112.69 Y-702.92 I-9.40 J-9.40
M08
G40
M51
M93
G00 X110.13 Y-1021.64
M94 F1719
G41 D21
N28 M07
G01 X114.09 Y-1025.60
M50
G03 X117.87 Y-1016.48 I-9.12 J9.12
G03 X104.97 Y-1003.58 I-12.90 J0.00
G03 X92.07 Y-1016.48 I-0.00 J-12.90
G03 X104.97 Y-1029.38 I12.90 J0.00
G03 X114.09 Y-1025.60 I0.00 J12.90
G03 X115.50 Y-1023.92 I-9.12 J9.12
M08
G40
M51
M93
G00 X110.41 Y-416.45
M94 F1719
G41 D21
N29 M07
G01 X114.37 Y-420.41
M50
G03 X118.27 Y-411.01 I-9.40 J9.40
G03 X104.97 Y-397.71 I-13.30 J0.00
G03 X91.67 Y-411.01 I0.00 J-13.30
G03 X104.97 Y-424.31 I13.30 J0.00
G03 X114.37 Y-420.41 I-0.00 J13.30
G03 X115.79 Y-418.73 I-9.40 J9.40
M08
G40
M51
M93
G00 X110.41 Y-102.82
M94 F1719
G41 D21
N30 M07
G01 X114.37 Y-98.86
M50
G03 X104.97 Y-94.97 I-9.40 J-9.40
G03 X91.67 Y-108.27 I0.00 J-13.30
G03 X104.97 Y-121.57 I13.30 J0.00
G03 X118.27 Y-108.27 I0.00 J13.30
G03 X114.37 Y-98.86 I-13.30 J0.00
G03 X112.69 Y-97.44 I-9.40 J-9.40
M08
G40
M51
M93
G00 X631.04 Y-1064.79
M94 F2750
G41 D21
N31 M07
G01 X631.04 Y-1070.39
G01 X631.04 Y-1205.37
G01 X576.29 Y-1205.37
G02 X572.31 Y-1204.01 I-0.28 J5.69
G02 X568.86 Y-1201.25 I7.31 J12.66
G02 X568.33 Y-1200.76 I90.64 J100.53
G01 X488.04 Y-1146.00
G03 X486.79 Y-1144.88 I-1409.09 J-1566.04
G01 X403.22 Y-1089.58
G03 X401.97 Y-1088.53 I-34.02 J-39.00
G01 X325.99 Y-1042.85
G03 X322.40 Y-1040.74 I-12.82 J-17.73
G03 X317.79 Y-1041.08 I-1.84 J-6.52
G03 X315.05 Y-1042.85 I3.92 J-9.06
G01 X239.07 Y-1088.53
G03 X237.82 Y-1089.58 I15.76 J-19.91
G01 X154.25 Y-1144.88
G03 X153.00 Y-1146.00 I35.99 J-41.29
G01 X72.71 Y-1200.76
G02 X68.97 Y-1203.86 I-622.62 J748.54
G02 X65.29 Y-1205.34 I-6.75 J11.46
G02 X64.75 Y-1205.37 I-0.55 J5.41
G01 X10.00 Y-1205.37
G01 X10.00 Y-1070.39
G01 X43.50 Y-1070.39
G03 X53.50 Y-1060.39 I0.00 J10.00
G01 X53.50 Y-737.62
G03 X43.50 Y-727.62 I-10.00 J0.00
G01 X10.00 Y-727.62
G01 X10.00 Y-698.57
G03 X24.42 Y-691.78 I-1.27 J21.40
G03 X33.13 Y-675.98 I-20.62 J21.67
G03 X26.48 Y-643.74 I-37.87 J9.00
G03 X12.72 Y-635.09 I-20.63 J-17.55
G01 X10.00 Y-634.71
G01 X10.00 Y-605.65
G01 X43.50 Y-605.65
G03 X53.50 Y-595.65 I0.00 J10.00
G01 X53.50 Y-272.89
G03 X43.50 Y-262.89 I-10.00 J0.00
G01 X10.00 Y-262.89
G01 X10.00 Y-232.89
G01 X43.50 Y-232.89
G03 X53.50 Y-222.89 I0.00 J10.00
G01 X53.50 Y-11.60
G01 X587.54 Y-11.60
G01 X587.54 Y-222.89
G03 X597.54 Y-232.89 I10.00 J0.00
G01 X631.04 Y-232.89
G01 X631.04 Y-262.89
G01 X597.54 Y-262.89
G03 X587.54 Y-272.89 I0.00 J-10.00
G01 X587.54 Y-595.65
G03 X597.54 Y-605.65 I10.00 J0.00
G01 X631.04 Y-605.65
G01 X631.04 Y-634.71
G03 X616.62 Y-641.50 I1.27 J-21.40
G03 X607.91 Y-657.30 I20.62 J-21.67
G03 X614.56 Y-689.54 I37.87 J-9.00
G03 X628.32 Y-698.19 I20.63 J17.55
G01 X631.04 Y-698.57
G01 X631.04 Y-727.62
G01 X597.54 Y-727.62
G03 X587.54 Y-737.62 I0.00 J-10.00
G01 X587.54 Y-1060.39
G03 X597.54 Y-1070.39 I10.00 J0.00
G01 X629.94 Y-1070.39
M50
G01 X631.04 Y-1070.39
G03 X633.04 Y-1068.39 I0.00 J2.00
M08
G40
M51
M93
G00 X905.73 Y-265.28
M94 F1581
G41 D21
N32 M07
G01 X908.04 Y-265.28
M50
G01 X908.04 Y-237.78
G03 X905.04 Y-234.78 I-3.00 J0.00
G03 X902.04 Y-237.78 I0.00 J-3.00
G01 X902.04 Y-292.78
G03 X905.04 Y-295.78 I3.00 J0.00
G03 X908.04 Y-292.78 I0.00 J3.00
G01 X908.04 Y-265.28
G01 X908.04 Y-263.08
M08
G40
M51
M93
G00 X905.73 Y-411.68
M94 F1581
G41 D21
N33 M07
G01 X908.04 Y-411.68
M50
G01 X908.04 Y-384.18
G03 X905.04 Y-381.18 I-3.00 J0.00
G03 X902.04 Y-384.18 I0.00 J-3.00
G01 X902.04 Y-439.18
G03 X905.04 Y-442.18 I3.00 J0.00
G03 X908.04 Y-439.18 I-0.00 J3.00
G01 X908.04 Y-411.68
G01 X908.04 Y-409.48
M08
G40
M51
M93
G00 X905.73 Y-558.08
M94 F1581
G41 D21
N34 M07
G01 X908.04 Y-558.08
M50
G01 X908.04 Y-530.58
G03 X905.04 Y-527.58 I-3.00 J0.00
G03 X902.04 Y-530.58 I0.00 J-3.00
G01 X902.04 Y-585.58
G03 X905.04 Y-588.58 I3.00 J0.00
G03 X908.04 Y-585.58 I-0.00 J3.00
G01 X908.04 Y-558.08
G01 X908.04 Y-555.88
M08
G40
M51
M93
G00 X905.73 Y-704.48
M94 F1581
G41 D21
N35 M07
G01 X908.04 Y-704.48
M50
G01 X908.04 Y-676.98
G03 X905.04 Y-673.98 I-3.00 J0.00
G03 X902.04 Y-676.98 I0.00 J-3.00
G01 X902.04 Y-731.98
G03 X905.04 Y-734.98 I3.00 J0.00
G03 X908.04 Y-731.98 I0.00 J3.00
G01 X908.04 Y-704.48
G01 X908.04 Y-702.28
M08
G40
M51
M93
G00 X905.73 Y-850.88
M94 F1581
G41 D21
N36 M07
G01 X908.04 Y-850.88
M50
G01 X908.04 Y-823.38
G03 X905.04 Y-820.38 I-3.00 J0.00
G03 X902.04 Y-823.38 I0.00 J-3.00
G01 X902.04 Y-878.38
G03 X905.04 Y-881.38 I3.00 J0.00
G03 X908.04 Y-878.38 I0.00 J3.00
G01 X908.04 Y-850.88
G01 X908.04 Y-848.68
M08
G40
M51
M93
G00 X905.73 Y-997.28
M94 F1581
G41 D21
N37 M07
G01 X908.04 Y-997.28
M50
G01 X908.04 Y-969.78
G03 X905.04 Y-966.78 I-3.00 J0.00
G03 X902.04 Y-969.78 I0.00 J-3.00
G01 X902.04 Y-1024.78
G03 X905.04 Y-1027.78 I3.00 J0.00
G03 X908.04 Y-1024.78 I0.00 J3.00
G01 X908.04 Y-997.28
G01 X908.04 Y-995.08
M08
G40
M51
M93
G00 X905.73 Y-1143.68
M94 F1581
G41 D21
N38 M07
G01 X908.04 Y-1143.68
M50
G01 X908.04 Y-1116.18
G03 X905.04 Y-1113.18 I-3.00 J0.00
G03 X902.04 Y-1116.18 I0.00 J-3.00
G01 X902.04 Y-1171.18
G03 X905.04 Y-1174.18 I3.00 J0.00
G03 X908.04 Y-1171.18 I0.00 J3.00
G01 X908.04 Y-1143.68
G01 X908.04 Y-1141.48
M08
G40
M51
M93
G00 X905.73 Y-1070.48
M94 F1581
G41 D21
N39 M07
G01 X908.04 Y-1070.48
M50
G01 X908.04 Y-1042.98
G03 X905.04 Y-1039.98 I-3.00 J0.00
G03 X902.04 Y-1042.98 I0.00 J-3.00
G01 X902.04 Y-1097.98
G03 X905.04 Y-1100.98 I3.00 J0.00
G03 X908.04 Y-1097.98 I0.00 J3.00
G01 X908.04 Y-1070.48
G01 X908.04 Y-1068.28
M08
G40
M51
M93
G00 X905.73 Y-924.08
M94 F1581
G41 D21
N40 M07
G01 X908.04 Y-924.08
M50
G01 X908.04 Y-896.58
G03 X905.04 Y-893.58 I-3.00 J0.00
G03 X902.04 Y-896.58 I0.00 J-3.00
G01 X902.04 Y-951.58
G03 X905.04 Y-954.58 I3.00 J0.00
G03 X908.04 Y-951.58 I0.00 J3.00
G01 X908.04 Y-924.08
G01 X908.04 Y-921.88
M08
G40
M51
M93
G00 X905.73 Y-777.68
M94 F1581
G41 D21
N41 M07
G01 X908.04 Y-777.68
M50
G01 X908.04 Y-750.18
G03 X905.04 Y-747.18 I-3.00 J0.00
G03 X902.04 Y-750.18 I0.00 J-3.00
G01 X902.04 Y-805.18
G03 X905.04 Y-808.18 I3.00 J0.00
G03 X908.04 Y-805.18 I0.00 J3.00
G01 X908.04 Y-777.68
G01 X908.04 Y-775.48
M08
G40
M51
M93
G00 X905.73 Y-631.28
M94 F1581
G41 D21
N42 M07
G01 X908.04 Y-631.28
M50
G01 X908.04 Y-603.78
G03 X905.04 Y-600.78 I-3.00 J0.00
G03 X902.04 Y-603.78 I0.00 J-3.00
G01 X902.04 Y-658.78
G03 X905.04 Y-661.78 I3.00 J0.00
G03 X908.04 Y-658.78 I-0.00 J3.00
G01 X908.04 Y-631.28
G01 X908.04 Y-629.08
M08
G40
M51
M93
G00 X905.73 Y-484.88
M94 F1581
G41 D21
N43 M07
G01 X908.04 Y-484.88
M50
G01 X908.04 Y-457.38
G03 X905.04 Y-454.38 I-3.00 J0.00
G03 X902.04 Y-457.38 I0.00 J-3.00
G01 X902.04 Y-512.38
G03 X905.04 Y-515.38 I3.00 J0.00
G03 X908.04 Y-512.38 I-0.00 J3.00
G01 X908.04 Y-484.88
G01 X908.04 Y-482.68
M08
G40
M51
M93
G00 X905.73 Y-338.48
M94 F1581
G41 D21
N44 M07
G01 X908.04 Y-338.48
M50
G01 X908.04 Y-310.98
G03 X905.04 Y-307.98 I-3.00 J0.00
G03 X902.04 Y-310.98 I0.00 J-3.00
G01 X902.04 Y-365.98
G03 X905.04 Y-368.98 I3.00 J0.00
G03 X908.04 Y-365.98 I0.00 J3.00
G01 X908.04 Y-338.48
G01 X908.04 Y-336.28
M08
G40
M51
M93
G00 X905.73 Y-192.08
M94 F1581
G41 D21
N45 M07
G01 X908.04 Y-192.08
M50
G01 X908.04 Y-164.58
G03 X905.04 Y-161.58 I-3.00 J0.00
G03 X902.04 Y-164.58 I0.00 J-3.00
G01 X902.04 Y-219.58
G03 X905.04 Y-222.58 I3.00 J0.00
G03 X908.04 Y-219.58 I0.00 J3.00
G01 X908.04 Y-192.08
G01 X908.04 Y-189.88
M08
G40
M51
M93
G00 X771.08 Y-962.78
M94 F1788
G41 D21
N46 M07
G01 X776.68 Y-962.69
M50
G03 X774.02 Y-954.88 I-9.82 J1.01
G03 X755.43 Y-951.86 I-10.90 J-8.39
G03 X751.08 Y-969.33 I7.36 J-11.11
G03 X769.04 Y-974.87 I11.88 J6.64
G03 X775.90 Y-967.62 I-5.77 J12.32
G01 X776.71 Y-964.36
G01 X776.68 Y-962.69
G01 X776.65 Y-961.01
M08
G40
M51
M93
G00 X765.27 Y-1257.25
M94 F1788
G41 D21
N47 M07
G01 X770.87 Y-1257.16
M50
G03 X768.21 Y-1249.35 I-9.82 J1.01
G03 X749.62 Y-1246.33 I-10.90 J-8.39
G03 X745.27 Y-1263.81 I7.36 J-11.11
G03 X763.23 Y-1269.35 I11.88 J6.64
G03 X770.09 Y-1262.10 I-5.77 J12.32
G01 X770.90 Y-1258.84
G01 X770.87 Y-1257.16
G01 X770.84 Y-1255.49
M08
G40
M51
M93
G00 X771.08 Y-660.04
M94 F1788
G41 D21
N48 M07
G01 X776.68 Y-659.95
M50
G03 X774.02 Y-652.14 I-9.82 J1.01
G03 X755.43 Y-649.12 I-10.90 J-8.39
G03 X751.08 Y-666.60 I7.36 J-11.11
G03 X769.04 Y-672.14 I11.88 J6.64
G03 X775.90 Y-664.88 I-5.77 J12.32
G01 X776.71 Y-661.63
G01 X776.68 Y-659.95
G01 X776.65 Y-658.28
M08
G40
M51
M93
G00 X771.08 Y-357.31
M94 F1788
G41 D21
N49 M07
G01 X776.68 Y-357.21
M50
G03 X774.02 Y-349.40 I-9.82 J1.01
G03 X755.43 Y-346.39 I-10.90 J-8.39
G03 X751.08 Y-363.86 I7.36 J-11.11
G03 X769.04 Y-369.40 I11.88 J6.64
G03 X775.90 Y-362.15 I-5.77 J12.32
G01 X776.71 Y-358.89
G01 X776.68 Y-357.21
G01 X776.65 Y-355.54
M08
G40
M51
M93
G00 X1126.04 Y-244.58
M94 F1719
G41 D21
N50 M07
G01 X1130.00 Y-240.63
M50
G03 X1120.60 Y-236.73 I-9.40 J-9.40
G03 X1107.30 Y-250.03 I0.00 J-13.30
G03 X1120.60 Y-263.33 I13.30 J0.00
G03 X1133.90 Y-250.03 I-0.00 J13.30
G03 X1130.00 Y-240.63 I-13.30 J0.00
G03 X1128.32 Y-239.20 I-9.40 J-9.40
M08
G40
M51
M93
G00 X1126.04 Y-547.32
M94 F1719
G41 D21
N51 M07
G01 X1130.00 Y-543.36
M50
G03 X1120.60 Y-539.47 I-9.40 J-9.40
G03 X1107.30 Y-552.77 I0.00 J-13.30
G03 X1120.60 Y-566.07 I13.30 J0.00
G03 X1133.90 Y-552.77 I-0.00 J13.30
G03 X1130.00 Y-543.36 I-13.30 J0.00
G03 X1128.32 Y-541.94 I-9.40 J-9.40
M08
G40
M51
M93
G00 X1125.76 Y-1153.08
M94 F1719
G41 D21
N52 M07
G01 X1129.72 Y-1149.12
M50
G03 X1120.60 Y-1145.34 I-9.12 J-9.12
G03 X1107.70 Y-1158.24 I0.00 J-12.90
G03 X1120.60 Y-1171.14 I12.90 J0.00
G03 X1133.50 Y-1158.24 I0.00 J12.90
G03 X1129.72 Y-1149.12 I-12.90 J0.00
G03 X1128.04 Y-1147.70 I-9.12 J-9.12
M08
G40
M51
M93
G00 X1126.04 Y-850.06
M94 F1719
G41 D21
N53 M07
G01 X1130.00 Y-846.10
M50
G03 X1120.60 Y-842.20 I-9.40 J-9.40
G03 X1107.30 Y-855.50 I0.00 J-13.30
G03 X1120.60 Y-868.80 I13.30 J0.00
G03 X1133.90 Y-855.50 I-0.00 J13.30
G03 X1130.00 Y-846.10 I-13.30 J0.00
G03 X1128.32 Y-844.68 I-9.40 J-9.40
M08
G40
M51
M93
G00 X1054.98 Y-358.24
M94 F1788
G41 D21
N54 M07
G01 X1060.55 Y-358.88
M50
G03 X1059.00 Y-350.99 I-9.81 J2.18
G03 X1041.04 Y-345.45 I-11.88 J-6.64
G03 X1034.34 Y-362.54 I5.83 J-12.14
G03 X1051.57 Y-369.96 I12.46 J5.21
G03 X1059.21 Y-363.49 I-4.45 J12.99
G01 X1060.38 Y-360.34
G01 X1060.55 Y-358.88
G01 X1060.71 Y-357.42
M08
G40
M51
M93
G00 X1054.98 Y-660.98
M94 F1788
G41 D21
N55 M07
G01 X1060.55 Y-661.62
M50
G03 X1059.00 Y-653.72 I-9.81 J2.18
G03 X1041.04 Y-648.18 I-11.88 J-6.64
G03 X1034.34 Y-665.27 I5.83 J-12.14
G03 X1051.57 Y-672.70 I12.46 J5.21
G03 X1059.21 Y-666.23 I-4.45 J12.99
G01 X1060.38 Y-663.07
G01 X1060.55 Y-661.62
G01 X1060.71 Y-660.16
M08
G40
M51
M93
G00 X1060.79 Y-1258.19
M94 F1788
G41 D21
N56 M07
G01 X1066.36 Y-1258.83
M50
G03 X1064.81 Y-1250.93 I-9.81 J2.18
G03 X1046.85 Y-1245.40 I-11.88 J-6.64
G03 X1040.15 Y-1262.49 I5.83 J-12.14
G03 X1057.38 Y-1269.91 I12.46 J5.21
G03 X1065.02 Y-1263.44 I-4.45 J12.99
G01 X1066.19 Y-1260.29
G01 X1066.36 Y-1258.83
G01 X1066.52 Y-1257.37
M08
G40
M51
M93
G00 X1054.98 Y-963.72
M94 F1788
G41 D21
N57 M07
G01 X1060.55 Y-964.35
M50
G03 X1059.00 Y-956.46 I-9.81 J2.18
G03 X1041.04 Y-950.92 I-11.88 J-6.64
G03 X1034.34 Y-968.01 I5.83 J-12.14
G03 X1051.57 Y-975.44 I12.46 J5.21
G03 X1059.21 Y-968.96 I-4.45 J12.99
G01 X1060.38 Y-965.81
G01 X1060.55 Y-964.35
G01 X1060.71 Y-962.90
M08
G40
M51
M93
G00 X694.93 Y-850.06
M94 F1719
G41 D21
N58 M07
G01 X698.89 Y-846.10
M50
G03 X689.49 Y-842.20 I-9.40 J-9.40
G03 X676.19 Y-855.50 I0.00 J-13.30
G03 X689.49 Y-868.80 I13.30 J0.00
G03 X702.79 Y-855.50 I0.00 J13.30
G03 X698.89 Y-846.10 I-13.30 J0.00
G03 X697.21 Y-844.68 I-9.40 J-9.40
M08
G40
M51
M93
G00 X694.65 Y-1163.40
M94 F1719
G41 D21
N59 M07
G01 X698.61 Y-1167.36
M50
G03 X702.39 Y-1158.24 I-9.12 J9.12
G03 X689.49 Y-1145.34 I-12.90 J0.00
G03 X676.59 Y-1158.24 I0.00 J-12.90
G03 X689.49 Y-1171.14 I12.90 J0.00
G03 X698.61 Y-1167.36 I-0.00 J12.90
G03 X700.02 Y-1165.68 I-9.12 J9.12
M08
G40
M51
M93
G00 X694.93 Y-558.21
M94 F1719
G41 D21
N60 M07
G01 X698.89 Y-562.17
M50
G03 X702.79 Y-552.77 I-9.40 J9.40
G03 X689.49 Y-539.47 I-13.30 J0.00
G03 X676.19 Y-552.77 I0.00 J-13.30
G03 X689.49 Y-566.07 I13.30 J0.00
G03 X698.89 Y-562.17 I0.00 J13.30
G03 X700.31 Y-560.49 I-9.40 J9.40
M08
G40
M51
M93
G00 X694.93 Y-244.58
M94 F1719
G41 D21
N61 M07
G01 X698.89 Y-240.63
M50
G03 X689.49 Y-236.73 I-9.40 J-9.40
G03 X676.19 Y-250.03 I0.00 J-13.30
G03 X689.49 Y-263.33 I13.30 J0.00
G03 X702.79 Y-250.03 I0.00 J13.30
G03 X698.89 Y-240.63 I-13.30 J0.00
G03 X697.21 Y-239.20 I-9.40 J-9.40
M08
G40
M51
M93
G00 X1215.56 Y-1206.55
M94 F2750
G41 D21
N62 M07
G01 X1215.56 Y-1212.15
G01 X1215.56 Y-1347.13
G01 X1160.81 Y-1347.13
G02 X1156.83 Y-1345.78 I-0.28 J5.69
G02 X1153.38 Y-1343.01 I7.31 J12.66
G02 X1152.85 Y-1342.53 I90.64 J100.53
G01 X1072.56 Y-1287.76
G03 X1071.31 Y-1286.64 I-1409.09 J-1566.04
G01 X987.74 Y-1231.34
G03 X986.49 Y-1230.29 I-34.02 J-39.00
G01 X910.51 Y-1184.61
G03 X906.92 Y-1182.50 I-12.82 J-17.73
G03 X902.31 Y-1182.84 I-1.84 J-6.52
G03 X899.57 Y-1184.61 I3.92 J-9.06
G01 X823.59 Y-1230.29
G03 X822.34 Y-1231.34 I15.76 J-19.91
G01 X738.77 Y-1286.64
G03 X737.52 Y-1287.76 I35.99 J-41.29
G01 X657.23 Y-1342.53
G02 X653.49 Y-1345.62 I-622.62 J748.54
G02 X649.81 Y-1347.10 I-6.75 J11.46
G02 X649.27 Y-1347.13 I-0.55 J5.41
G01 X594.52 Y-1347.13
G01 X594.52 Y-1212.15
G01 X628.02 Y-1212.15
G03 X638.02 Y-1202.15 I0.00 J10.00
G01 X638.02 Y-879.38
G03 X628.02 Y-869.38 I-10.00 J0.00
G01 X594.52 Y-869.38
G01 X594.52 Y-840.33
G03 X608.94 Y-833.54 I-1.27 J21.40
G03 X617.65 Y-817.74 I-20.62 J21.67
G03 X611.00 Y-785.50 I-37.87 J9.00
G03 X597.24 Y-776.85 I-20.63 J-17.55
G01 X594.52 Y-776.47
G01 X594.52 Y-747.41
G01 X628.02 Y-747.41
G03 X638.02 Y-737.41 I0.00 J10.00
G01 X638.02 Y-414.65
G03 X628.02 Y-404.65 I-10.00 J0.00
G01 X594.52 Y-404.65
G01 X594.52 Y-374.65
G01 X628.02 Y-374.65
G03 X638.02 Y-364.65 I0.00 J10.00
G01 X638.02 Y-153.36
G01 X1172.06 Y-153.36
G01 X1172.06 Y-364.65
G03 X1182.06 Y-374.65 I10.00 J0.00
G01 X1215.56 Y-374.65
G01 X1215.56 Y-404.65
G01 X1182.06 Y-404.65
G03 X1172.06 Y-414.65 I0.00 J-10.00
G01 X1172.06 Y-737.41
G03 X1182.06 Y-747.41 I10.00 J0.00
G01 X1215.56 Y-747.41
G01 X1215.56 Y-776.47
G03 X1201.14 Y-783.26 I1.27 J-21.40
G03 X1192.43 Y-799.06 I20.62 J-21.67
G03 X1199.08 Y-831.30 I37.87 J-9.00
G03 X1212.84 Y-839.95 I20.63 J17.55
G01 X1215.56 Y-840.33
G01 X1215.56 Y-869.38
G01 X1182.06 Y-869.38
G03 X1172.06 Y-879.38 I0.00 J-10.00
G01 X1172.06 Y-1202.15
G03 X1182.06 Y-1212.15 I10.00 J0.00
G01 X1214.46 Y-1212.15
M50
G01 X1215.56 Y-1212.15
G03 X1217.56 Y-1210.15 I0.00 J2.00
M08
G40
M51
M93
G00 X1488.31 Y-1093.45
M94 F1581
G41 D21
N63 M07
G01 X1490.62 Y-1093.45
M50
G01 X1490.62 Y-1065.95
G03 X1487.62 Y-1062.95 I-3.00 J-0.00
G03 X1484.62 Y-1065.95 I0.00 J-3.00
G01 X1484.62 Y-1120.95
G03 X1487.62 Y-1123.95 I3.00 J0.00
G03 X1490.62 Y-1120.95 I0.00 J3.00
G01 X1490.62 Y-1093.45
G01 X1490.62 Y-1091.25
M08
G40
M51
M93
G00 X1488.31 Y-947.05
M94 F1581
G41 D21
N64 M07
G01 X1490.62 Y-947.05
M50
G01 X1490.62 Y-919.55
G03 X1487.62 Y-916.55 I-3.00 J-0.00
G03 X1484.62 Y-919.55 I-0.00 J-3.00
G01 X1484.62 Y-974.55
G03 X1487.62 Y-977.55 I3.00 J0.00
G03 X1490.62 Y-974.55 I0.00 J3.00
G01 X1490.62 Y-947.05
G01 X1490.62 Y-944.85
M08
G40
M51
M93
G00 X1488.31 Y-800.65
M94 F1581
G41 D21
N65 M07
G01 X1490.62 Y-800.65
M50
G01 X1490.62 Y-773.15
G03 X1487.62 Y-770.15 I-3.00 J0.00
G03 X1484.62 Y-773.15 I-0.00 J-3.00
G01 X1484.62 Y-828.15
G03 X1487.62 Y-831.15 I3.00 J0.00
G03 X1490.62 Y-828.15 I0.00 J3.00
G01 X1490.62 Y-800.65
G01 X1490.62 Y-798.45
M08
G40
M51
M93
G00 X1488.31 Y-654.25
M94 F1581
G41 D21
N66 M07
G01 X1490.62 Y-654.25
M50
G01 X1490.62 Y-626.75
G03 X1487.62 Y-623.75 I-3.00 J-0.00
G03 X1484.62 Y-626.75 I-0.00 J-3.00
G01 X1484.62 Y-681.75
G03 X1487.62 Y-684.75 I3.00 J0.00
G03 X1490.62 Y-681.75 I0.00 J3.00
G01 X1490.62 Y-654.25
G01 X1490.62 Y-652.05
M08
G40
M51
M93
G00 X1488.31 Y-507.85
M94 F1581
G41 D21
N67 M07
G01 X1490.62 Y-507.85
M50
G01 X1490.62 Y-480.35
G03 X1487.62 Y-477.35 I-3.00 J-0.00
G03 X1484.62 Y-480.35 I-0.00 J-3.00
G01 X1484.62 Y-535.35
G03 X1487.62 Y-538.35 I3.00 J0.00
G03 X1490.62 Y-535.35 I0.00 J3.00
G01 X1490.62 Y-507.85
G01 X1490.62 Y-505.65
M08
G40
M51
M93
G00 X1488.31 Y-361.45
M94 F1581
G41 D21
N68 M07
G01 X1490.62 Y-361.45
M50
G01 X1490.62 Y-333.95
G03 X1487.62 Y-330.95 I-3.00 J-0.00
G03 X1484.62 Y-333.95 I-0.00 J-3.00
G01 X1484.62 Y-388.95
G03 X1487.62 Y-391.95 I3.00 J0.00
G03 X1490.62 Y-388.95 I0.00 J3.00
G01 X1490.62 Y-361.45
G01 X1490.62 Y-359.25
M08
G40
M51
M93
G00 X1488.31 Y-215.05
M94 F1581
G41 D21
N69 M07
G01 X1490.62 Y-215.05
M50
G01 X1490.62 Y-187.55
G03 X1487.62 Y-184.55 I-3.00 J0.00
G03 X1484.62 Y-187.55 I0.00 J-3.00
G01 X1484.62 Y-242.55
G03 X1487.62 Y-245.55 I3.00 J0.00
G03 X1490.62 Y-242.55 I-0.00 J3.00
G01 X1490.62 Y-215.05
G01 X1490.62 Y-212.85
M08
G40
M51
M93
G00 X1488.31 Y-288.25
M94 F1581
G41 D21
N70 M07
G01 X1490.62 Y-288.25
M50
G01 X1490.62 Y-260.75
G03 X1487.62 Y-257.75 I-3.00 J-0.00
G03 X1484.62 Y-260.75 I-0.00 J-3.00
G01 X1484.62 Y-315.75
G03 X1487.62 Y-318.75 I3.00 J0.00
G03 X1490.62 Y-315.75 I0.00 J3.00
G01 X1490.62 Y-288.25
G01 X1490.62 Y-286.05
M08
G40
M51
M93
G00 X1488.31 Y-434.65
M94 F1581
G41 D21
N71 M07
G01 X1490.62 Y-434.65
M50
G01 X1490.62 Y-407.15
G03 X1487.62 Y-404.15 I-3.00 J-0.00
G03 X1484.62 Y-407.15 I-0.00 J-3.00
G01 X1484.62 Y-462.15
G03 X1487.62 Y-465.15 I3.00 J0.00
G03 X1490.62 Y-462.15 I0.00 J3.00
G01 X1490.62 Y-434.65
G01 X1490.62 Y-432.45
M08
G40
M51
M93
G00 X1488.31 Y-581.05
M94 F1581
G41 D21
N72 M07
G01 X1490.62 Y-581.05
M50
G01 X1490.62 Y-553.55
G03 X1487.62 Y-550.55 I-3.00 J-0.00
G03 X1484.62 Y-553.55 I-0.00 J-3.00
G01 X1484.62 Y-608.55
G03 X1487.62 Y-611.55 I3.00 J0.00
G03 X1490.62 Y-608.55 I0.00 J3.00
G01 X1490.62 Y-581.05
G01 X1490.62 Y-578.85
M08
G40
M51
M93
G00 X1488.31 Y-727.45
M94 F1581
G41 D21
N73 M07
G01 X1490.62 Y-727.45
M50
G01 X1490.62 Y-699.95
G03 X1487.62 Y-696.95 I-3.00 J0.00
G03 X1484.62 Y-699.95 I-0.00 J-3.00
G01 X1484.62 Y-754.95
G03 X1487.62 Y-757.95 I3.00 J0.00
G03 X1490.62 Y-754.95 I0.00 J3.00
G01 X1490.62 Y-727.45
G01 X1490.62 Y-725.25
M08
G40
M51
M93
G00 X1488.31 Y-873.85
M94 F1581
G41 D21
N74 M07
G01 X1490.62 Y-873.85
M50
G01 X1490.62 Y-846.35
G03 X1487.62 Y-843.35 I-3.00 J-0.00
G03 X1484.62 Y-846.35 I-0.00 J-3.00
G01 X1484.62 Y-901.35
G03 X1487.62 Y-904.35 I3.00 J0.00
G03 X1490.62 Y-901.35 I0.00 J3.00
G01 X1490.62 Y-873.85
G01 X1490.62 Y-871.65
M08
G40
M51
M93
G00 X1488.31 Y-1020.25
M94 F1581
G41 D21
N75 M07
G01 X1490.62 Y-1020.25
M50
G01 X1490.62 Y-992.75
G03 X1487.62 Y-989.75 I-3.00 J-0.00
G03 X1484.62 Y-992.75 I-0.00 J-3.00
G01 X1484.62 Y-1047.75
G03 X1487.62 Y-1050.75 I3.00 J0.00
G03 X1490.62 Y-1047.75 I0.00 J3.00
G01 X1490.62 Y-1020.25
G01 X1490.62 Y-1018.05
M08
G40
M51
M93
G00 X1488.31 Y-1166.65
M94 F1581
G41 D21
N76 M07
G01 X1490.62 Y-1166.65
M50
G01 X1490.62 Y-1139.15
G03 X1487.62 Y-1136.15 I-3.00 J-0.00
G03 X1484.62 Y-1139.15 I0.00 J-3.00
G01 X1484.62 Y-1194.15
G03 X1487.62 Y-1197.15 I3.00 J0.00
G03 X1490.62 Y-1194.15 I0.00 J3.00
G01 X1490.62 Y-1166.65
G01 X1490.62 Y-1164.45
M08
G40
M51
M93
G00 X1637.56 Y-396.65
M94 F1788
G41 D21
N77 M07
G01 X1643.13 Y-397.29
M50
G03 X1641.58 Y-389.39 I-9.81 J2.18
G03 X1623.62 Y-383.85 I-11.88 J-6.64
G03 X1616.92 Y-400.94 I5.83 J-12.14
G03 X1634.15 Y-408.37 I12.46 J5.21
G03 X1641.78 Y-401.90 I-4.45 J12.99
G01 X1642.96 Y-398.75
G01 X1643.13 Y-397.29
G01 X1643.29 Y-395.83
M08
G40
M51
M93
G00 X1643.37 Y-102.18
M94 F1788
G41 D21
N78 M07
G01 X1648.94 Y-102.81
M50
G03 X1647.39 Y-94.92 I-9.81 J2.18
G03 X1629.43 Y-89.38 I-11.88 J-6.64
G03 X1622.73 Y-106.47 I5.83 J-12.14
G03 X1639.96 Y-113.90 I12.46 J5.21
G03 X1647.59 Y-107.42 I-4.45 J12.99
G01 X1648.77 Y-104.27
G01 X1648.94 Y-102.81
G01 X1649.10 Y-101.36
M08
G40
M51
M93
G00 X1637.56 Y-699.39
M94 F1788
G41 D21
N79 M07
G01 X1643.13 Y-700.03
M50
G03 X1641.58 Y-692.13 I-9.81 J2.18
G03 X1623.62 Y-686.59 I-11.88 J-6.64
G03 X1616.92 Y-703.68 I5.83 J-12.14
G03 X1634.15 Y-711.11 I12.46 J5.21
G03 X1641.78 Y-704.63 I-4.45 J12.99
G01 X1642.96 Y-701.48
G01 X1643.13 Y-700.03
G01 X1643.29 Y-698.57
M08
G40
M51
M93
G00 X1637.56 Y-1002.13
M94 F1788
G41 D21
N80 M07
G01 X1643.13 Y-1002.76
M50
G03 X1641.58 Y-994.87 I-9.81 J2.18
G03 X1623.62 Y-989.33 I-11.88 J-6.64
G03 X1616.92 Y-1006.42 I5.83 J-12.14
G03 X1634.15 Y-1013.85 I12.46 J5.21
G03 X1641.78 Y-1007.37 I-4.45 J12.99
G01 X1642.96 Y-1004.22
G01 X1643.13 Y-1002.76
G01 X1643.29 Y-1001.30
M08
G40
M51
M93
G00 X1277.51 Y-1103.25
M94 F1719
G41 D21
N81 M07
G01 X1281.47 Y-1099.29
M50
G03 X1272.06 Y-1095.40 I-9.40 J-9.40
G03 X1258.76 Y-1108.70 I0.00 J-13.30
G03 X1272.06 Y-1122.00 I13.30 J0.00
G03 X1285.36 Y-1108.70 I0.00 J13.30
G03 X1281.47 Y-1099.29 I-13.30 J0.00
G03 X1279.79 Y-1097.87 I-9.40 J-9.40
M08
G40
M51
M93
G00 X1277.51 Y-800.52
M94 F1719
G41 D21
N82 M07
G01 X1281.47 Y-796.56
M50
G03 X1272.06 Y-792.66 I-9.40 J-9.40
G03 X1258.76 Y-805.96 I0.00 J-13.30
G03 X1272.06 Y-819.26 I13.30 J0.00
G03 X1285.36 Y-805.96 I0.00 J13.30
G03 X1281.47 Y-796.56 I-13.30 J0.00
G03 X1279.79 Y-795.14 I-9.40 J-9.40
M08
G40
M51
M93
G00 X1277.23 Y-195.33
M94 F1719
G41 D21
N83 M07
G01 X1281.19 Y-191.37
M50
G03 X1272.06 Y-187.59 I-9.12 J-9.12
G03 X1259.16 Y-200.49 I0.00 J-12.90
G03 X1272.06 Y-213.39 I12.90 J0.00
G03 X1284.96 Y-200.49 I0.00 J12.90
G03 X1281.19 Y-191.37 I-12.90 J0.00
G03 X1279.50 Y-189.95 I-9.12 J-9.12
M08
G40
M51
M93
G00 X1277.51 Y-508.67
M94 F1719
G41 D21
N84 M07
G01 X1281.47 Y-512.63
M50
G03 X1285.36 Y-503.22 I-9.40 J9.40
G03 X1272.06 Y-489.92 I-13.30 J0.00
G03 X1258.76 Y-503.22 I0.00 J-13.30
G03 X1272.06 Y-516.52 I13.30 J-0.00
G03 X1281.47 Y-512.63 I0.00 J13.30
G03 X1282.89 Y-510.95 I-9.40 J9.40
M08
G40
M51
M93
G00 X1353.66 Y-1001.19
M94 F1788
G41 D21
N85 M07
G01 X1359.26 Y-1001.10
M50
G03 X1356.60 Y-993.28 I-9.82 J1.01
G03 X1338.00 Y-990.27 I-10.90 J-8.39
G03 X1333.66 Y-1007.74 I7.36 J-11.11
G03 X1351.62 Y-1013.28 I11.88 J6.64
G03 X1358.48 Y-1006.03 I-5.77 J12.32
G01 X1359.29 Y-1002.77
G01 X1359.26 Y-1001.10
G01 X1359.23 Y-999.42
M08
G40
M51
M93
G00 X1353.66 Y-698.45
M94 F1788
G41 D21
N86 M07
G01 X1359.26 Y-698.36
M50
G03 X1356.60 Y-690.55 I-9.82 J1.01
G03 X1338.00 Y-687.53 I-10.90 J-8.39
G03 X1333.66 Y-705.00 I7.36 J-11.11
G03 X1351.62 Y-710.54 I11.88 J6.64
G03 X1358.48 Y-703.29 I-5.77 J12.32
G01 X1359.29 Y-700.03
G01 X1359.26 Y-698.36
G01 X1359.23 Y-696.68
M08
G40
M51
M93
G00 X1347.85 Y-101.24
M94 F1788
G41 D21
N87 M07
G01 X1353.45 Y-101.15
M50
G03 X1350.79 Y-93.34 I-9.82 J1.01
G03 X1332.19 Y-90.32 I-10.90 J-8.39
G03 X1327.85 Y-107.79 I7.36 J-11.11
G03 X1345.81 Y-113.33 I11.88 J6.64
G03 X1352.67 Y-106.08 I-5.77 J12.32
G01 X1353.48 Y-102.82
G01 X1353.45 Y-101.15
G01 X1353.42 Y-99.47
M08
G40
M51
M93
G00 X1353.66 Y-395.71
M94 F1788
G41 D21
N88 M07
G01 X1359.26 Y-395.62
M50
G03 X1356.60 Y-387.81 I-9.82 J1.01
G03 X1338.00 Y-384.79 I-10.90 J-8.39
G03 X1333.66 Y-402.27 I7.36 J-11.11
G03 X1351.62 Y-407.81 I11.88 J6.64
G03 X1358.48 Y-400.55 I-5.77 J12.32
G01 X1359.29 Y-397.30
G01 X1359.26 Y-395.62
G01 X1359.23 Y-393.95
M08
G40
M51
M93
G00 X1708.62 Y-497.78
M94 F1719
G41 D21
N89 M07
G01 X1712.58 Y-493.82
M50
G03 X1703.17 Y-489.92 I-9.40 J-9.40
G03 X1689.87 Y-503.22 I0.00 J-13.30
G03 X1703.17 Y-516.52 I13.30 J-0.00
G03 X1716.47 Y-503.22 I0.00 J13.30
G03 X1712.58 Y-493.82 I-13.30 J0.00
G03 X1710.90 Y-492.40 I-9.40 J-9.40
M08
G40
M51
M93
G00 X1708.34 Y-205.65
M94 F1719
G41 D21
N90 M07
G01 X1712.30 Y-209.61
M50
G03 X1716.07 Y-200.49 I-9.12 J9.12
G03 X1703.17 Y-187.59 I-12.90 J-0.00
G03 X1690.27 Y-200.49 I0.00 J-12.90
G03 X1703.17 Y-213.39 I12.90 J0.00
G03 X1712.30 Y-209.61 I0.00 J12.90
G03 X1713.71 Y-207.93 I-9.12 J9.12
M08
G40
M51
M93
G00 X1708.62 Y-811.41
M94 F1719
G41 D21
N91 M07
G01 X1712.58 Y-815.36
M50
G03 X1716.47 Y-805.96 I-9.40 J9.40
G03 X1703.17 Y-792.66 I-13.30 J0.00
G03 X1689.87 Y-805.96 I0.00 J-13.30
G03 X1703.17 Y-819.26 I13.30 J0.00
G03 X1712.58 Y-815.36 I0.00 J13.30
G03 X1714.00 Y-813.69 I-9.40 J9.40
M08
G40
M51
M93
G00 X1708.62 Y-1114.14
M94 F1719
G41 D21
N92 M07
G01 X1712.58 Y-1118.10
M50
G03 X1716.47 Y-1108.70 I-9.40 J9.40
G03 X1703.17 Y-1095.40 I-13.30 J-0.00
G03 X1689.87 Y-1108.70 I0.00 J-13.30
G03 X1703.17 Y-1122.00 I13.30 J0.00
G03 X1712.58 Y-1118.10 I0.00 J13.30
G03 X1714.00 Y-1116.42 I-9.40 J9.40
M08
G40
M51
M93
G00 X1798.14 Y-948.48
M94 F2750
G41 D21
N93 M07
G01 X1798.14 Y-954.08
G01 X1798.14 Y-984.08
G01 X1764.64 Y-984.08
G03 X1754.64 Y-994.08 I0.00 J-10.00
G01 X1754.64 Y-1205.37
G01 X1220.60 Y-1205.37
G01 X1220.60 Y-994.08
G03 X1210.60 Y-984.08 I-10.00 J0.00
G01 X1177.10 Y-984.08
G01 X1177.10 Y-954.08
G01 X1210.60 Y-954.08
G03 X1220.60 Y-944.08 I0.00 J10.00
G01 X1220.60 Y-621.31
G03 X1210.60 Y-611.31 I-10.00 J0.00
G01 X1177.10 Y-611.31
G01 X1177.10 Y-582.26
G03 X1191.51 Y-575.47 I-1.27 J21.40
G03 X1200.23 Y-559.67 I-20.62 J21.67
G03 X1193.57 Y-527.43 I-37.87 J9.00
G03 X1179.82 Y-518.77 I-20.63 J-17.55
G01 X1177.10 Y-518.40
G01 X1177.10 Y-489.34
G01 X1210.60 Y-489.34
G03 X1220.60 Y-479.34 I0.00 J10.00
G01 X1220.60 Y-156.58
G03 X1210.60 Y-146.58 I-10.00 J0.00
G01 X1177.10 Y-146.58
G01 X1177.10 Y-11.60
G01 X1231.85 Y-11.60
G02 X1235.83 Y-12.95 I0.28 J-5.69
G02 X1239.28 Y-15.72 I-7.31 J-12.66
G02 X1239.81 Y-16.20 I-90.64 J-100.53
G01 X1320.10 Y-70.97
G03 X1321.35 Y-72.09 I1409.09 J1566.04
G01 X1404.92 Y-127.38
G03 X1406.17 Y-128.44 I34.02 J39.00
G01 X1482.15 Y-174.12
G03 X1485.74 Y-176.23 I12.82 J17.73
G03 X1490.35 Y-175.89 I1.84 J6.52
G03 X1493.09 Y-174.12 I-3.92 J9.06
G01 X1569.07 Y-128.44
G03 X1570.32 Y-127.38 I-15.76 J19.91
G01 X1653.89 Y-72.09
G03 X1655.14 Y-70.97 I-35.99 J41.29
G01 X1735.42 Y-16.20
G02 X1739.16 Y-13.11 I622.62 J-748.54
G02 X1742.85 Y-11.62 I6.75 J-11.46
G02 X1743.39 Y-11.60 I0.55 J-5.41
G01 X1798.14 Y-11.60
G01 X1798.14 Y-146.58
G01 X1764.64 Y-146.58
G03 X1754.64 Y-156.58 I0.00 J-10.00
G01 X1754.64 Y-479.34
G03 X1764.64 Y-489.34 I10.00 J0.00
G01 X1798.14 Y-489.34
G01 X1798.14 Y-518.40
G03 X1783.72 Y-525.18 I1.27 J-21.40
G03 X1775.01 Y-540.98 I20.62 J-21.67
G03 X1781.66 Y-573.23 I37.87 J-9.00
G03 X1795.42 Y-581.88 I20.63 J17.55
G01 X1798.14 Y-582.26
G01 X1798.14 Y-611.31
G01 X1764.64 Y-611.31
G03 X1754.64 Y-621.31 I0.00 J-10.00
G01 X1754.64 Y-944.08
G03 X1764.64 Y-954.08 I10.00 J0.00
G01 X1797.04 Y-954.08
M50
G01 X1798.14 Y-954.08
G03 X1800.14 Y-952.08 I0.00 J2.00
M08
G40
M51
M93
G00 X2072.83 Y-135.17
M94 F1581
G41 D21
N94 M07
G01 X2075.14 Y-135.17
M50
G01 X2075.14 Y-107.67
G03 X2072.14 Y-104.67 I-3.00 J0.00
G03 X2069.14 Y-107.67 I0.00 J-3.00
G01 X2069.14 Y-162.67
G03 X2072.14 Y-165.67 I3.00 J0.00
G03 X2075.14 Y-162.67 I0.00 J3.00
G01 X2075.14 Y-135.17
G01 X2075.14 Y-132.97
M08
G40
M51
M93
G00 X2072.83 Y-281.57
M94 F1581
G41 D21
N95 M07
G01 X2075.14 Y-281.57
M50
G01 X2075.14 Y-254.07
G03 X2072.14 Y-251.07 I-3.00 J0.00
G03 X2069.14 Y-254.07 I0.00 J-3.00
G01 X2069.14 Y-309.07
G03 X2072.14 Y-312.07 I3.00 J0.00
G03 X2075.14 Y-309.07 I0.00 J3.00
G01 X2075.14 Y-281.57
G01 X2075.14 Y-279.37
M08
G40
M51
M93
G00 X2072.83 Y-427.97
M94 F1581
G41 D21
N96 M07
G01 X2075.14 Y-427.97
M50
G01 X2075.14 Y-400.47
G03 X2072.14 Y-397.47 I-3.00 J0.00
G03 X2069.14 Y-400.47 I0.00 J-3.00
G01 X2069.14 Y-455.47
G03 X2072.14 Y-458.47 I3.00 J0.00
G03 X2075.14 Y-455.47 I0.00 J3.00
G01 X2075.14 Y-427.97
G01 X2075.14 Y-425.77
M08
G40
M51
M93
G00 X2072.83 Y-574.37
M94 F1581
G41 D21
N97 M07
G01 X2075.14 Y-574.37
M50
G01 X2075.14 Y-546.87
G03 X2072.14 Y-543.87 I-3.00 J0.00
G03 X2069.14 Y-546.87 I0.00 J-3.00
G01 X2069.14 Y-601.87
G03 X2072.14 Y-604.87 I3.00 J0.00
G03 X2075.14 Y-601.87 I0.00 J3.00
G01 X2075.14 Y-574.37
G01 X2075.14 Y-572.17
M08
G40
M51
M93
G00 X2072.83 Y-720.77
M94 F1581
G41 D21
N98 M07
G01 X2075.14 Y-720.77
M50
G01 X2075.14 Y-693.27
G03 X2072.14 Y-690.27 I-3.00 J0.00
G03 X2069.14 Y-693.27 I0.00 J-3.00
G01 X2069.14 Y-748.27
G03 X2072.14 Y-751.27 I3.00 J0.00
G03 X2075.14 Y-748.27 I0.00 J3.00
G01 X2075.14 Y-720.77
G01 X2075.14 Y-718.57
M08
G40
M51
M93
G00 X2072.83 Y-867.17
M94 F1581
G41 D21
N99 M07
G01 X2075.14 Y-867.17
M50
G01 X2075.14 Y-839.67
G03 X2072.14 Y-836.67 I-3.00 J0.00
G03 X2069.14 Y-839.67 I0.00 J-3.00
G01 X2069.14 Y-894.67
G03 X2072.14 Y-897.67 I3.00 J0.00
G03 X2075.14 Y-894.67 I0.00 J3.00
G01 X2075.14 Y-867.17
G01 X2075.14 Y-864.97
M08
G40
M51
M93
G00 X2072.83 Y-1013.57
M94 F1581
G41 D21
N100 M07
G01 X2075.14 Y-1013.57
M50
G01 X2075.14 Y-986.07
G03 X2072.14 Y-983.07 I-3.00 J0.00
G03 X2069.14 Y-986.07 I-0.00 J-3.00
G01 X2069.14 Y-1041.07
G03 X2072.14 Y-1044.07 I3.00 J0.00
G03 X2075.14 Y-1041.07 I0.00 J3.00
G01 X2075.14 Y-1013.57
G01 X2075.14 Y-1011.37
M08
G40
M51
M93
G00 X2072.83 Y-940.37
M94 F1581
G41 D21
N101 M07
G01 X2075.14 Y-940.37
M50
G01 X2075.14 Y-912.87
G03 X2072.14 Y-909.87 I-3.00 J0.00
G03 X2069.14 Y-912.87 I0.00 J-3.00
G01 X2069.14 Y-967.87
G03 X2072.14 Y-970.87 I3.00 J-0.00
G03 X2075.14 Y-967.87 I-0.00 J3.00
G01 X2075.14 Y-940.37
G01 X2075.14 Y-938.17
M08
G40
M51
M93
G00 X2072.83 Y-793.97
M94 F1581
G41 D21
N102 M07
G01 X2075.14 Y-793.97
M50
G01 X2075.14 Y-766.47
G03 X2072.14 Y-763.47 I-3.00 J0.00
G03 X2069.14 Y-766.47 I0.00 J-3.00
G01 X2069.14 Y-821.47
G03 X2072.14 Y-824.47 I3.00 J0.00
G03 X2075.14 Y-821.47 I0.00 J3.00
G01 X2075.14 Y-793.97
G01 X2075.14 Y-791.77
M08
G40
M51
M93
G00 X2072.83 Y-647.57
M94 F1581
G41 D21
N103 M07
G01 X2075.14 Y-647.57
M50
G01 X2075.14 Y-620.07
G03 X2072.14 Y-617.07 I-3.00 J0.00
G03 X2069.14 Y-620.07 I0.00 J-3.00
G01 X2069.14 Y-675.07
G03 X2072.14 Y-678.07 I3.00 J0.00
G03 X2075.14 Y-675.07 I0.00 J3.00
G01 X2075.14 Y-647.57
G01 X2075.14 Y-645.37
M08
G40
M51
M93
G00 X2072.83 Y-501.17
M94 F1581
G41 D21
N104 M07
G01 X2075.14 Y-501.17
M50
G01 X2075.14 Y-473.67
G03 X2072.14 Y-470.67 I-3.00 J0.00
G03 X2069.14 Y-473.67 I0.00 J-3.00
G01 X2069.14 Y-528.67
G03 X2072.14 Y-531.67 I3.00 J0.00
G03 X2075.14 Y-528.67 I0.00 J3.00
G01 X2075.14 Y-501.17
G01 X2075.14 Y-498.97
M08
G40
M51
M93
G00 X2072.83 Y-354.77
M94 F1581
G41 D21
N105 M07
G01 X2075.14 Y-354.77
M50
G01 X2075.14 Y-327.27
G03 X2072.14 Y-324.27 I-3.00 J0.00
G03 X2069.14 Y-327.27 I0.00 J-3.00
G01 X2069.14 Y-382.27
G03 X2072.14 Y-385.27 I3.00 J0.00
G03 X2075.14 Y-382.27 I0.00 J3.00
G01 X2075.14 Y-354.77
G01 X2075.14 Y-352.57
M08
G40
M51
M93
G00 X2072.83 Y-208.37
M94 F1581
G41 D21
N106 M07
G01 X2075.14 Y-208.37
M50
G01 X2075.14 Y-180.87
G03 X2072.14 Y-177.87 I-3.00 J0.00
G03 X2069.14 Y-180.87 I0.00 J-3.00
G01 X2069.14 Y-235.87
G03 X2072.14 Y-238.87 I3.00 J0.00
G03 X2075.14 Y-235.87 I0.00 J3.00
G01 X2075.14 Y-208.37
G01 X2075.14 Y-206.17
M08
G40
M51
M93
G00 X2072.83 Y-61.97
M94 F1581
G41 D21
N107 M07
G01 X2075.14 Y-61.97
M50
G01 X2075.14 Y-34.47
G03 X2072.14 Y-31.47 I-3.00 J0.00
G03 X2069.14 Y-34.47 I0.00 J-3.00
G01 X2069.14 Y-89.47
G03 X2072.14 Y-92.47 I3.00 J0.00
G03 X2075.14 Y-89.47 I0.00 J3.00
G01 X2075.14 Y-61.97
G01 X2075.14 Y-59.77
M08
G40
M51
M93
G00 X1938.18 Y-832.67
M94 F1788
G41 D21
N108 M07
G01 X1943.78 Y-832.58
M50
G03 X1941.12 Y-824.77 I-9.82 J1.01
G03 X1922.53 Y-821.75 I-10.90 J-8.39
G03 X1918.18 Y-839.22 I7.36 J-11.11
G03 X1936.14 Y-844.76 I11.88 J6.64
G03 X1943.00 Y-837.51 I-5.77 J12.32
G01 X1943.81 Y-834.25
G01 X1943.78 Y-832.58
G01 X1943.75 Y-830.90
M08
G40
M51
M93
G00 X1932.37 Y-1127.15
M94 F1788
G41 D21
N109 M07
G01 X1937.97 Y-1127.05
M50
G03 X1935.31 Y-1119.24 I-9.82 J1.01
G03 X1916.71 Y-1116.23 I-10.90 J-8.39
G03 X1912.37 Y-1133.70 I7.36 J-11.11
G03 X1930.33 Y-1139.24 I11.88 J6.64
G03 X1937.19 Y-1131.99 I-5.77 J12.32
G01 X1938.00 Y-1128.73
G01 X1937.97 Y-1127.05
G01 X1937.94 Y-1125.38
M08
G40
M51
M93
G00 X1938.18 Y-529.93
M94 F1788
G41 D21
N110 M07
G01 X1943.78 Y-529.84
M50
G03 X1941.12 Y-522.03 I-9.82 J1.01
G03 X1922.53 Y-519.01 I-10.90 J-8.39
G03 X1918.18 Y-536.49 I7.36 J-11.11
G03 X1936.14 Y-542.03 I11.88 J6.64
G03 X1943.00 Y-534.77 I-5.77 J12.32
G01 X1943.81 Y-531.52
G01 X1943.78 Y-529.84
G01 X1943.75 Y-528.17
M08
G40
M51
M93
G00 X1938.18 Y-227.20
M94 F1788
G41 D21
N111 M07
G01 X1943.78 Y-227.11
M50
G03 X1941.12 Y-219.29 I-9.82 J1.01
G03 X1922.53 Y-216.28 I-10.90 J-8.39
G03 X1918.18 Y-233.75 I7.36 J-11.11
G03 X1936.14 Y-239.29 I11.88 J6.64
G03 X1943.00 Y-232.04 I-5.77 J12.32
G01 X1943.81 Y-228.78
G01 X1943.78 Y-227.11
G01 X1943.75 Y-225.43
M08
G40
M51
M93
G00 X2293.14 Y-114.48
M94 F1719
G41 D21
N112 M07
G01 X2297.10 Y-110.52
M50
G03 X2287.69 Y-106.62 I-9.40 J-9.40
G03 X2274.39 Y-119.92 I0.00 J-13.30
G03 X2287.69 Y-133.22 I13.30 J0.00
G03 X2300.99 Y-119.92 I0.00 J13.30
G03 X2297.10 Y-110.52 I-13.30 J-0.00
G03 X2295.42 Y-109.10 I-9.40 J-9.40
M08
G40
M51
M93
G00 X2293.14 Y-417.21
M94 F1719
G41 D21
N113 M07
G01 X2297.10 Y-413.25
M50
G03 X2287.69 Y-409.36 I-9.40 J-9.40
G03 X2274.39 Y-422.66 I0.00 J-13.30
G03 X2287.69 Y-435.96 I13.30 J0.00
G03 X2300.99 Y-422.66 I0.00 J13.30
G03 X2297.10 Y-413.25 I-13.30 J-0.00
G03 X2295.42 Y-411.83 I-9.40 J-9.40
M08
G40
M51
M93
G00 X2292.86 Y-1022.97
M94 F1719
G41 D21
N114 M07
G01 X2296.82 Y-1019.01
M50
G03 X2287.69 Y-1015.23 I-9.12 J-9.12
G03 X2274.79 Y-1028.13 I-0.00 J-12.90
G03 X2287.69 Y-1041.03 I12.90 J0.00
G03 X2300.59 Y-1028.13 I0.00 J12.90
G03 X2296.82 Y-1019.01 I-12.90 J0.00
G03 X2295.13 Y-1017.59 I-9.12 J-9.12
M08
G40
M51
M93
G00 X2293.14 Y-719.95
M94 F1719
G41 D21
N115 M07
G01 X2297.10 Y-715.99
M50
G03 X2287.69 Y-712.09 I-9.40 J-9.40
G03 X2274.39 Y-725.39 I0.00 J-13.30
G03 X2287.69 Y-738.69 I13.30 J0.00
G03 X2300.99 Y-725.39 I0.00 J13.30
G03 X2297.10 Y-715.99 I-13.30 J-0.00
G03 X2295.42 Y-714.57 I-9.40 J-9.40
M08
G40
M51
M93
G00 X2222.08 Y-228.13
M94 F1788
G41 D21
N116 M07
G01 X2227.65 Y-228.77
M50
G03 X2226.10 Y-220.88 I-9.81 J2.18
G03 X2208.14 Y-215.34 I-11.88 J-6.64
G03 X2201.44 Y-232.43 I5.83 J-12.14
G03 X2218.67 Y-239.85 I12.46 J5.21
G03 X2226.30 Y-233.38 I-4.45 J12.99
G01 X2227.48 Y-230.23
G01 X2227.65 Y-228.77
G01 X2227.81 Y-227.31
M08
G40
M51
M93
G00 X2222.08 Y-530.87
M94 F1788
G41 D21
N117 M07
G01 X2227.65 Y-531.51
M50
G03 X2226.10 Y-523.61 I-9.81 J2.18
G03 X2208.14 Y-518.07 I-11.88 J-6.64
G03 X2201.44 Y-535.16 I5.83 J-12.14
G03 X2218.67 Y-542.59 I12.46 J5.21
G03 X2226.30 Y-536.12 I-4.45 J12.99
G01 X2227.48 Y-532.97
G01 X2227.65 Y-531.51
G01 X2227.81 Y-530.05
M08
G40
M51
M93
G00 X2227.89 Y-1128.08
M94 F1788
G41 D21
N118 M07
G01 X2233.46 Y-1128.72
M50
G03 X2231.91 Y-1120.83 I-9.81 J2.18
G03 X2213.95 Y-1115.29 I-11.88 J-6.64
G03 X2207.25 Y-1132.38 I5.83 J-12.14
G03 X2224.48 Y-1139.80 I12.46 J5.21
G03 X2232.11 Y-1133.33 I-4.45 J12.99
G01 X2233.29 Y-1130.18
G01 X2233.46 Y-1128.72
G01 X2233.62 Y-1127.26
M08
G40
M51
M93
G00 X2222.08 Y-833.61
M94 F1788
G41 D21
N119 M07
G01 X2227.65 Y-834.24
M50
G03 X2226.10 Y-826.35 I-9.81 J2.18
G03 X2208.14 Y-820.81 I-11.88 J-6.64
G03 X2201.44 Y-837.90 I5.83 J-12.14
G03 X2218.67 Y-845.33 I12.46 J5.21
G03 X2226.30 Y-838.85 I-4.45 J12.99
G01 X2227.48 Y-835.70
G01 X2227.65 Y-834.24
G01 X2227.81 Y-832.79
M08
G40
M51
M93
G00 X1862.03 Y-719.95
M94 F1719
G41 D21
N120 M07
G01 X1865.99 Y-715.99
M50
G03 X1856.58 Y-712.09 I-9.40 J-9.40
G03 X1843.28 Y-725.39 I0.00 J-13.30
G03 X1856.58 Y-738.69 I13.30 J0.00
G03 X1869.88 Y-725.39 I0.00 J13.30
G03 X1865.99 Y-715.99 I-13.30 J0.00
G03 X1864.31 Y-714.57 I-9.40 J-9.40
M08
G40
M51
M93
G00 X1861.75 Y-1033.29
M94 F1719
G41 D21
N121 M07
G01 X1865.71 Y-1037.25
M50
G03 X1869.48 Y-1028.13 I-9.12 J9.12
G03 X1856.58 Y-1015.23 I-12.90 J0.00
G03 X1843.68 Y-1028.13 I0.00 J-12.90
G03 X1856.58 Y-1041.03 I12.90 J0.00
G03 X1865.71 Y-1037.25 I0.00 J12.90
G03 X1867.12 Y-1035.57 I-9.12 J9.12
M08
G40
M51
M93
G00 X1862.03 Y-428.10
M94 F1719
G41 D21
N122 M07
G01 X1865.99 Y-432.06
M50
G03 X1869.88 Y-422.66 I-9.40 J9.40
G03 X1856.58 Y-409.36 I-13.30 J0.00
G03 X1843.28 Y-422.66 I0.00 J-13.30
G03 X1856.58 Y-435.96 I13.30 J-0.00
G03 X1865.99 Y-432.06 I0.00 J13.30
G03 X1867.41 Y-430.38 I-9.40 J9.40
M08
G40
M51
M93
G00 X1862.03 Y-114.48
M94 F1719
G41 D21
N123 M07
G01 X1865.99 Y-110.52
M50
G03 X1856.58 Y-106.62 I-9.40 J-9.40
G03 X1843.28 Y-119.92 I0.00 J-13.30
G03 X1856.58 Y-133.22 I13.30 J-0.00
G03 X1869.88 Y-119.92 I0.00 J13.30
G03 X1865.99 Y-110.52 I-13.30 J0.00
G03 X1864.31 Y-109.10 I-9.40 J-9.40
M08
G40
M51
M93
G00 X2382.66 Y-1076.44
M94 F2750
G41 D21
N124 M07
G01 X2382.66 Y-1082.04
G01 X2382.66 Y-1217.02
G01 X2327.91 Y-1217.02
G02 X2323.93 Y-1215.67 I-0.28 J5.69
G02 X2320.48 Y-1212.90 I7.31 J12.66
G02 X2319.94 Y-1212.42 I90.64 J100.53
G01 X2239.66 Y-1157.65
G03 X2238.41 Y-1156.53 I-1409.09 J-1566.04
G01 X2154.84 Y-1101.23
G03 X2153.59 Y-1100.18 I-34.02 J-39.00
G01 X2077.61 Y-1054.50
G03 X2074.02 Y-1052.39 I-12.82 J-17.73
G03 X2069.40 Y-1052.73 I-1.84 J-6.52
G03 X2066.67 Y-1054.50 I3.92 J-9.06
G01 X1990.69 Y-1100.18
G03 X1989.44 Y-1101.23 I15.76 J-19.91
G01 X1905.87 Y-1156.53
G03 X1904.62 Y-1157.65 I35.99 J-41.29
G01 X1824.33 Y-1212.42
G02 X1820.59 Y-1215.51 I-622.62 J748.54
G02 X1816.91 Y-1216.99 I-6.75 J11.46
G02 X1816.37 Y-1217.02 I-0.55 J5.41
G01 X1761.62 Y-1217.02
G01 X1761.62 Y-1082.04
G01 X1795.12 Y-1082.04
G03 X1805.12 Y-1072.04 I0.00 J10.00
G01 X1805.12 Y-749.28
G03 X1795.12 Y-739.28 I-10.00 J0.00
G01 X1761.62 Y-739.28
G01 X1761.62 Y-710.22
G03 X1776.03 Y-703.43 I-1.27 J21.40
G03 X1784.75 Y-687.63 I-20.62 J21.67
G03 X1778.09 Y-655.39 I-37.87 J9.00
G03 X1764.34 Y-646.74 I-20.63 J-17.55
G01 X1761.62 Y-646.36
G01 X1761.62 Y-617.31
G01 X1795.12 Y-617.31
G03 X1805.12 Y-607.31 I0.00 J10.00
G01 X1805.12 Y-284.54
G03 X1795.12 Y-274.54 I-10.00 J0.00
G01 X1761.62 Y-274.54
G01 X1761.62 Y-244.54
G01 X1795.12 Y-244.54
G03 X1805.12 Y-234.54 I0.00 J10.00
G01 X1805.12 Y-23.25
G01 X2339.16 Y-23.25
G01 X2339.16 Y-234.54
G03 X2349.16 Y-244.54 I10.00 J0.00
G01 X2382.66 Y-244.54
G01 X2382.66 Y-274.54
G01 X2349.16 Y-274.54
G03 X2339.16 Y-284.54 I0.00 J-10.00
G01 X2339.16 Y-607.31
G03 X2349.16 Y-617.31 I10.00 J0.00
G01 X2382.66 Y-617.31
G01 X2382.66 Y-646.36
G03 X2368.24 Y-653.15 I1.27 J-21.40
G03 X2359.53 Y-668.95 I20.62 J-21.67
G03 X2366.18 Y-701.19 I37.87 J-9.00
G03 X2379.94 Y-709.84 I20.63 J17.55
G01 X2382.66 Y-710.22
G01 X2382.66 Y-739.28
G01 X2349.16 Y-739.28
G03 X2339.16 Y-749.28 I0.00 J-10.00
G01 X2339.16 Y-1072.04
G03 X2349.16 Y-1082.04 I10.00 J0.00
G01 X2381.56 Y-1082.04
M50
G01 X2382.66 Y-1082.04
G03 X2384.66 Y-1080.04 I0.00 J2.00
M08
G40
M51
M93
(PlanFooterCommand)
M64
T0
M65
#CS OFF
M30
