(PP_NAME=	  PP_Din)
(PP_VERSION=	  4.0)
(PP_INI_NAME=	  GC_PLASMA_4.5.ini)
(PP_INI_VERSION=  2014-02-26)
(PLANNAME=        vange 1)
(MACHINE= 	  PowerMAX105_MS_45)
(MATERIAL= 	  S235JR)
(THICKNESS= 	  3)
#CONTOUR MODE [DEV PATH_DEV=0.2 RELEVANT_PATH=0.1]
#TRC [CONV_CIR_TO_LIN=1]
G71
G90
#CS ON [V.A.ABS.X, V.A.ABS.Y, 0, 0, 0, V.E.ROTATION]
M190
G162
G141
G237
G00 X39.96 Y-118.30
M64
T21
M65
M94 F2750
G41 D21
N1 M07
G01 X36.00 Y-122.26
G01 X32.17 Y-126.09
G01 X10.00 Y-126.09
G01 X10.00 Y-10.09
G01 X31.52 Y-10.09
G01 X36.00 Y-14.00
G01 X36.00 Y-121.16
M50
G01 X36.00 Y-122.26
G03 X38.00 Y-124.26 I2.00 J0.00
M08
G40
M51
M93
G00 X625.12 Y-118.30
M94 F2750
G41 D21
N2 M07
G01 X621.16 Y-122.26
G01 X617.33 Y-126.09
G01 X595.16 Y-126.09
G01 X595.16 Y-10.09
G01 X616.67 Y-10.09
G01 X621.16 Y-14.00
G01 X621.16 Y-121.16
M50
G01 X621.16 Y-122.26
G03 X623.16 Y-124.26 I2.00 J0.00
M08
G40
M51
M93
G00 X622.11 Y-281.32
M94 F2750
G41 D21
N3 M07
G01 X616.51 Y-281.32
G01 X594.99 Y-281.32
G01 X590.51 Y-277.41
G01 X590.51 Y-169.15
G01 X594.34 Y-165.32
G01 X616.51 Y-165.32
G01 X616.51 Y-280.22
M50
G01 X616.51 Y-281.32
G03 X618.51 Y-283.32 I2.00 J0.00
M08
G40
M51
M93
G00 X620.47 Y-392.49
M94 F2750
G41 D21
N4 M07
G01 X616.51 Y-396.45
G01 X612.68 Y-400.27
G01 X590.51 Y-400.27
G01 X590.51 Y-284.27
G01 X612.03 Y-284.27
G01 X616.51 Y-288.18
G01 X616.51 Y-395.35
M50
G01 X616.51 Y-396.45
G03 X618.51 Y-398.45 I2.00 J0.00
M08
G40
M51
M93
G00 X622.11 Y-746.43
M94 F2750
G41 D21
N5 M07
G01 X616.51 Y-746.43
G01 X594.99 Y-746.43
G01 X590.51 Y-742.52
G01 X590.51 Y-634.25
G01 X594.34 Y-630.43
G01 X616.51 Y-630.43
G01 X616.51 Y-745.33
M50
G01 X616.51 Y-746.43
G03 X618.51 Y-748.43 I2.00 J0.00
M08
G40
M51
M93
G00 X620.47 Y-857.59
M94 F2750
G41 D21
N6 M07
G01 X616.51 Y-861.55
G01 X612.68 Y-865.38
G01 X590.51 Y-865.38
G01 X590.51 Y-749.38
G01 X612.03 Y-749.38
G01 X616.51 Y-753.29
G01 X616.51 Y-860.45
M50
G01 X616.51 Y-861.55
G03 X618.51 Y-863.55 I2.00 J0.00
M08
G40
M51
M93
G00 X622.11 Y-1119.36
M94 F2750
G41 D21
N7 M07
G01 X616.51 Y-1119.36
G01 X594.99 Y-1119.36
G01 X590.51 Y-1115.45
G01 X590.51 Y-1007.19
G01 X594.34 Y-1003.36
G01 X616.51 Y-1003.36
G01 X616.51 Y-1118.26
M50
G01 X616.51 Y-1119.36
G03 X618.51 Y-1121.36 I2.00 J0.00
M08
G40
M51
M93
G00 X321.21 Y-124.51
M94 F1581
G41 D21
N8 M07
G01 X323.52 Y-124.51
M50
G01 X323.52 Y-96.11
G03 X320.52 Y-93.11 I-3.00 J0.00
G03 X317.52 Y-96.11 I0.00 J-3.00
G01 X317.52 Y-152.91
G03 X320.52 Y-155.91 I3.00 J0.00
G03 X323.52 Y-152.91 I0.00 J3.00
G01 X323.52 Y-124.51
G01 X323.52 Y-122.31
M08
G40
M51
M93
G00 X321.21 Y-275.23
M94 F1581
G41 D21
N9 M07
G01 X323.52 Y-275.23
M50
G01 X323.52 Y-246.83
G03 X320.52 Y-243.83 I-3.00 J0.00
G03 X317.52 Y-246.83 I0.00 J-3.00
G01 X317.52 Y-303.63
G03 X320.52 Y-306.63 I3.00 J0.00
G03 X323.52 Y-303.63 I0.00 J3.00
G01 X323.52 Y-275.23
G01 X323.52 Y-273.03
M08
G40
M51
M93
G00 X321.21 Y-425.95
M94 F1581
G41 D21
N10 M07
G01 X323.52 Y-425.95
M50
G01 X323.52 Y-397.55
G03 X320.52 Y-394.55 I-3.00 J0.00
G03 X317.52 Y-397.55 I0.00 J-3.00
G01 X317.52 Y-454.35
G03 X320.52 Y-457.35 I3.00 J0.00
G03 X323.52 Y-454.35 I0.00 J3.00
G01 X323.52 Y-425.95
G01 X323.52 Y-423.75
M08
G40
M51
M93
G00 X321.21 Y-576.67
M94 F1581
G41 D21
N11 M07
G01 X323.52 Y-576.67
M50
G01 X323.52 Y-548.27
G03 X320.52 Y-545.27 I-3.00 J0.00
G03 X317.52 Y-548.27 I0.00 J-3.00
G01 X317.52 Y-605.07
G03 X320.52 Y-608.07 I3.00 J0.00
G03 X323.52 Y-605.07 I0.00 J3.00
G01 X323.52 Y-576.67
G01 X323.52 Y-574.47
M08
G40
M51
M93
G00 X321.21 Y-727.39
M94 F1581
G41 D21
N12 M07
G01 X323.52 Y-727.39
M50
G01 X323.52 Y-698.99
G03 X320.52 Y-695.99 I-3.00 J0.00
G03 X317.52 Y-698.99 I0.00 J-3.00
G01 X317.52 Y-755.79
G03 X320.52 Y-758.79 I3.00 J0.00
G03 X323.52 Y-755.79 I0.00 J3.00
G01 X323.52 Y-727.39
G01 X323.52 Y-725.19
M08
G40
M51
M93
G00 X321.21 Y-878.11
M94 F1581
G41 D21
N13 M07
G01 X323.52 Y-878.11
M50
G01 X323.52 Y-849.71
G03 X320.52 Y-846.71 I-3.00 J0.00
G03 X317.52 Y-849.71 I0.00 J-3.00
G01 X317.52 Y-906.51
G03 X320.52 Y-909.51 I3.00 J0.00
G03 X323.52 Y-906.51 I0.00 J3.00
G01 X323.52 Y-878.11
G01 X323.52 Y-875.91
M08
G40
M51
M93
G00 X321.21 Y-1028.83
M94 F1581
G41 D21
N14 M07
G01 X323.52 Y-1028.83
M50
G01 X323.52 Y-1000.43
G03 X320.52 Y-997.43 I-3.00 J0.00
G03 X317.52 Y-1000.43 I0.00 J-3.00
G01 X317.52 Y-1057.23
G03 X320.52 Y-1060.23 I3.00 J0.00
G03 X323.52 Y-1057.23 I0.00 J3.00
G01 X323.52 Y-1028.83
G01 X323.52 Y-1026.63
M08
G40
M51
M93
G00 X321.21 Y-1179.55
M94 F1581
G41 D21
N15 M07
G01 X323.52 Y-1179.55
M50
G01 X323.52 Y-1151.15
G03 X320.52 Y-1148.15 I-3.00 J0.00
G03 X317.52 Y-1151.15 I-0.00 J-3.00
G01 X317.52 Y-1207.95
G03 X320.52 Y-1210.95 I3.00 J0.00
G03 X323.52 Y-1207.95 I0.00 J3.00
G01 X323.52 Y-1179.55
G01 X323.52 Y-1177.35
M08
G40
M51
M93
G00 X321.21 Y-1104.19
M94 F1581
G41 D21
N16 M07
G01 X323.52 Y-1104.19
M50
G01 X323.52 Y-1075.79
G03 X320.52 Y-1072.79 I-3.00 J0.00
G03 X317.52 Y-1075.79 I0.00 J-3.00
G01 X317.52 Y-1132.59
G03 X320.52 Y-1135.59 I3.00 J0.00
G03 X323.52 Y-1132.59 I0.00 J3.00
G01 X323.52 Y-1104.19
G01 X323.52 Y-1101.99
M08
G40
M51
M93
G00 X321.21 Y-953.47
M94 F1581
G41 D21
N17 M07
G01 X323.52 Y-953.47
M50
G01 X323.52 Y-925.07
G03 X320.52 Y-922.07 I-3.00 J0.00
G03 X317.52 Y-925.07 I0.00 J-3.00
G01 X317.52 Y-981.87
G03 X320.52 Y-984.87 I3.00 J0.00
G03 X323.52 Y-981.87 I0.00 J3.00
G01 X323.52 Y-953.47
G01 X323.52 Y-951.27
M08
G40
M51
M93
G00 X321.21 Y-802.75
M94 F1581
G41 D21
N18 M07
G01 X323.52 Y-802.75
M50
G01 X323.52 Y-774.35
G03 X320.52 Y-771.35 I-3.00 J0.00
G03 X317.52 Y-774.35 I0.00 J-3.00
G01 X317.52 Y-831.15
G03 X320.52 Y-834.15 I3.00 J0.00
G03 X323.52 Y-831.15 I0.00 J3.00
G01 X323.52 Y-802.75
G01 X323.52 Y-800.55
M08
G40
M51
M93
G00 X321.21 Y-652.03
M94 F1581
G41 D21
N19 M07
G01 X323.52 Y-652.03
M50
G01 X323.52 Y-623.63
G03 X320.52 Y-620.63 I-3.00 J0.00
G03 X317.52 Y-623.63 I0.00 J-3.00
G01 X317.52 Y-680.43
G03 X320.52 Y-683.43 I3.00 J0.00
G03 X323.52 Y-680.43 I0.00 J3.00
G01 X323.52 Y-652.03
G01 X323.52 Y-649.83
M08
G40
M51
M93
G00 X321.21 Y-501.31
M94 F1581
G41 D21
N20 M07
G01 X323.52 Y-501.31
M50
G01 X323.52 Y-472.91
G03 X320.52 Y-469.91 I-3.00 J0.00
G03 X317.52 Y-472.91 I0.00 J-3.00
G01 X317.52 Y-529.71
G03 X320.52 Y-532.71 I3.00 J0.00
G03 X323.52 Y-529.71 I0.00 J3.00
G01 X323.52 Y-501.31
G01 X323.52 Y-499.11
M08
G40
M51
M93
G00 X321.21 Y-350.59
M94 F1581
G41 D21
N21 M07
G01 X323.52 Y-350.59
M50
G01 X323.52 Y-322.19
G03 X320.52 Y-319.19 I-3.00 J0.00
G03 X317.52 Y-322.19 I0.00 J-3.00
G01 X317.52 Y-378.99
G03 X320.52 Y-381.99 I3.00 J0.00
G03 X323.52 Y-378.99 I0.00 J3.00
G01 X323.52 Y-350.59
G01 X323.52 Y-348.39
M08
G40
M51
M93
G00 X321.21 Y-199.87
M94 F1581
G41 D21
N22 M07
G01 X323.52 Y-199.87
M50
G01 X323.52 Y-171.47
G03 X320.52 Y-168.47 I-3.00 J0.00
G03 X317.52 Y-171.47 I0.00 J-3.00
G01 X317.52 Y-228.27
G03 X320.52 Y-231.27 I3.00 J0.00
G03 X323.52 Y-228.27 I0.00 J3.00
G01 X323.52 Y-199.87
G01 X323.52 Y-197.67
M08
G40
M51
M93
G00 X321.21 Y-49.15
M94 F1581
G41 D21
N23 M07
G01 X323.52 Y-49.15
M50
G01 X323.52 Y-20.75
G03 X320.52 Y-17.75 I-3.00 J0.00
G03 X317.52 Y-20.75 I0.00 J-3.00
G01 X317.52 Y-77.55
G03 X320.52 Y-80.55 I3.00 J0.00
G03 X323.52 Y-77.55 I0.00 J3.00
G01 X323.52 Y-49.15
G01 X323.52 Y-46.95
M08
G40
M51
M93
G00 X470.46 Y-107.50
M94 F1788
G41 D21
N24 M07
G01 X476.03 Y-108.14
M50
G03 X474.48 Y-100.24 I-9.81 J2.18
G03 X456.52 Y-94.70 I-11.88 J-6.64
G03 X449.82 Y-111.79 I5.83 J-12.14
G03 X467.05 Y-119.22 I12.46 J5.21
G03 X474.69 Y-112.74 I-4.45 J12.99
G01 X475.86 Y-109.59
G01 X476.03 Y-108.14
G01 X476.19 Y-106.68
M08
G40
M51
M93
G00 X470.46 Y-410.24
M94 F1788
G41 D21
N25 M07
G01 X476.03 Y-410.87
M50
G03 X474.48 Y-402.98 I-9.81 J2.18
G03 X456.52 Y-397.44 I-11.88 J-6.64
G03 X449.82 Y-414.53 I5.83 J-12.14
G03 X467.05 Y-421.96 I12.46 J5.21
G03 X474.69 Y-415.48 I-4.45 J12.99
G01 X475.86 Y-412.33
G01 X476.03 Y-410.87
G01 X476.19 Y-409.42
M08
G40
M51
M93
G00 X470.46 Y-712.97
M94 F1788
G41 D21
N26 M07
G01 X476.03 Y-713.61
M50
G03 X474.48 Y-705.72 I-9.81 J2.18
G03 X456.52 Y-700.18 I-11.88 J-6.64
G03 X449.82 Y-717.27 I5.83 J-12.14
G03 X467.05 Y-724.69 I12.46 J5.21
G03 X474.69 Y-718.22 I-4.45 J12.99
G01 X475.86 Y-715.07
G01 X476.03 Y-713.61
G01 X476.19 Y-712.15
M08
G40
M51
M93
G00 X470.46 Y-1015.71
M94 F1788
G41 D21
N27 M07
G01 X476.03 Y-1016.35
M50
G03 X474.48 Y-1008.45 I-9.81 J2.18
G03 X456.52 Y-1002.91 I-11.88 J-6.64
G03 X449.82 Y-1020.00 I5.83 J-12.14
G03 X467.05 Y-1027.43 I12.46 J5.21
G03 X474.69 Y-1020.96 I-4.45 J12.99
G01 X475.86 Y-1017.80
G01 X476.03 Y-1016.35
G01 X476.19 Y-1014.89
M08
G40
M51
M93
G00 X271.83 Y-41.32
M94 F1375
G41 D21
N28 M07
G01 X275.79 Y-45.28
M50
G03 X277.77 Y-40.51 I-4.77 J4.77
G03 X271.02 Y-33.76 I-6.75 J0.00
G03 X264.27 Y-40.51 I0.00 J-6.75
G03 X271.02 Y-47.26 I6.75 J0.00
G03 X275.79 Y-45.28 I0.00 J6.75
G03 X277.07 Y-43.50 I-4.77 J4.77
M08
G40
M51
M93
G00 X271.83 Y-93.32
M94 F1375
G41 D21
N29 M07
G01 X275.79 Y-97.28
M50
G03 X277.77 Y-92.51 I-4.77 J4.77
G03 X271.02 Y-85.76 I-6.75 J0.00
G03 X264.27 Y-92.51 I0.00 J-6.75
G03 X271.02 Y-99.26 I6.75 J0.00
G03 X275.79 Y-97.28 I0.00 J6.75
G03 X277.07 Y-95.50 I-4.77 J4.77
M08
G40
M51
M93
G00 X110.13 Y-1117.12
M94 F1719
G41 D21
N30 M07
G01 X114.09 Y-1113.16
M50
G03 X104.97 Y-1109.38 I-9.12 J-9.12
G03 X92.07 Y-1122.28 I0.00 J-12.90
G03 X104.97 Y-1135.18 I12.90 J0.00
G03 X117.87 Y-1122.28 I-0.00 J12.90
G03 X114.09 Y-1113.16 I-12.90 J0.00
G03 X112.41 Y-1111.74 I-9.12 J-9.12
M08
G40
M51
M93
G00 X110.13 Y-814.38
M94 F1719
G41 D21
N31 M07
G01 X114.09 Y-810.42
M50
G03 X104.97 Y-806.64 I-9.12 J-9.12
G03 X92.07 Y-819.54 I-0.00 J-12.90
G03 X104.97 Y-832.44 I12.90 J0.00
G03 X117.87 Y-819.54 I0.00 J12.90
G03 X114.09 Y-810.42 I-12.90 J-0.00
G03 X112.41 Y-809.01 I-9.12 J-9.12
M08
G40
M51
M93
G00 X110.13 Y-521.97
M94 F1719
G41 D21
N32 M07
G01 X114.09 Y-525.93
M50
G03 X117.87 Y-516.81 I-9.12 J9.12
G03 X104.97 Y-503.91 I-12.90 J0.00
G03 X92.07 Y-516.81 I-0.00 J-12.90
G03 X104.97 Y-529.71 I12.90 J0.00
G03 X114.09 Y-525.93 I0.00 J12.90
G03 X115.50 Y-524.25 I-9.12 J9.12
M08
G40
M51
M93
G00 X110.13 Y-219.23
M94 F1719
G41 D21
N33 M07
G01 X114.09 Y-223.19
M50
G03 X117.87 Y-214.07 I-9.12 J9.12
G03 X104.97 Y-201.17 I-12.90 J0.00
G03 X92.07 Y-214.07 I0.00 J-12.90
G03 X104.97 Y-226.97 I12.90 J0.00
G03 X114.09 Y-223.19 I0.00 J12.90
G03 X115.50 Y-221.51 I-9.12 J9.12
M08
G40
M51
M93
G00 X121.33 Y-41.32
M94 F1375
G41 D21
N34 M07
G01 X125.29 Y-45.28
M50
G03 X127.27 Y-40.51 I-4.77 J4.77
G03 X120.52 Y-33.76 I-6.75 J0.00
G03 X113.77 Y-40.51 I0.00 J-6.75
G03 X120.52 Y-47.26 I6.75 J0.00
G03 X125.29 Y-45.28 I0.00 J6.75
G03 X126.57 Y-43.50 I-4.77 J4.77
M08
G40
M51
M93
G00 X121.33 Y-93.32
M94 F1375
G41 D21
N35 M07
G01 X125.29 Y-97.28
M50
G03 X127.27 Y-92.51 I-4.77 J4.77
G03 X120.52 Y-85.76 I-6.75 J0.00
G03 X113.77 Y-92.51 I0.00 J-6.75
G03 X120.52 Y-99.26 I6.75 J0.00
G03 X125.29 Y-97.28 I0.00 J6.75
G03 X126.57 Y-95.50 I-4.77 J4.77
M08
G40
M51
M93
G00 X186.56 Y-1014.77
M94 F1788
G41 D21
N36 M07
G01 X192.16 Y-1014.68
M50
G03 X189.50 Y-1006.87 I-9.82 J1.01
G03 X170.91 Y-1003.85 I-10.90 J-8.39
G03 X166.56 Y-1021.33 I7.36 J-11.11
G03 X184.52 Y-1026.87 I11.88 J6.64
G03 X191.38 Y-1019.61 I-5.77 J12.32
G01 X192.19 Y-1016.36
G01 X192.16 Y-1014.68
G01 X192.13 Y-1013.01
M08
G40
M51
M93
G00 X186.56 Y-712.04
M94 F1788
G41 D21
N37 M07
G01 X192.16 Y-711.94
M50
G03 X189.50 Y-704.13 I-9.82 J1.01
G03 X170.91 Y-701.12 I-10.90 J-8.39
G03 X166.56 Y-718.59 I7.36 J-11.11
G03 X184.52 Y-724.13 I11.88 J6.64
G03 X191.38 Y-716.88 I-5.77 J12.32
G01 X192.19 Y-713.62
G01 X192.16 Y-711.94
G01 X192.13 Y-710.27
M08
G40
M51
M93
G00 X186.56 Y-409.30
M94 F1788
G41 D21
N38 M07
G01 X192.16 Y-409.21
M50
G03 X189.50 Y-401.40 I-9.82 J1.01
G03 X170.91 Y-398.38 I-10.90 J-8.39
G03 X166.56 Y-415.85 I7.36 J-11.11
G03 X184.52 Y-421.39 I11.88 J6.64
G03 X191.38 Y-414.14 I-5.77 J12.32
G01 X192.19 Y-410.88
G01 X192.16 Y-409.21
G01 X192.13 Y-407.53
M08
G40
M51
M93
G00 X186.56 Y-106.56
M94 F1788
G41 D21
N39 M07
G01 X192.16 Y-106.47
M50
G03 X189.50 Y-98.66 I-9.82 J1.01
G03 X170.91 Y-95.64 I-10.90 J-8.39
G03 X166.56 Y-113.11 I7.36 J-11.11
G03 X184.52 Y-118.65 I11.88 J6.64
G03 X191.38 Y-111.40 I-5.77 J12.32
G01 X192.19 Y-108.14
G01 X192.16 Y-106.47
G01 X192.13 Y-104.79
M08
G40
M51
M93
G00 X370.83 Y-93.32
M94 F1375
G41 D21
N40 M07
G01 X374.79 Y-97.28
M50
G03 X376.77 Y-92.51 I-4.77 J4.77
G03 X370.02 Y-85.76 I-6.75 J0.00
G03 X363.27 Y-92.51 I0.00 J-6.75
G03 X370.02 Y-99.26 I6.75 J0.00
G03 X374.79 Y-97.28 I0.00 J6.75
G03 X376.07 Y-95.50 I-4.77 J4.77
M08
G40
M51
M93
G00 X370.83 Y-41.32
M94 F1375
G41 D21
N41 M07
G01 X374.79 Y-45.28
M50
G03 X376.77 Y-40.51 I-4.77 J4.77
G03 X370.02 Y-33.76 I-6.75 J0.00
G03 X363.27 Y-40.51 I0.00 J-6.75
G03 X370.02 Y-47.26 I6.75 J0.00
G03 X374.79 Y-45.28 I0.00 J6.75
G03 X376.07 Y-43.50 I-4.77 J4.77
M08
G40
M51
M93
G00 X521.34 Y-93.32
M94 F1375
G41 D21
N42 M07
G01 X525.29 Y-97.28
M50
G03 X527.27 Y-92.51 I-4.77 J4.77
G03 X520.52 Y-85.76 I-6.75 J0.00
G03 X513.77 Y-92.51 I0.00 J-6.75
G03 X520.52 Y-99.26 I6.75 J0.00
G03 X525.29 Y-97.28 I0.00 J6.75
G03 X526.57 Y-95.50 I-4.77 J4.77
M08
G40
M51
M93
G00 X521.34 Y-39.69
M94 F1375
G41 D21
N43 M07
G01 X525.29 Y-35.73
M50
G03 X520.52 Y-33.76 I-4.77 J-4.77
G03 X513.77 Y-40.51 I0.00 J-6.75
G03 X520.52 Y-47.26 I6.75 J0.00
G03 X527.27 Y-40.51 I0.00 J6.75
G03 X525.29 Y-35.73 I-6.75 J0.00
G03 X523.52 Y-34.46 I-4.77 J-4.77
M08
G40
M51
M93
G00 X541.24 Y-219.23
M94 F1719
G41 D21
N44 M07
G01 X545.20 Y-223.19
M50
G03 X548.98 Y-214.07 I-9.12 J9.12
G03 X536.08 Y-201.17 I-12.90 J0.00
G03 X523.18 Y-214.07 I0.00 J-12.90
G03 X536.08 Y-226.97 I12.90 J0.00
G03 X545.20 Y-223.19 I-0.00 J12.90
G03 X546.61 Y-221.51 I-9.12 J9.12
M08
G40
M51
M93
G00 X541.24 Y-511.65
M94 F1719
G41 D21
N45 M07
G01 X545.20 Y-507.69
M50
G03 X536.08 Y-503.91 I-9.12 J-9.12
G03 X523.18 Y-516.81 I0.00 J-12.90
G03 X536.08 Y-529.71 I12.90 J0.00
G03 X548.98 Y-516.81 I-0.00 J12.90
G03 X545.20 Y-507.69 I-12.90 J-0.00
G03 X543.52 Y-506.27 I-9.12 J-9.12
M08
G40
M51
M93
G00 X541.24 Y-824.71
M94 F1719
G41 D21
N46 M07
G01 X545.20 Y-828.67
M50
G03 X548.98 Y-819.54 I-9.12 J9.12
G03 X536.08 Y-806.64 I-12.90 J-0.00
G03 X523.18 Y-819.54 I0.00 J-12.90
G03 X536.08 Y-832.44 I12.90 J0.00
G03 X545.20 Y-828.67 I-0.00 J12.90
G03 X546.61 Y-826.99 I-9.12 J9.12
M08
G40
M51
M93
G00 X541.24 Y-1127.44
M94 F1719
G41 D21
N47 M07
G01 X545.20 Y-1131.40
M50
G03 X548.98 Y-1122.28 I-9.12 J9.12
G03 X536.08 Y-1109.38 I-12.90 J0.00
G03 X523.18 Y-1122.28 I0.00 J-12.90
G03 X536.08 Y-1135.18 I12.90 J0.00
G03 X545.20 Y-1131.40 I-0.00 J12.90
G03 X546.61 Y-1129.72 I-9.12 J9.12
M08
G40
M51
M93
G00 X631.04 Y-962.05
M94 F2750
G41 D21
N48 M07
G01 X631.04 Y-967.65
G01 X631.04 Y-997.65
G01 X597.54 Y-997.65
G03 X587.54 Y-1007.65 I0.00 J-10.00
G01 X587.54 Y-1218.95
G01 X53.50 Y-1218.95
G01 X53.50 Y-1007.65
G03 X43.50 Y-997.65 I-10.00 J0.00
G01 X10.00 Y-997.65
G01 X10.00 Y-967.65
G01 X43.50 Y-967.65
G03 X53.50 Y-957.65 I0.00 J10.00
G01 X53.50 Y-634.65
G03 X43.50 Y-624.65 I-10.00 J0.00
G01 X10.00 Y-624.65
G01 X10.00 Y-595.60
G03 X24.42 Y-588.81 I-1.27 J21.40
G03 X33.13 Y-573.01 I-20.62 J21.67
G03 X26.48 Y-540.77 I-37.87 J9.00
G03 X12.72 Y-532.12 I-20.63 J-17.55
G01 X10.00 Y-531.74
G01 X10.00 Y-502.68
G01 X43.50 Y-502.68
G03 X53.50 Y-492.68 I0.00 J10.00
G01 X53.50 Y-169.69
G03 X43.50 Y-159.69 I-10.00 J0.00
G01 X10.00 Y-159.69
G01 X10.00 Y-129.69
G01 X43.50 Y-129.69
G03 X53.50 Y-119.69 I0.00 J10.00
G01 X53.50 Y-10.01
G01 X587.54 Y-10.01
G01 X587.54 Y-119.69
G03 X597.54 Y-129.69 I10.00 J0.00
G01 X631.04 Y-129.69
G01 X631.04 Y-159.69
G01 X597.54 Y-159.69
G03 X587.54 Y-169.69 I0.00 J-10.00
G01 X587.54 Y-492.68
G03 X597.54 Y-502.68 I10.00 J0.00
G01 X631.04 Y-502.68
G01 X631.04 Y-531.74
G03 X616.62 Y-538.53 I1.27 J-21.40
G03 X607.91 Y-554.33 I20.62 J-21.67
G03 X614.56 Y-586.57 I37.87 J-9.00
G03 X628.32 Y-595.22 I20.63 J17.55
G01 X631.04 Y-595.60
G01 X631.04 Y-624.65
G01 X597.54 Y-624.65
G03 X587.54 Y-634.65 I0.00 J-10.00
G01 X587.54 Y-957.65
G03 X597.54 Y-967.65 I10.00 J0.00
G01 X629.94 Y-967.65
M50
G01 X631.04 Y-967.65
G03 X633.04 Y-965.65 I0.00 J2.00
M08
G40
M51
M93
G00 X39.96 Y-270.88
M94 F2750
G41 D21
N49 M07
G01 X36.00 Y-274.84
G01 X32.17 Y-278.67
G01 X10.00 Y-278.67
G01 X10.00 Y-162.67
G01 X31.52 Y-162.67
G01 X36.00 Y-166.58
G01 X36.00 Y-273.74
M50
G01 X36.00 Y-274.84
G03 X38.00 Y-276.84 I2.00 J0.00
M08
G40
M51
M93
G00 X774.19 Y-320.77
M94 F1581
G41 D21
N50 M07
G01 X779.79 Y-320.77
M50
G03 X776.79 Y-317.77 I-3.00 J0.00
G01 X719.99 Y-317.77
G03 X716.99 Y-320.77 I0.00 J-3.00
G03 X719.99 Y-323.77 I3.00 J0.00
G01 X776.79 Y-323.77
G03 X779.79 Y-320.77 I0.00 J3.00
G03 X779.02 Y-318.77 I-3.00 J0.00
M08
G40
M51
M93
G00 X924.91 Y-320.77
M94 F1581
G41 D21
N51 M07
G01 X930.51 Y-320.77
M50
G03 X927.51 Y-317.77 I-3.00 J0.00
G01 X870.71 Y-317.77
G03 X867.71 Y-320.77 I0.00 J-3.00
G03 X870.71 Y-323.77 I3.00 J0.00
G01 X927.51 Y-323.77
G03 X930.51 Y-320.77 I0.00 J3.00
G03 X929.74 Y-318.77 I-3.00 J0.00
M08
G40
M51
M93
G00 X1075.63 Y-320.77
M94 F1581
G41 D21
N52 M07
G01 X1081.23 Y-320.77
M50
G03 X1078.23 Y-317.77 I-3.00 J-0.00
G01 X1021.43 Y-317.77
G03 X1018.43 Y-320.77 I0.00 J-3.00
G03 X1021.43 Y-323.77 I3.00 J0.00
G01 X1078.23 Y-323.77
G03 X1081.23 Y-320.77 I0.00 J3.00
G03 X1080.46 Y-318.77 I-3.00 J-0.00
M08
G40
M51
M93
G00 X1226.35 Y-320.77
M94 F1581
G41 D21
N53 M07
G01 X1231.95 Y-320.77
M50
G03 X1228.95 Y-317.77 I-3.00 J0.00
G01 X1172.15 Y-317.77
G03 X1169.15 Y-320.77 I0.00 J-3.00
G03 X1172.15 Y-323.77 I3.00 J0.00
G01 X1228.95 Y-323.77
G03 X1231.95 Y-320.77 I0.00 J3.00
G03 X1231.18 Y-318.77 I-3.00 J0.00
M08
G40
M51
M93
G00 X1377.07 Y-320.77
M94 F1581
G41 D21
N54 M07
G01 X1382.67 Y-320.77
M50
G03 X1379.67 Y-317.77 I-3.00 J-0.00
G01 X1322.87 Y-317.77
G03 X1319.87 Y-320.77 I0.00 J-3.00
G03 X1322.87 Y-323.77 I3.00 J0.00
G01 X1379.67 Y-323.77
G03 X1382.67 Y-320.77 I0.00 J3.00
G03 X1381.90 Y-318.77 I-3.00 J-0.00
M08
G40
M51
M93
G00 X1527.79 Y-320.77
M94 F1581
G41 D21
N55 M07
G01 X1533.39 Y-320.77
M50
G03 X1530.39 Y-317.77 I-3.00 J0.00
G01 X1473.59 Y-317.77
G03 X1470.59 Y-320.77 I0.00 J-3.00
G03 X1473.59 Y-323.77 I3.00 J0.00
G01 X1530.39 Y-323.77
G03 X1533.39 Y-320.77 I0.00 J3.00
G03 X1532.62 Y-318.77 I-3.00 J0.00
M08
G40
M51
M93
G00 X1678.51 Y-320.77
M94 F1581
G41 D21
N56 M07
G01 X1684.11 Y-320.77
M50
G03 X1681.11 Y-317.77 I-3.00 J0.00
G01 X1624.31 Y-317.77
G03 X1621.31 Y-320.77 I0.00 J-3.00
G03 X1624.31 Y-323.77 I3.00 J0.00
G01 X1681.11 Y-323.77
G03 X1684.11 Y-320.77 I0.00 J3.00
G03 X1683.34 Y-318.77 I-3.00 J0.00
M08
G40
M51
M93
G00 X1829.23 Y-320.77
M94 F1581
G41 D21
N57 M07
G01 X1834.83 Y-320.77
M50
G03 X1831.83 Y-317.77 I-3.00 J0.00
G01 X1775.03 Y-317.77
G03 X1772.03 Y-320.77 I0.00 J-3.00
G03 X1775.03 Y-323.77 I3.00 J0.00
G01 X1831.83 Y-323.77
G03 X1834.83 Y-320.77 I0.00 J3.00
G03 X1834.06 Y-318.77 I-3.00 J-0.00
M08
G40
M51
M93
G00 X1753.87 Y-320.77
M94 F1581
G41 D21
N58 M07
G01 X1759.47 Y-320.77
M50
G03 X1756.47 Y-317.77 I-3.00 J0.00
G01 X1699.67 Y-317.77
G03 X1696.67 Y-320.77 I0.00 J-3.00
G03 X1699.67 Y-323.77 I3.00 J0.00
G01 X1756.47 Y-323.77
G03 X1759.47 Y-320.77 I0.00 J3.00
G03 X1758.70 Y-318.77 I-3.00 J-0.00
M08
G40
M51
M93
G00 X1603.15 Y-320.77
M94 F1581
G41 D21
N59 M07
G01 X1608.75 Y-320.77
M50
G03 X1605.75 Y-317.77 I-3.00 J0.00
G01 X1548.95 Y-317.77
G03 X1545.95 Y-320.77 I0.00 J-3.00
G03 X1548.95 Y-323.77 I3.00 J0.00
G01 X1605.75 Y-323.77
G03 X1608.75 Y-320.77 I0.00 J3.00
G03 X1607.98 Y-318.77 I-3.00 J-0.00
M08
G40
M51
M93
G00 X1452.43 Y-320.77
M94 F1581
G41 D21
N60 M07
G01 X1458.03 Y-320.77
M50
G03 X1455.03 Y-317.77 I-3.00 J0.00
G01 X1398.23 Y-317.77
G03 X1395.23 Y-320.77 I0.00 J-3.00
G03 X1398.23 Y-323.77 I3.00 J0.00
G01 X1455.03 Y-323.77
G03 X1458.03 Y-320.77 I0.00 J3.00
G03 X1457.26 Y-318.77 I-3.00 J-0.00
M08
G40
M51
M93
G00 X1301.71 Y-320.77
M94 F1581
G41 D21
N61 M07
G01 X1307.31 Y-320.77
M50
G03 X1304.31 Y-317.77 I-3.00 J0.00
G01 X1247.51 Y-317.77
G03 X1244.51 Y-320.77 I0.00 J-3.00
G03 X1247.51 Y-323.77 I3.00 J0.00
G01 X1304.31 Y-323.77
G03 X1307.31 Y-320.77 I0.00 J3.00
G03 X1306.54 Y-318.77 I-3.00 J-0.00
M08
G40
M51
M93
G00 X1150.99 Y-320.77
M94 F1581
G41 D21
N62 M07
G01 X1156.59 Y-320.77
M50
G03 X1153.59 Y-317.77 I-3.00 J0.00
G01 X1096.79 Y-317.77
G03 X1093.79 Y-320.77 I0.00 J-3.00
G03 X1096.79 Y-323.77 I3.00 J0.00
G01 X1153.59 Y-323.77
G03 X1156.59 Y-320.77 I0.00 J3.00
G03 X1155.82 Y-318.77 I-3.00 J-0.00
M08
G40
M51
M93
G00 X1000.27 Y-320.77
M94 F1581
G41 D21
N63 M07
G01 X1005.87 Y-320.77
M50
G03 X1002.87 Y-317.77 I-3.00 J0.00
G01 X946.07 Y-317.77
G03 X943.07 Y-320.77 I0.00 J-3.00
G03 X946.07 Y-323.77 I3.00 J0.00
G01 X1002.87 Y-323.77
G03 X1005.87 Y-320.77 I0.00 J3.00
G03 X1005.10 Y-318.77 I-3.00 J0.00
M08
G40
M51
M93
G00 X849.55 Y-320.77
M94 F1581
G41 D21
N64 M07
G01 X855.15 Y-320.77
M50
G03 X852.15 Y-317.77 I-3.00 J0.00
G01 X795.35 Y-317.77
G03 X792.35 Y-320.77 I0.00 J-3.00
G03 X795.35 Y-323.77 I3.00 J0.00
G01 X852.15 Y-323.77
G03 X855.15 Y-320.77 I-0.00 J3.00
G03 X854.38 Y-318.77 I-3.00 J-0.00
M08
G40
M51
M93
G00 X698.83 Y-320.77
M94 F1581
G41 D21
N65 M07
G01 X704.43 Y-320.77
M50
G03 X701.43 Y-317.77 I-3.00 J0.00
G01 X644.63 Y-317.77
G03 X641.63 Y-320.77 I0.00 J-3.00
G03 X644.63 Y-323.77 I3.00 J0.00
G01 X701.43 Y-323.77
G03 X704.43 Y-320.77 I-0.00 J3.00
G03 X703.66 Y-318.77 I-3.00 J-0.00
M08
G40
M51
M93
G00 X738.14 Y-179.13
M94 F1788
G41 D21
N66 M07
G01 X743.74 Y-179.35
M50
G03 X741.59 Y-171.16 I-10.61 J1.59
G03 X724.12 Y-166.81 I-11.11 J-7.36
G03 X718.58 Y-184.78 I6.64 J-11.88
G03 X735.67 Y-191.47 I12.14 J5.83
G03 X742.71 Y-184.38 I-5.27 J12.27
G01 X743.67 Y-181.08
G01 X743.74 Y-179.35
G01 X743.81 Y-177.62
M08
G40
M51
M93
G00 X1040.88 Y-179.13
M94 F1788
G41 D21
N67 M07
G01 X1046.48 Y-179.35
M50
G03 X1044.33 Y-171.16 I-10.61 J1.59
G03 X1026.86 Y-166.81 I-11.11 J-7.36
G03 X1021.32 Y-184.78 I6.64 J-11.88
G03 X1038.41 Y-191.47 I12.14 J5.83
G03 X1045.45 Y-184.38 I-5.27 J12.27
G01 X1046.41 Y-181.08
G01 X1046.48 Y-179.35
G01 X1046.54 Y-177.62
M08
G40
M51
M93
G00 X1343.62 Y-179.13
M94 F1788
G41 D21
N68 M07
G01 X1349.21 Y-179.35
M50
G03 X1347.07 Y-171.16 I-10.61 J1.59
G03 X1329.59 Y-166.81 I-11.11 J-7.36
G03 X1324.05 Y-184.78 I6.64 J-11.88
G03 X1341.14 Y-191.47 I12.14 J5.83
G03 X1348.18 Y-184.38 I-5.27 J12.27
G01 X1349.15 Y-181.08
G01 X1349.21 Y-179.35
G01 X1349.28 Y-177.62
M08
G40
M51
M93
G00 X1646.36 Y-179.13
M94 F1788
G41 D21
N69 M07
G01 X1651.95 Y-179.35
M50
G03 X1649.80 Y-171.16 I-10.61 J1.59
G03 X1632.33 Y-166.81 I-11.11 J-7.36
G03 X1626.79 Y-184.78 I6.64 J-11.88
G03 X1643.88 Y-191.47 I12.14 J5.83
G03 X1650.92 Y-184.38 I-5.27 J12.27
G01 X1651.89 Y-181.08
G01 X1651.95 Y-179.35
G01 X1652.02 Y-177.62
M08
G40
M51
M93
G00 X665.20 Y-371.09
M94 F1375
G41 D21
N70 M07
G01 X669.16 Y-375.05
M50
G03 X671.13 Y-370.27 I-4.77 J4.77
G03 X664.38 Y-363.52 I-6.75 J0.00
G03 X657.63 Y-370.27 I0.00 J-6.75
G03 X664.38 Y-377.02 I6.75 J0.00
G03 X669.16 Y-375.05 I0.00 J6.75
G03 X670.43 Y-373.27 I-4.77 J4.77
M08
G40
M51
M93
G00 X717.20 Y-371.09
M94 F1375
G41 D21
N71 M07
G01 X721.16 Y-375.05
M50
G03 X723.13 Y-370.27 I-4.77 J4.77
G03 X716.38 Y-363.52 I-6.75 J0.00
G03 X709.63 Y-370.27 I0.00 J-6.75
G03 X716.38 Y-377.02 I6.75 J0.00
G03 X721.16 Y-375.05 I0.00 J6.75
G03 X722.43 Y-373.27 I-4.77 J4.77
M08
G40
M51
M93
G00 X1751.32 Y-541.49
M94 F1719
G41 D21
N72 M07
G01 X1755.28 Y-545.45
M50
G03 X1759.06 Y-536.33 I-9.12 J9.12
G03 X1746.16 Y-523.43 I-12.90 J-0.00
G03 X1733.26 Y-536.33 I0.00 J-12.90
G03 X1746.16 Y-549.23 I12.90 J0.00
G03 X1755.28 Y-545.45 I0.00 J12.90
G03 X1756.70 Y-543.77 I-9.12 J9.12
M08
G40
M51
M93
G00 X1448.59 Y-541.49
M94 F1719
G41 D21
N73 M07
G01 X1452.55 Y-545.45
M50
G03 X1456.32 Y-536.33 I-9.12 J9.12
G03 X1443.42 Y-523.43 I-12.90 J-0.00
G03 X1430.52 Y-536.33 I0.00 J-12.90
G03 X1443.42 Y-549.23 I12.90 J0.00
G03 X1452.55 Y-545.45 I0.00 J12.90
G03 X1453.96 Y-543.77 I-9.12 J9.12
M08
G40
M51
M93
G00 X1145.85 Y-541.49
M94 F1719
G41 D21
N74 M07
G01 X1149.81 Y-545.45
M50
G03 X1153.59 Y-536.33 I-9.12 J9.12
G03 X1140.69 Y-523.43 I-12.90 J-0.00
G03 X1127.79 Y-536.33 I0.00 J-12.90
G03 X1140.69 Y-549.23 I12.90 J0.00
G03 X1149.81 Y-545.45 I0.00 J12.90
G03 X1151.22 Y-543.77 I-9.12 J9.12
M08
G40
M51
M93
G00 X843.11 Y-541.49
M94 F1719
G41 D21
N75 M07
G01 X847.07 Y-545.45
M50
G03 X850.85 Y-536.33 I-9.12 J9.12
G03 X837.95 Y-523.43 I-12.90 J-0.00
G03 X825.05 Y-536.33 I0.00 J-12.90
G03 X837.95 Y-549.23 I12.90 J0.00
G03 X847.07 Y-545.45 I-0.00 J12.90
G03 X848.49 Y-543.77 I-9.12 J9.12
M08
G40
M51
M93
G00 X665.20 Y-519.96
M94 F1375
G41 D21
N76 M07
G01 X669.16 Y-516.00
M50
G03 X664.38 Y-514.03 I-4.77 J-4.77
G03 X657.63 Y-520.78 I0.00 J-6.75
G03 X664.38 Y-527.53 I6.75 J0.00
G03 X671.13 Y-520.78 I0.00 J6.75
G03 X669.16 Y-516.00 I-6.75 J0.00
G03 X667.38 Y-514.73 I-4.77 J-4.77
M08
G40
M51
M93
G00 X717.20 Y-519.96
M94 F1375
G41 D21
N77 M07
G01 X721.16 Y-516.00
M50
G03 X716.38 Y-514.03 I-4.77 J-4.77
G03 X709.63 Y-520.78 I0.00 J-6.75
G03 X716.38 Y-527.53 I6.75 J0.00
G03 X723.13 Y-520.78 I0.00 J6.75
G03 X721.16 Y-516.00 I-6.75 J0.00
G03 X719.38 Y-514.73 I-4.77 J-4.77
M08
G40
M51
M93
G00 X1646.34 Y-462.15
M94 F1788
G41 D21
N78 M07
G01 X1651.93 Y-461.77
M50
G03 X1648.92 Y-453.87 I-10.69 J0.45
G03 X1628.35 Y-454.21 I-10.15 J-8.43
G03 X1632.70 Y-474.94 I11.05 J-8.50
G03 X1651.44 Y-466.89 I6.16 J11.50
G01 X1652.05 Y-463.49
G01 X1651.93 Y-461.77
G01 X1651.81 Y-460.05
M08
G40
M51
M93
G00 X1343.61 Y-462.15
M94 F1788
G41 D21
N79 M07
G01 X1349.19 Y-461.77
M50
G03 X1346.18 Y-453.87 I-10.69 J0.45
G03 X1325.61 Y-454.21 I-10.15 J-8.43
G03 X1329.96 Y-474.94 I11.05 J-8.50
G03 X1348.71 Y-466.89 I6.16 J11.50
G01 X1349.31 Y-463.49
G01 X1349.19 Y-461.77
G01 X1349.07 Y-460.05
M08
G40
M51
M93
G00 X1040.87 Y-462.15
M94 F1788
G41 D21
N80 M07
G01 X1046.45 Y-461.77
M50
G03 X1043.44 Y-453.87 I-10.69 J0.45
G03 X1022.88 Y-454.21 I-10.15 J-8.43
G03 X1027.23 Y-474.94 I11.05 J-8.50
G03 X1045.97 Y-466.89 I6.16 J11.50
G01 X1046.57 Y-463.49
G01 X1046.45 Y-461.77
G01 X1046.34 Y-460.05
M08
G40
M51
M93
G00 X738.13 Y-462.15
M94 F1788
G41 D21
N81 M07
G01 X743.72 Y-461.77
M50
G03 X740.71 Y-453.87 I-10.69 J0.45
G03 X720.14 Y-454.21 I-10.15 J-8.43
G03 X724.49 Y-474.94 I11.05 J-8.50
G03 X743.23 Y-466.89 I6.16 J11.50
G01 X743.84 Y-463.49
G01 X743.72 Y-461.77
G01 X743.60 Y-460.05
M08
G40
M51
M93
G00 X717.20 Y-272.09
M94 F1375
G41 D21
N82 M07
G01 X721.16 Y-276.05
M50
G03 X723.13 Y-271.27 I-4.77 J4.77
G03 X716.38 Y-264.52 I-6.75 J0.00
G03 X709.63 Y-271.27 I0.00 J-6.75
G03 X716.38 Y-278.02 I6.75 J0.00
G03 X721.16 Y-276.05 I0.00 J6.75
G03 X722.43 Y-274.27 I-4.77 J4.77
M08
G40
M51
M93
G00 X665.20 Y-272.09
M94 F1375
G41 D21
N83 M07
G01 X669.16 Y-276.05
M50
G03 X671.13 Y-271.27 I-4.77 J4.77
G03 X664.38 Y-264.52 I-6.75 J0.00
G03 X657.63 Y-271.27 I0.00 J-6.75
G03 X664.38 Y-278.02 I6.75 J0.00
G03 X669.16 Y-276.05 I0.00 J6.75
G03 X670.43 Y-274.27 I-4.77 J4.77
M08
G40
M51
M93
G00 X717.20 Y-121.59
M94 F1375
G41 D21
N84 M07
G01 X721.16 Y-125.54
M50
G03 X723.13 Y-120.77 I-4.77 J4.77
G03 X716.38 Y-114.02 I-6.75 J0.00
G03 X709.63 Y-120.77 I0.00 J-6.75
G03 X716.38 Y-127.52 I6.75 J0.00
G03 X721.16 Y-125.54 I0.00 J6.75
G03 X722.43 Y-123.77 I-4.77 J4.77
M08
G40
M51
M93
G00 X665.20 Y-121.59
M94 F1375
G41 D21
N85 M07
G01 X669.16 Y-125.54
M50
G03 X671.13 Y-120.77 I-4.77 J4.77
G03 X664.38 Y-114.02 I-6.75 J0.00
G03 X657.63 Y-120.77 I0.00 J-6.75
G03 X664.38 Y-127.52 I6.75 J0.00
G03 X669.16 Y-125.54 I0.00 J6.75
G03 X670.43 Y-123.77 I-4.77 J4.77
M08
G40
M51
M93
G00 X843.11 Y-100.06
M94 F1719
G41 D21
N86 M07
G01 X847.07 Y-96.10
M50
G03 X837.95 Y-92.32 I-9.12 J-9.12
G03 X825.05 Y-105.22 I0.00 J-12.90
G03 X837.95 Y-118.12 I12.90 J-0.00
G03 X850.85 Y-105.22 I-0.00 J12.90
G03 X847.07 Y-96.10 I-12.90 J0.00
G03 X845.39 Y-94.68 I-9.12 J-9.12
M08
G40
M51
M93
G00 X1145.85 Y-100.06
M94 F1719
G41 D21
N87 M07
G01 X1149.81 Y-96.10
M50
G03 X1140.69 Y-92.32 I-9.12 J-9.12
G03 X1127.79 Y-105.22 I0.00 J-12.90
G03 X1140.69 Y-118.12 I12.90 J0.00
G03 X1153.59 Y-105.22 I0.00 J12.90
G03 X1149.81 Y-96.10 I-12.90 J0.00
G03 X1148.13 Y-94.68 I-9.12 J-9.12
M08
G40
M51
M93
G00 X1448.59 Y-110.38
M94 F1719
G41 D21
N88 M07
G01 X1452.55 Y-114.34
M50
G03 X1456.32 Y-105.22 I-9.12 J9.12
G03 X1443.42 Y-92.32 I-12.90 J-0.00
G03 X1430.52 Y-105.22 I0.00 J-12.90
G03 X1443.42 Y-118.12 I12.90 J0.00
G03 X1452.55 Y-114.34 I0.00 J12.90
G03 X1453.96 Y-112.66 I-9.12 J9.12
M08
G40
M51
M93
G00 X1751.32 Y-110.38
M94 F1719
G41 D21
N89 M07
G01 X1755.28 Y-114.34
M50
G03 X1759.06 Y-105.22 I-9.12 J9.12
G03 X1746.16 Y-92.32 I-12.90 J-0.00
G03 X1733.26 Y-105.22 I0.00 J-12.90
G03 X1746.16 Y-118.12 I12.90 J0.00
G03 X1755.28 Y-114.34 I0.00 J12.90
G03 X1756.70 Y-112.66 I-9.12 J9.12
M08
G40
M51
M93
G00 X1591.53 Y-636.89
M94 F2750
G41 D21
N90 M07
G01 X1591.53 Y-631.29
G01 X1591.53 Y-597.79
G03 X1581.53 Y-587.79 I-10.00 J0.00
G01 X1258.53 Y-587.79
G03 X1248.53 Y-597.79 I0.00 J-10.00
G01 X1248.53 Y-631.29
G01 X1219.48 Y-631.29
G03 X1212.69 Y-616.88 I-21.40 J-1.27
G03 X1196.89 Y-608.17 I-21.67 J-20.62
G03 X1164.65 Y-614.82 I-9.00 J-37.87
G03 X1156.00 Y-628.57 I17.55 J-20.63
G01 X1155.62 Y-631.29
G01 X1126.56 Y-631.29
G01 X1126.56 Y-597.79
G03 X1116.56 Y-587.79 I-10.00 J0.00
G01 X793.57 Y-587.79
G03 X783.57 Y-597.79 I0.00 J-10.00
G01 X783.57 Y-631.29
G01 X753.57 Y-631.29
G01 X753.57 Y-597.79
G03 X743.57 Y-587.79 I-10.00 J0.00
G01 X633.88 Y-587.79
G01 X633.88 Y-53.75
G01 X743.57 Y-53.75
G03 X753.57 Y-43.75 I0.00 J10.00
G01 X753.57 Y-10.25
G01 X783.57 Y-10.25
G01 X783.57 Y-43.75
G03 X793.57 Y-53.75 I10.00 J0.00
G01 X1116.56 Y-53.75
G03 X1126.56 Y-43.75 I0.00 J10.00
G01 X1126.56 Y-10.25
G01 X1155.62 Y-10.25
G03 X1162.40 Y-24.67 I21.40 J1.27
G03 X1178.21 Y-33.38 I21.67 J20.62
G03 X1210.45 Y-26.73 I9.00 J37.87
G03 X1219.10 Y-12.98 I-17.55 J20.63
G01 X1219.48 Y-10.25
G01 X1248.53 Y-10.25
G01 X1248.53 Y-43.75
G03 X1258.53 Y-53.75 I10.00 J0.00
G01 X1581.53 Y-53.75
G03 X1591.53 Y-43.75 I0.00 J10.00
G01 X1591.53 Y-10.25
G01 X1621.53 Y-10.25
G01 X1621.53 Y-43.75
G03 X1631.53 Y-53.75 I10.00 J0.00
G01 X1842.83 Y-53.75
G01 X1842.83 Y-587.79
G01 X1631.53 Y-587.79
G03 X1621.53 Y-597.79 I0.00 J-10.00
G01 X1621.53 Y-631.29
G01 X1592.63 Y-631.29
M50
G01 X1591.53 Y-631.29
G03 X1589.53 Y-633.29 I0.00 J-2.00
M08
G40
M51
M93
G00 X39.96 Y-389.78
M94 F2750
G41 D21
N91 M07
G01 X36.00 Y-393.74
G01 X32.17 Y-397.56
G01 X10.00 Y-397.56
G01 X10.00 Y-281.56
G01 X31.52 Y-281.56
G01 X36.00 Y-285.47
G01 X36.00 Y-392.64
M50
G01 X36.00 Y-393.74
G03 X38.00 Y-395.74 I2.00 J0.00
M08
G40
M51
M93
G00 X39.96 Y-735.99
M94 F2750
G41 D21
N92 M07
G01 X36.00 Y-739.95
G01 X32.17 Y-743.78
G01 X10.00 Y-743.78
G01 X10.00 Y-627.78
G01 X31.52 Y-627.78
G01 X36.00 Y-631.69
G01 X36.00 Y-738.85
M50
G01 X36.00 Y-739.95
G03 X38.00 Y-741.95 I2.00 J0.00
M08
G40
M51
M93
G00 X39.96 Y-854.88
M94 F2750
G41 D21
N93 M07
G01 X36.00 Y-858.84
G01 X32.17 Y-862.67
G01 X10.00 Y-862.67
G01 X10.00 Y-746.67
G01 X31.52 Y-746.67
G01 X36.00 Y-750.58
G01 X36.00 Y-857.74
M50
G01 X36.00 Y-858.84
G03 X38.00 Y-860.84 I2.00 J0.00
M08
G40
M51
M93
G00 X776.52 Y-949.69
M94 F1581
G41 D21
N94 M07
G01 X782.12 Y-949.69
M50
G03 X779.12 Y-946.69 I-3.00 J0.00
G01 X722.32 Y-946.69
G03 X719.32 Y-949.69 I0.00 J-3.00
G03 X722.32 Y-952.69 I3.00 J0.00
G01 X779.12 Y-952.69
G03 X782.12 Y-949.69 I0.00 J3.00
G03 X781.35 Y-947.68 I-3.00 J-0.00
M08
G40
M51
M93
G00 X927.24 Y-949.69
M94 F1581
G41 D21
N95 M07
G01 X932.84 Y-949.69
M50
G03 X929.84 Y-946.69 I-3.00 J0.00
G01 X873.04 Y-946.69
G03 X870.04 Y-949.69 I0.00 J-3.00
G03 X873.04 Y-952.69 I3.00 J0.00
G01 X929.84 Y-952.69
G03 X932.84 Y-949.69 I0.00 J3.00
G03 X932.07 Y-947.68 I-3.00 J-0.00
M08
G40
M51
M93
G00 X1077.96 Y-949.69
M94 F1581
G41 D21
N96 M07
G01 X1083.56 Y-949.69
M50
G03 X1080.56 Y-946.69 I-3.00 J-0.00
G01 X1023.76 Y-946.69
G03 X1020.76 Y-949.69 I0.00 J-3.00
G03 X1023.76 Y-952.69 I3.00 J0.00
G01 X1080.56 Y-952.69
G03 X1083.56 Y-949.69 I0.00 J3.00
G03 X1082.79 Y-947.68 I-3.00 J-0.00
M08
G40
M51
M93
G00 X1228.68 Y-949.69
M94 F1581
G41 D21
N97 M07
G01 X1234.28 Y-949.69
M50
G03 X1231.28 Y-946.69 I-3.00 J0.00
G01 X1174.48 Y-946.69
G03 X1171.48 Y-949.69 I0.00 J-3.00
G03 X1174.48 Y-952.69 I3.00 J0.00
G01 X1231.28 Y-952.69
G03 X1234.28 Y-949.69 I0.00 J3.00
G03 X1233.51 Y-947.68 I-3.00 J0.00
M08
G40
M51
M93
G00 X1379.40 Y-949.69
M94 F1581
G41 D21
N98 M07
G01 X1385.00 Y-949.69
M50
G03 X1382.00 Y-946.69 I-3.00 J-0.00
G01 X1325.20 Y-946.69
G03 X1322.20 Y-949.69 I0.00 J-3.00
G03 X1325.20 Y-952.69 I3.00 J0.00
G01 X1382.00 Y-952.69
G03 X1385.00 Y-949.69 I0.00 J3.00
G03 X1384.23 Y-947.68 I-3.00 J-0.00
M08
G40
M51
M93
G00 X1530.12 Y-949.69
M94 F1581
G41 D21
N99 M07
G01 X1535.72 Y-949.69
M50
G03 X1532.72 Y-946.69 I-3.00 J0.00
G01 X1475.92 Y-946.69
G03 X1472.92 Y-949.69 I0.00 J-3.00
G03 X1475.92 Y-952.69 I3.00 J0.00
G01 X1532.72 Y-952.69
G03 X1535.72 Y-949.69 I0.00 J3.00
G03 X1534.95 Y-947.68 I-3.00 J0.00
M08
G40
M51
M93
G00 X1680.84 Y-949.69
M94 F1581
G41 D21
N100 M07
G01 X1686.44 Y-949.69
M50
G03 X1683.44 Y-946.69 I-3.00 J0.00
G01 X1626.64 Y-946.69
G03 X1623.64 Y-949.69 I0.00 J-3.00
G03 X1626.64 Y-952.69 I3.00 J0.00
G01 X1683.44 Y-952.69
G03 X1686.44 Y-949.69 I0.00 J3.00
G03 X1685.67 Y-947.68 I-3.00 J0.00
M08
G40
M51
M93
G00 X1831.56 Y-949.69
M94 F1581
G41 D21
N101 M07
G01 X1837.16 Y-949.69
M50
G03 X1834.16 Y-946.69 I-3.00 J0.00
G01 X1777.36 Y-946.69
G03 X1774.36 Y-949.69 I0.00 J-3.00
G03 X1777.36 Y-952.69 I3.00 J0.00
G01 X1834.16 Y-952.69
G03 X1837.16 Y-949.69 I0.00 J3.00
G03 X1836.39 Y-947.68 I-3.00 J-0.00
M08
G40
M51
M93
G00 X1756.20 Y-949.69
M94 F1581
G41 D21
N102 M07
G01 X1761.80 Y-949.69
M50
G03 X1758.80 Y-946.69 I-3.00 J0.00
G01 X1702.00 Y-946.69
G03 X1699.00 Y-949.69 I0.00 J-3.00
G03 X1702.00 Y-952.69 I3.00 J0.00
G01 X1758.80 Y-952.69
G03 X1761.80 Y-949.69 I0.00 J3.00
G03 X1761.03 Y-947.68 I-3.00 J-0.00
M08
G40
M51
M93
G00 X1605.48 Y-949.69
M94 F1581
G41 D21
N103 M07
G01 X1611.08 Y-949.69
M50
G03 X1608.08 Y-946.69 I-3.00 J0.00
G01 X1551.28 Y-946.69
G03 X1548.28 Y-949.69 I0.00 J-3.00
G03 X1551.28 Y-952.69 I3.00 J0.00
G01 X1608.08 Y-952.69
G03 X1611.08 Y-949.69 I0.00 J3.00
G03 X1610.31 Y-947.68 I-3.00 J-0.00
M08
G40
M51
M93
G00 X1454.76 Y-949.69
M94 F1581
G41 D21
N104 M07
G01 X1460.36 Y-949.69
M50
G03 X1457.36 Y-946.69 I-3.00 J0.00
G01 X1400.56 Y-946.69
G03 X1397.56 Y-949.69 I0.00 J-3.00
G03 X1400.56 Y-952.69 I3.00 J0.00
G01 X1457.36 Y-952.69
G03 X1460.36 Y-949.69 I0.00 J3.00
G03 X1459.59 Y-947.68 I-3.00 J-0.00
M08
G40
M51
M93
G00 X1304.04 Y-949.69
M94 F1581
G41 D21
N105 M07
G01 X1309.64 Y-949.69
M50
G03 X1306.64 Y-946.69 I-3.00 J0.00
G01 X1249.84 Y-946.69
G03 X1246.84 Y-949.69 I0.00 J-3.00
G03 X1249.84 Y-952.69 I3.00 J0.00
G01 X1306.64 Y-952.69
G03 X1309.64 Y-949.69 I0.00 J3.00
G03 X1308.87 Y-947.68 I-3.00 J-0.00
M08
G40
M51
M93
G00 X1153.32 Y-949.69
M94 F1581
G41 D21
N106 M07
G01 X1158.92 Y-949.69
M50
G03 X1155.92 Y-946.69 I-3.00 J0.00
G01 X1099.12 Y-946.69
G03 X1096.12 Y-949.69 I0.00 J-3.00
G03 X1099.12 Y-952.69 I3.00 J0.00
G01 X1155.92 Y-952.69
G03 X1158.92 Y-949.69 I0.00 J3.00
G03 X1158.15 Y-947.68 I-3.00 J-0.00
M08
G40
M51
M93
G00 X1002.60 Y-949.69
M94 F1581
G41 D21
N107 M07
G01 X1008.20 Y-949.69
M50
G03 X1005.20 Y-946.69 I-3.00 J0.00
G01 X948.40 Y-946.69
G03 X945.40 Y-949.69 I0.00 J-3.00
G03 X948.40 Y-952.69 I3.00 J0.00
G01 X1005.20 Y-952.69
G03 X1008.20 Y-949.69 I0.00 J3.00
G03 X1007.43 Y-947.68 I-3.00 J-0.00
M08
G40
M51
M93
G00 X851.88 Y-949.69
M94 F1581
G41 D21
N108 M07
G01 X857.48 Y-949.69
M50
G03 X854.48 Y-946.69 I-3.00 J0.00
G01 X797.68 Y-946.69
G03 X794.68 Y-949.69 I0.00 J-3.00
G03 X797.68 Y-952.69 I3.00 J0.00
G01 X854.48 Y-952.69
G03 X857.48 Y-949.69 I-0.00 J3.00
G03 X856.71 Y-947.68 I-3.00 J0.00
M08
G40
M51
M93
G00 X701.16 Y-949.69
M94 F1581
G41 D21
N109 M07
G01 X706.76 Y-949.69
M50
G03 X703.76 Y-946.69 I-3.00 J0.00
G01 X646.96 Y-946.69
G03 X643.96 Y-949.69 I0.00 J-3.00
G03 X646.96 Y-952.69 I3.00 J0.00
G01 X703.76 Y-952.69
G03 X706.76 Y-949.69 I0.00 J3.00
G03 X705.99 Y-947.68 I-3.00 J0.00
M08
G40
M51
M93
G00 X740.47 Y-808.05
M94 F1788
G41 D21
N110 M07
G01 X746.06 Y-808.27
M50
G03 X743.92 Y-800.08 I-10.61 J1.59
G03 X726.44 Y-795.73 I-11.11 J-7.36
G03 X720.90 Y-813.70 I6.64 J-11.88
G03 X737.99 Y-820.39 I12.14 J5.83
G03 X745.03 Y-813.30 I-5.27 J12.27
G01 X746.00 Y-809.99
G01 X746.06 Y-808.27
G01 X746.13 Y-806.54
M08
G40
M51
M93
G00 X1043.21 Y-808.05
M94 F1788
G41 D21
N111 M07
G01 X1048.80 Y-808.27
M50
G03 X1046.65 Y-800.08 I-10.61 J1.59
G03 X1029.18 Y-795.73 I-11.11 J-7.36
G03 X1023.64 Y-813.70 I6.64 J-11.88
G03 X1040.73 Y-820.39 I12.14 J5.83
G03 X1047.77 Y-813.30 I-5.27 J12.27
G01 X1048.74 Y-809.99
G01 X1048.80 Y-808.27
G01 X1048.87 Y-806.54
M08
G40
M51
M93
G00 X1345.94 Y-808.05
M94 F1788
G41 D21
N112 M07
G01 X1351.54 Y-808.27
M50
G03 X1349.39 Y-800.08 I-10.61 J1.59
G03 X1331.92 Y-795.73 I-11.11 J-7.36
G03 X1326.38 Y-813.70 I6.64 J-11.88
G03 X1343.47 Y-820.39 I12.14 J5.83
G03 X1350.51 Y-813.30 I-5.27 J12.27
G01 X1351.47 Y-809.99
G01 X1351.54 Y-808.27
G01 X1351.60 Y-806.54
M08
G40
M51
M93
G00 X1648.68 Y-808.05
M94 F1788
G41 D21
N113 M07
G01 X1654.28 Y-808.27
M50
G03 X1652.13 Y-800.08 I-10.61 J1.59
G03 X1634.65 Y-795.73 I-11.11 J-7.36
G03 X1629.12 Y-813.70 I6.64 J-11.88
G03 X1646.21 Y-820.39 I12.14 J5.83
G03 X1653.24 Y-813.30 I-5.27 J12.27
G01 X1654.21 Y-809.99
G01 X1654.28 Y-808.27
G01 X1654.34 Y-806.54
M08
G40
M51
M93
G00 X667.52 Y-1000.01
M94 F1375
G41 D21
N114 M07
G01 X671.48 Y-1003.97
M50
G03 X673.46 Y-999.19 I-4.77 J4.77
G03 X666.71 Y-992.44 I-6.75 J0.00
G03 X659.96 Y-999.19 I0.00 J-6.75
G03 X666.71 Y-1005.94 I6.75 J0.00
G03 X671.48 Y-1003.97 I0.00 J6.75
G03 X672.76 Y-1002.19 I-4.77 J4.77
M08
G40
M51
M93
G00 X719.52 Y-1000.01
M94 F1375
G41 D21
N115 M07
G01 X723.48 Y-1003.97
M50
G03 X725.46 Y-999.19 I-4.77 J4.77
G03 X718.71 Y-992.44 I-6.75 J0.00
G03 X711.96 Y-999.19 I0.00 J-6.75
G03 X718.71 Y-1005.94 I6.75 J0.00
G03 X723.48 Y-1003.97 I0.00 J6.75
G03 X724.76 Y-1002.19 I-4.77 J4.77
M08
G40
M51
M93
G00 X1753.65 Y-1170.41
M94 F1719
G41 D21
N116 M07
G01 X1757.61 Y-1174.37
M50
G03 X1761.38 Y-1165.25 I-9.12 J9.12
G03 X1748.48 Y-1152.35 I-12.90 J0.00
G03 X1735.58 Y-1165.25 I0.00 J-12.90
G03 X1748.48 Y-1178.15 I12.90 J0.00
G03 X1757.61 Y-1174.37 I0.00 J12.90
G03 X1759.02 Y-1172.69 I-9.12 J9.12
M08
G40
M51
M93
G00 X1450.91 Y-1170.41
M94 F1719
G41 D21
N117 M07
G01 X1454.87 Y-1174.37
M50
G03 X1458.65 Y-1165.25 I-9.12 J9.12
G03 X1445.75 Y-1152.35 I-12.90 J0.00
G03 X1432.85 Y-1165.25 I0.00 J-12.90
G03 X1445.75 Y-1178.15 I12.90 J0.00
G03 X1454.87 Y-1174.37 I0.00 J12.90
G03 X1456.28 Y-1172.69 I-9.12 J9.12
M08
G40
M51
M93
G00 X1148.17 Y-1170.41
M94 F1719
G41 D21
N118 M07
G01 X1152.13 Y-1174.37
M50
G03 X1155.91 Y-1165.25 I-9.12 J9.12
G03 X1143.01 Y-1152.35 I-12.90 J0.00
G03 X1130.11 Y-1165.25 I0.00 J-12.90
G03 X1143.01 Y-1178.15 I12.90 J0.00
G03 X1152.13 Y-1174.37 I0.00 J12.90
G03 X1153.55 Y-1172.69 I-9.12 J9.12
M08
G40
M51
M93
G00 X845.44 Y-1170.41
M94 F1719
G41 D21
N119 M07
G01 X849.39 Y-1174.37
M50
G03 X853.17 Y-1165.25 I-9.12 J9.12
G03 X840.27 Y-1152.35 I-12.90 J0.00
G03 X827.37 Y-1165.25 I0.00 J-12.90
G03 X840.27 Y-1178.15 I12.90 J0.00
G03 X849.39 Y-1174.37 I-0.00 J12.90
G03 X850.81 Y-1172.69 I-9.12 J9.12
M08
G40
M51
M93
G00 X667.52 Y-1148.88
M94 F1375
G41 D21
N120 M07
G01 X671.48 Y-1144.92
M50
G03 X666.71 Y-1142.94 I-4.77 J-4.77
G03 X659.96 Y-1149.69 I0.00 J-6.75
G03 X666.71 Y-1156.44 I6.75 J0.00
G03 X673.46 Y-1149.69 I0.00 J6.75
G03 X671.48 Y-1144.92 I-6.75 J0.00
G03 X669.70 Y-1143.64 I-4.77 J-4.77
M08
G40
M51
M93
G00 X719.52 Y-1148.88
M94 F1375
G41 D21
N121 M07
G01 X723.48 Y-1144.92
M50
G03 X718.71 Y-1142.94 I-4.77 J-4.77
G03 X711.96 Y-1149.69 I0.00 J-6.75
G03 X718.71 Y-1156.44 I6.75 J0.00
G03 X725.46 Y-1149.69 I0.00 J6.75
G03 X723.48 Y-1144.92 I-6.75 J0.00
G03 X721.70 Y-1143.64 I-4.77 J-4.77
M08
G40
M51
M93
G00 X1648.67 Y-1091.07
M94 F1788
G41 D21
N122 M07
G01 X1654.25 Y-1090.69
M50
G03 X1651.24 Y-1082.79 I-10.69 J0.45
G03 X1630.67 Y-1083.13 I-10.15 J-8.43
G03 X1635.03 Y-1103.86 I11.05 J-8.50
G03 X1653.77 Y-1095.81 I6.16 J11.50
G01 X1654.37 Y-1092.41
G01 X1654.25 Y-1090.69
G01 X1654.13 Y-1088.97
M08
G40
M51
M93
G00 X1345.93 Y-1091.07
M94 F1788
G41 D21
N123 M07
G01 X1351.52 Y-1090.69
M50
G03 X1348.51 Y-1082.79 I-10.69 J0.45
G03 X1327.94 Y-1083.13 I-10.15 J-8.43
G03 X1332.29 Y-1103.86 I11.05 J-8.50
G03 X1351.03 Y-1095.81 I6.16 J11.50
G01 X1351.63 Y-1092.41
G01 X1351.52 Y-1090.69
G01 X1351.40 Y-1088.97
M08
G40
M51
M93
G00 X1043.19 Y-1091.07
M94 F1788
G41 D21
N124 M07
G01 X1048.78 Y-1090.69
M50
G03 X1045.77 Y-1082.79 I-10.69 J0.45
G03 X1025.20 Y-1083.13 I-10.15 J-8.43
G03 X1029.55 Y-1103.86 I11.05 J-8.50
G03 X1048.29 Y-1095.81 I6.16 J11.50
G01 X1048.90 Y-1092.41
G01 X1048.78 Y-1090.69
G01 X1048.66 Y-1088.97
M08
G40
M51
M93
G00 X740.45 Y-1091.07
M94 F1788
G41 D21
N125 M07
G01 X746.04 Y-1090.69
M50
G03 X743.03 Y-1082.79 I-10.69 J0.45
G03 X722.46 Y-1083.13 I-10.15 J-8.43
G03 X726.81 Y-1103.86 I11.05 J-8.50
G03 X745.56 Y-1095.81 I6.16 J11.50
G01 X746.16 Y-1092.41
G01 X746.04 Y-1090.69
G01 X745.92 Y-1088.97
M08
G40
M51
M93
G00 X719.52 Y-901.01
M94 F1375
G41 D21
N126 M07
G01 X723.48 Y-904.97
M50
G03 X725.46 Y-900.19 I-4.77 J4.77
G03 X718.71 Y-893.44 I-6.75 J0.00
G03 X711.96 Y-900.19 I0.00 J-6.75
G03 X718.71 Y-906.94 I6.75 J0.00
G03 X723.48 Y-904.97 I0.00 J6.75
G03 X724.76 Y-903.19 I-4.77 J4.77
M08
G40
M51
M93
G00 X667.52 Y-901.01
M94 F1375
G41 D21
N127 M07
G01 X671.48 Y-904.97
M50
G03 X673.46 Y-900.19 I-4.77 J4.77
G03 X666.71 Y-893.44 I-6.75 J0.00
G03 X659.96 Y-900.19 I0.00 J-6.75
G03 X666.71 Y-906.94 I6.75 J0.00
G03 X671.48 Y-904.97 I0.00 J6.75
G03 X672.76 Y-903.19 I-4.77 J4.77
M08
G40
M51
M93
G00 X719.52 Y-750.50
M94 F1375
G41 D21
N128 M07
G01 X723.48 Y-754.46
M50
G03 X725.46 Y-749.69 I-4.77 J4.77
G03 X718.71 Y-742.94 I-6.75 J0.00
G03 X711.96 Y-749.69 I0.00 J-6.75
G03 X718.71 Y-756.44 I6.75 J0.00
G03 X723.48 Y-754.46 I0.00 J6.75
G03 X724.76 Y-752.68 I-4.77 J4.77
M08
G40
M51
M93
G00 X667.52 Y-750.50
M94 F1375
G41 D21
N129 M07
G01 X671.48 Y-754.46
M50
G03 X673.46 Y-749.69 I-4.77 J4.77
G03 X666.71 Y-742.94 I-6.75 J0.00
G03 X659.96 Y-749.69 I0.00 J-6.75
G03 X666.71 Y-756.44 I6.75 J0.00
G03 X671.48 Y-754.46 I0.00 J6.75
G03 X672.76 Y-752.68 I-4.77 J4.77
M08
G40
M51
M93
G00 X845.44 Y-728.98
M94 F1719
G41 D21
N130 M07
G01 X849.39 Y-725.02
M50
G03 X840.27 Y-721.24 I-9.12 J-9.12
G03 X827.37 Y-734.14 I0.00 J-12.90
G03 X840.27 Y-747.04 I12.90 J0.00
G03 X853.17 Y-734.14 I-0.00 J12.90
G03 X849.39 Y-725.02 I-12.90 J-0.00
G03 X847.71 Y-723.60 I-9.12 J-9.12
M08
G40
M51
M93
G00 X1148.17 Y-728.98
M94 F1719
G41 D21
N131 M07
G01 X1152.13 Y-725.02
M50
G03 X1143.01 Y-721.24 I-9.12 J-9.12
G03 X1130.11 Y-734.14 I0.00 J-12.90
G03 X1143.01 Y-747.04 I12.90 J0.00
G03 X1155.91 Y-734.14 I0.00 J12.90
G03 X1152.13 Y-725.02 I-12.90 J-0.00
G03 X1150.45 Y-723.60 I-9.12 J-9.12
M08
G40
M51
M93
G00 X1450.91 Y-739.30
M94 F1719
G41 D21
N132 M07
G01 X1454.87 Y-743.26
M50
G03 X1458.65 Y-734.14 I-9.12 J9.12
G03 X1445.75 Y-721.24 I-12.90 J-0.00
G03 X1432.85 Y-734.14 I0.00 J-12.90
G03 X1445.75 Y-747.04 I12.90 J0.00
G03 X1454.87 Y-743.26 I0.00 J12.90
G03 X1456.28 Y-741.58 I-9.12 J9.12
M08
G40
M51
M93
G00 X1753.65 Y-739.30
M94 F1719
G41 D21
N133 M07
G01 X1757.61 Y-743.26
M50
G03 X1761.38 Y-734.14 I-9.12 J9.12
G03 X1748.48 Y-721.24 I-12.90 J-0.00
G03 X1735.58 Y-734.14 I0.00 J-12.90
G03 X1748.48 Y-747.04 I12.90 J0.00
G03 X1757.61 Y-743.26 I0.00 J12.90
G03 X1759.02 Y-741.58 I-9.12 J9.12
M08
G40
M51
M93
G00 X1593.85 Y-1265.81
M94 F2750
G41 D21
N134 M07
G01 X1593.85 Y-1260.21
G01 X1593.85 Y-1226.71
G03 X1583.85 Y-1216.71 I-10.00 J0.00
G01 X1260.86 Y-1216.71
G03 X1250.86 Y-1226.71 I0.00 J-10.00
G01 X1250.86 Y-1260.21
G01 X1221.80 Y-1260.21
G03 X1215.02 Y-1245.80 I-21.40 J-1.27
G03 X1199.21 Y-1237.09 I-21.67 J-20.62
G03 X1166.97 Y-1243.74 I-9.00 J-37.87
G03 X1158.32 Y-1257.49 I17.55 J-20.63
G01 X1157.94 Y-1260.21
G01 X1128.89 Y-1260.21
G01 X1128.89 Y-1226.71
G03 X1118.89 Y-1216.71 I-10.00 J0.00
G01 X795.89 Y-1216.71
G03 X785.89 Y-1226.71 I0.00 J-10.00
G01 X785.89 Y-1260.21
G01 X755.89 Y-1260.21
G01 X755.89 Y-1226.71
G03 X745.89 Y-1216.71 I-10.00 J0.00
G01 X636.21 Y-1216.71
G01 X636.21 Y-682.67
G01 X745.89 Y-682.67
G03 X755.89 Y-672.67 I0.00 J10.00
G01 X755.89 Y-639.17
G01 X785.89 Y-639.17
G01 X785.89 Y-672.67
G03 X795.89 Y-682.67 I10.00 J0.00
G01 X1118.89 Y-682.67
G03 X1128.89 Y-672.67 I0.00 J10.00
G01 X1128.89 Y-639.17
G01 X1157.94 Y-639.17
G03 X1164.73 Y-653.59 I21.40 J1.27
G03 X1180.53 Y-662.30 I21.67 J20.62
G03 X1212.77 Y-655.65 I9.00 J37.87
G03 X1221.42 Y-641.89 I-17.55 J20.63
G01 X1221.80 Y-639.17
G01 X1250.86 Y-639.17
G01 X1250.86 Y-672.67
G03 X1260.86 Y-682.67 I10.00 J0.00
G01 X1583.85 Y-682.67
G03 X1593.85 Y-672.67 I0.00 J10.00
G01 X1593.85 Y-639.17
G01 X1623.85 Y-639.17
G01 X1623.85 Y-672.67
G03 X1633.85 Y-682.67 I10.00 J0.00
G01 X1845.16 Y-682.67
G01 X1845.16 Y-1216.71
G01 X1633.85 Y-1216.71
G03 X1623.85 Y-1226.71 I0.00 J-10.00
G01 X1623.85 Y-1260.21
G01 X1594.95 Y-1260.21
M50
G01 X1593.85 Y-1260.21
G03 X1591.85 Y-1262.21 I0.00 J-2.00
M08
G40
M51
M93
G00 X39.96 Y-1108.93
M94 F2750
G41 D21
N135 M07
G01 X36.00 Y-1112.89
G01 X32.17 Y-1116.72
G01 X10.00 Y-1116.72
G01 X10.00 Y-1000.72
G01 X31.52 Y-1000.72
G01 X36.00 Y-1004.63
G01 X36.00 Y-1111.79
M50
G01 X36.00 Y-1112.89
G03 X38.00 Y-1114.89 I2.00 J0.00
M08
G40
M51
M93
G00 X620.47 Y-1230.53
M94 F2750
G41 D21
N136 M07
G01 X616.51 Y-1234.49
G01 X612.68 Y-1238.32
G01 X590.51 Y-1238.32
G01 X590.51 Y-1122.32
G01 X612.03 Y-1122.32
G01 X616.51 Y-1126.23
G01 X616.51 Y-1233.39
M50
G01 X616.51 Y-1234.49
G03 X618.51 Y-1236.49 I2.00 J0.00
M08
G40
M51
M93
G00 X354.17 Y-1304.27
M94 F2750
G41 D21
N137 M07
G01 X352.10 Y-1299.07
G01 X259.07 Y-1336.12
G02 X258.32 Y-1336.33 I-1.37 J3.42
G01 X210.22 Y-1344.82
G01 X204.75 Y-1313.79
G01 X351.22 Y-1287.97
G01 X342.02 Y-1235.77
G01 X195.55 Y-1261.60
G01 X190.08 Y-1230.58
G01 X238.18 Y-1222.10
G02 X238.96 Y-1222.04 I0.67 J-3.82
G01 X339.05 Y-1225.04
G02 X339.78 Y-1225.14 I-0.13 J-3.70
G01 X374.83 Y-1233.81
G01 X382.73 Y-1278.59
G01 X352.75 Y-1298.72
G02 X352.13 Y-1299.06 I-1.81 J2.66
G01 X352.11 Y-1299.06
M50
G01 X352.10 Y-1299.07
G03 X350.98 Y-1301.67 I0.74 J-1.86
M08
G40
M51
M93
G00 X158.80 Y-1322.91
M94 F2750
G41 D21
N138 M07
G01 X157.66 Y-1317.43
G01 X59.62 Y-1337.77
G02 X58.84 Y-1337.84 I-0.76 J3.61
G01 X10.00 Y-1337.84
G01 X10.00 Y-1306.34
G01 X158.73 Y-1306.34
G01 X158.73 Y-1253.34
G01 X10.00 Y-1253.34
G01 X10.00 Y-1221.84
G01 X58.84 Y-1221.84
G02 X59.62 Y-1221.92 I-0.01 J-3.89
G01 X157.66 Y-1242.26
G02 X158.37 Y-1242.49 I-0.77 J-3.65
G01 X191.39 Y-1257.11
G01 X191.39 Y-1302.58
G01 X158.37 Y-1317.20
G02 X157.69 Y-1317.42 I-1.32 J2.94
G01 X157.68 Y-1317.42
M50
G01 X157.66 Y-1317.43
G03 X156.12 Y-1319.79 I0.41 J-1.96
M08
G40
M51
M93
G00 X857.09 Y-1328.12
M94 F2750
G41 D21
N139 M07
G01 X853.13 Y-1332.08
G01 X849.30 Y-1335.91
G01 X827.13 Y-1335.91
G01 X827.13 Y-1219.91
G01 X848.65 Y-1219.91
G01 X853.13 Y-1223.82
G01 X853.13 Y-1330.98
M50
G01 X853.13 Y-1332.08
G03 X855.13 Y-1334.08 I2.00 J0.00
M08
G40
M51
M93
G00 X996.84 Y-1359.76
M94 F2750
G41 D21
N140 M07
G01 X993.12 Y-1355.57
G02 X992.49 Y-1356.02 I-2.48 J2.78
G01 X950.19 Y-1380.44
G01 X934.44 Y-1353.16
G01 X1063.24 Y-1278.80
G01 X1036.74 Y-1232.90
G01 X907.94 Y-1307.26
G01 X892.19 Y-1279.98
G01 X934.49 Y-1255.56
G02 X935.20 Y-1255.24 I1.96 J-3.41
G01 X1030.28 Y-1223.83
G02 X1031.00 Y-1223.68 I1.14 J-3.50
G01 X1066.91 Y-1219.83
G01 X1089.65 Y-1259.21
G01 X1068.36 Y-1288.38
G02 X1067.87 Y-1288.92 I-2.62 J1.88
G01 X1067.86 Y-1288.93
G01 X993.94 Y-1354.83
M50
G01 X993.12 Y-1355.57
G03 X992.96 Y-1358.39 I1.33 J-1.49
M08
G40
M51
M93
G00 X460.86 Y-1380.28
M94 F2750
G41 D21
N141 M07
G01 X457.15 Y-1376.09
G02 X456.52 Y-1376.55 I-2.48 J2.78
G01 X414.22 Y-1400.97
G01 X398.47 Y-1373.69
G01 X527.27 Y-1299.32
G01 X500.77 Y-1253.43
G01 X371.97 Y-1327.79
G01 X356.22 Y-1300.51
G01 X398.52 Y-1276.09
G02 X399.23 Y-1275.77 I1.96 J-3.41
G01 X494.31 Y-1244.36
G02 X495.03 Y-1244.20 I1.14 J-3.50
G01 X530.93 Y-1240.35
G01 X553.67 Y-1279.74
G01 X532.39 Y-1308.91
G02 X531.90 Y-1309.45 I-2.62 J1.88
G01 X531.89 Y-1309.45
G01 X457.97 Y-1375.36
M50
G01 X457.15 Y-1376.09
G03 X456.98 Y-1378.92 I1.33 J-1.49
M08
G40
M51
M93
G00 X731.17 Y-1401.97
M94 F2750
G41 D21
N142 M07
G01 X727.46 Y-1397.78
G02 X726.83 Y-1398.23 I-2.50 J2.80
G01 X684.53 Y-1422.66
G01 X668.78 Y-1395.38
G01 X797.58 Y-1321.01
G01 X771.08 Y-1275.11
G01 X642.28 Y-1349.48
G01 X626.53 Y-1322.20
G01 X668.83 Y-1297.77
G02 X669.54 Y-1297.46 I1.96 J-3.41
G01 X764.62 Y-1266.05
G02 X765.34 Y-1265.89 I1.14 J-3.50
G01 X801.25 Y-1262.04
G01 X823.98 Y-1301.42
G01 X802.70 Y-1330.59
G02 X802.21 Y-1331.13 I-2.62 J1.88
G01 X802.20 Y-1331.14
G01 X728.28 Y-1397.05
M50
G01 X727.46 Y-1397.78
G03 X727.30 Y-1400.60 I1.33 J-1.49
M08
G40
M51
M93
G00 X114.65 Y-1463.54
M94 F2750
G41 D21
N143 M07
G01 X110.93 Y-1459.35
G02 X110.30 Y-1459.81 I-2.46 J2.75
G01 X68.00 Y-1484.23
G01 X52.25 Y-1456.95
G01 X181.05 Y-1382.59
G01 X154.55 Y-1336.69
G01 X25.75 Y-1411.05
G01 X10.00 Y-1383.77
G01 X52.30 Y-1359.35
G02 X53.01 Y-1359.03 I1.96 J-3.41
G01 X148.09 Y-1327.62
G02 X148.81 Y-1327.46 I1.16 J-3.58
G01 X184.72 Y-1323.62
G01 X207.46 Y-1363.00
G01 X186.17 Y-1392.17
G02 X185.68 Y-1392.71 I-2.63 J1.90
G01 X185.67 Y-1392.72
G01 X111.75 Y-1458.62
M50
G01 X110.93 Y-1459.35
G03 X110.77 Y-1462.18 I1.33 J-1.49
M08
G40
M51
M93
G00 X454.38 Y-1463.77
M94 F2750
G41 D21
N144 M07
G01 X449.26 Y-1466.04
G01 X416.24 Y-1480.66
G02 X415.53 Y-1480.88 I-1.35 J3.02
G01 X373.26 Y-1489.65
G01 X373.26 Y-1396.95
G01 X415.53 Y-1405.72
G02 X416.24 Y-1405.94 I-0.74 J-3.55
G01 X449.26 Y-1420.56
G01 X449.26 Y-1464.94
M50
G01 X449.26 Y-1466.04
G03 X451.26 Y-1468.04 I2.00 J0.00
M08
G40
M51
M93
G00 X556.52 Y-1468.96
M94 F2750
G41 D21
N145 M07
G01 X552.80 Y-1464.78
G02 X552.17 Y-1465.23 I-2.47 J2.75
G01 X509.87 Y-1489.65
G01 X494.12 Y-1462.37
G01 X622.92 Y-1388.01
G01 X596.42 Y-1342.11
G01 X467.62 Y-1416.47
G01 X451.87 Y-1389.19
G01 X494.17 Y-1364.77
G02 X494.88 Y-1364.45 I1.96 J-3.41
G01 X589.96 Y-1333.04
G02 X590.68 Y-1332.89 I1.15 J-3.53
G01 X626.59 Y-1329.04
G01 X649.33 Y-1368.42
G01 X628.04 Y-1397.59
G02 X627.55 Y-1398.13 I-2.59 J1.86
G01 X627.54 Y-1398.14
G01 X553.62 Y-1464.04
M50
G01 X552.80 Y-1464.78
G03 X552.64 Y-1467.60 I1.33 J-1.49
M08
G40
M51
M93
G00 X297.05 Y-1468.96
M94 F2750
G41 D21
N146 M07
G01 X293.33 Y-1464.78
G02 X292.70 Y-1465.23 I-2.48 J2.78
G01 X250.40 Y-1489.65
G01 X234.65 Y-1462.37
G01 X363.45 Y-1388.01
G01 X336.95 Y-1342.11
G01 X208.15 Y-1416.47
G01 X192.40 Y-1389.19
G01 X234.70 Y-1364.77
G02 X235.41 Y-1364.45 I1.95 J-3.39
G01 X330.49 Y-1333.04
G02 X331.21 Y-1332.89 I1.15 J-3.53
G01 X367.12 Y-1329.04
G01 X389.86 Y-1368.42
G01 X368.57 Y-1397.59
G02 X368.08 Y-1398.13 I-2.61 J1.88
G01 X368.07 Y-1398.14
G01 X294.15 Y-1464.04
M50
G01 X293.33 Y-1464.78
G03 X293.17 Y-1467.60 I1.33 J-1.49
M08
G40
M51
M93
G00 X846.58 Y-1468.96
M94 F2750
G41 D21
N147 M07
G01 X842.86 Y-1464.78
G02 X842.23 Y-1465.23 I-2.47 J2.75
G01 X799.93 Y-1489.65
G01 X784.18 Y-1462.37
G01 X912.98 Y-1388.01
G01 X886.48 Y-1342.11
G01 X757.68 Y-1416.47
G01 X741.93 Y-1389.19
G01 X784.23 Y-1364.77
G02 X784.94 Y-1364.45 I1.95 J-3.39
G01 X880.02 Y-1333.04
G02 X880.74 Y-1332.89 I1.15 J-3.53
G01 X916.65 Y-1329.04
G01 X939.39 Y-1368.42
G01 X918.10 Y-1397.59
G02 X917.61 Y-1398.13 I-2.59 J1.86
G01 X917.60 Y-1398.14
G01 X843.68 Y-1464.04
M50
G01 X842.86 Y-1464.78
G03 X842.70 Y-1467.60 I1.33 J-1.49
M08
G40
M51
M93
G00 X1895.75 Y-1488.79
M94 F2750
G41 D21
N148 M07
G01 X1890.27 Y-1487.65
G01 X1847.99 Y-1478.88
G02 X1847.29 Y-1478.66 I0.74 J3.55
G01 X1814.27 Y-1464.04
G01 X1814.27 Y-1418.56
G01 X1847.29 Y-1403.94
G02 X1847.99 Y-1403.72 I1.35 J-3.02
G01 X1890.27 Y-1394.95
G01 X1890.27 Y-1486.55
M50
G01 X1890.27 Y-1487.65
G03 X1892.27 Y-1489.65 I2.00 J0.00
M08
G40
M51
M93
G00 X1544.04 Y-1468.96
M94 F2750
G41 D21
N149 M07
G01 X1540.33 Y-1464.78
G02 X1539.70 Y-1465.23 I-2.48 J2.78
G01 X1497.40 Y-1489.65
G01 X1481.65 Y-1462.37
G01 X1610.45 Y-1388.01
G01 X1583.95 Y-1342.11
G01 X1455.15 Y-1416.47
G01 X1439.40 Y-1389.19
G01 X1481.70 Y-1364.77
G02 X1482.41 Y-1364.45 I1.96 J-3.41
G01 X1577.49 Y-1333.04
G02 X1578.21 Y-1332.89 I1.14 J-3.50
G01 X1614.12 Y-1329.04
G01 X1636.85 Y-1368.42
G01 X1615.57 Y-1397.59
G02 X1615.08 Y-1398.13 I-2.63 J1.90
G01 X1615.07 Y-1398.14
G01 X1541.15 Y-1464.04
M50
G01 X1540.33 Y-1464.78
G03 X1540.17 Y-1467.60 I1.33 J-1.49
M08
G40
M51
M93
G00 X1336.08 Y-1468.96
M94 F2750
G41 D21
N150 M07
G01 X1332.37 Y-1464.78
G02 X1331.74 Y-1465.23 I-2.47 J2.75
G01 X1289.44 Y-1489.65
G01 X1273.69 Y-1462.37
G01 X1402.49 Y-1388.01
G01 X1375.99 Y-1342.11
G01 X1247.19 Y-1416.47
G01 X1231.44 Y-1389.19
G01 X1273.74 Y-1364.77
G02 X1274.45 Y-1364.45 I1.95 J-3.39
G01 X1369.53 Y-1333.04
G02 X1370.25 Y-1332.89 I1.15 J-3.53
G01 X1406.15 Y-1329.04
G01 X1428.89 Y-1368.42
G01 X1407.61 Y-1397.59
G02 X1407.12 Y-1398.13 I-2.59 J1.86
G01 X1407.11 Y-1398.14
G01 X1333.19 Y-1464.04
M50
G01 X1332.37 Y-1464.78
G03 X1332.20 Y-1467.60 I1.33 J-1.49
M08
G40
M51
M93
G00 X1054.54 Y-1468.96
M94 F2750
G41 D21
N151 M07
G01 X1050.82 Y-1464.78
G02 X1050.19 Y-1465.23 I-2.48 J2.78
G01 X1007.89 Y-1489.65
G01 X992.14 Y-1462.37
G01 X1120.95 Y-1388.01
G01 X1094.45 Y-1342.11
G01 X965.64 Y-1416.47
G01 X949.89 Y-1389.19
G01 X992.19 Y-1364.77
G02 X992.90 Y-1364.45 I1.96 J-3.41
G01 X1087.98 Y-1333.04
G02 X1088.71 Y-1332.89 I1.14 J-3.50
G01 X1124.61 Y-1329.04
G01 X1147.35 Y-1368.42
G01 X1126.06 Y-1397.59
G02 X1125.58 Y-1398.13 I-2.63 J1.90
G01 X1125.57 Y-1398.14
G01 X1051.65 Y-1464.04
M50
G01 X1050.82 Y-1464.78
G03 X1050.66 Y-1467.60 I1.33 J-1.49
M08
G40
M51
M93
G00 X1761.69 Y-1468.58
M94 F2750
G41 D21
N152 M07
G01 X1757.97 Y-1464.39
G02 X1757.34 Y-1464.84 I-2.43 J2.70
G01 X1715.04 Y-1489.27
G01 X1699.29 Y-1461.99
G01 X1828.09 Y-1387.62
G01 X1801.59 Y-1341.72
G01 X1672.79 Y-1416.09
G01 X1657.04 Y-1388.81
G01 X1699.34 Y-1364.38
G02 X1700.05 Y-1364.07 I1.93 J-3.34
G01 X1795.13 Y-1332.66
G02 X1795.85 Y-1332.50 I1.16 J-3.57
G01 X1831.76 Y-1328.65
G01 X1854.50 Y-1368.03
G01 X1833.21 Y-1397.20
G02 X1832.72 Y-1397.74 I-2.59 J1.86
G01 X1832.71 Y-1397.75
G01 X1758.79 Y-1463.66
M50
G01 X1757.97 Y-1464.39
G03 X1757.81 Y-1467.21 I1.33 J-1.49
M08
G40
M51
M93
G00 X1958.88 Y-1410.18
M94 F2750
G41 D21
N153 M07
G01 X1953.39 Y-1409.04
G01 X1911.12 Y-1400.27
G02 X1910.41 Y-1400.04 I0.74 J3.55
G01 X1877.39 Y-1385.42
G01 X1877.39 Y-1339.95
G01 X1910.41 Y-1325.33
G02 X1911.12 Y-1325.10 I1.35 J-3.02
G01 X1953.39 Y-1316.33
G01 X1953.39 Y-1407.94
M50
G01 X1953.39 Y-1409.04
G03 X1955.39 Y-1411.04 I2.00 J0.00
M08
G40
M51
M93
G00 X1226.49 Y-1396.55
M94 F2750
G41 D21
N154 M07
G01 X1222.77 Y-1392.36
G02 X1222.14 Y-1392.81 I-2.48 J2.78
G01 X1179.84 Y-1417.23
G01 X1164.09 Y-1389.95
G01 X1292.89 Y-1315.59
G01 X1266.39 Y-1269.69
G01 X1137.59 Y-1344.05
G01 X1121.84 Y-1316.78
G01 X1164.14 Y-1292.35
G02 X1164.85 Y-1292.03 I1.95 J-3.39
G01 X1259.93 Y-1260.62
G02 X1260.65 Y-1260.47 I1.15 J-3.53
G01 X1296.56 Y-1256.62
G01 X1319.30 Y-1296.00
G01 X1298.01 Y-1325.17
G02 X1297.52 Y-1325.71 I-2.61 J1.88
G01 X1297.51 Y-1325.72
G01 X1223.59 Y-1391.63
M50
G01 X1222.77 Y-1392.36
G03 X1222.61 Y-1395.18 I1.33 J-1.49
M08
G40
M51
M93
G00 X1696.24 Y-1362.47
M94 F2750
G41 D21
N155 M07
G01 X1692.52 Y-1358.28
G02 X1691.89 Y-1358.73 I-2.48 J2.78
G01 X1649.59 Y-1383.15
G01 X1633.84 Y-1355.87
G01 X1762.65 Y-1281.51
G01 X1736.15 Y-1235.61
G01 X1607.34 Y-1309.98
G01 X1591.59 Y-1282.70
G01 X1633.89 Y-1258.27
G02 X1634.60 Y-1257.96 I1.94 J-3.37
G01 X1729.68 Y-1226.55
G02 X1730.41 Y-1226.39 I1.15 J-3.53
G01 X1766.31 Y-1222.54
G01 X1789.05 Y-1261.92
G01 X1767.76 Y-1291.09
G02 X1767.27 Y-1291.63 I-2.63 J1.90
G01 X1767.27 Y-1291.64
G01 X1693.34 Y-1357.55
M50
G01 X1692.52 Y-1358.28
G03 X1692.36 Y-1361.10 I1.33 J-1.49
M08
G40
M51
M93
G00 X1486.34 Y-1359.76
M94 F2750
G41 D21
N156 M07
G01 X1482.63 Y-1355.57
G02 X1482.00 Y-1356.02 I-2.48 J2.78
G01 X1439.69 Y-1380.44
G01 X1423.94 Y-1353.16
G01 X1552.75 Y-1278.80
G01 X1526.25 Y-1232.90
G01 X1397.44 Y-1307.26
G01 X1381.69 Y-1279.98
G01 X1424.00 Y-1255.56
G02 X1424.70 Y-1255.24 I1.96 J-3.41
G01 X1519.78 Y-1223.83
G02 X1520.51 Y-1223.68 I1.14 J-3.50
G01 X1556.41 Y-1219.83
G01 X1579.15 Y-1259.21
G01 X1557.87 Y-1288.38
G02 X1557.38 Y-1288.92 I-2.62 J1.88
G01 X1557.37 Y-1288.93
G01 X1483.45 Y-1354.83
M50
G01 X1482.63 Y-1355.57
G03 X1482.46 Y-1358.39 I1.33 J-1.49
M08
G40
M51
M93
G00 X1894.52 Y-1328.77
M94 F2750
G41 D21
N157 M07
G01 X1890.80 Y-1324.59
G02 X1890.17 Y-1325.04 I-2.48 J2.78
G01 X1847.87 Y-1349.46
G01 X1832.12 Y-1322.18
G01 X1960.93 Y-1247.82
G01 X1934.43 Y-1201.92
G01 X1805.62 Y-1276.28
G01 X1789.87 Y-1249.00
G01 X1832.17 Y-1224.58
G02 X1832.88 Y-1224.26 I1.94 J-3.37
G01 X1927.96 Y-1192.85
G02 X1928.69 Y-1192.70 I1.15 J-3.53
G01 X1964.59 Y-1188.85
G01 X1987.33 Y-1228.23
G01 X1966.04 Y-1257.40
G02 X1965.55 Y-1257.94 I-2.62 J1.88
G01 X1965.55 Y-1257.95
G01 X1891.62 Y-1323.85
M50
G01 X1890.80 Y-1324.59
G03 X1890.64 Y-1327.41 I1.33 J-1.49
M08
G40
M51
M93
G00 X1929.45 Y-1152.26
M94 F2750
G41 D21
N158 M07
G01 X1923.96 Y-1151.12
G01 X1881.69 Y-1142.35
G02 X1880.98 Y-1142.12 I0.74 J3.55
G01 X1847.96 Y-1127.50
G01 X1847.96 Y-1082.03
G01 X1880.98 Y-1067.41
G02 X1881.69 Y-1067.18 I1.35 J-3.02
G01 X1923.96 Y-1058.41
G01 X1923.96 Y-1150.02
M50
G01 X1923.96 Y-1151.12
G03 X1925.96 Y-1153.12 I2.00 J0.00
M08
G40
M51
M93
G00 X1929.45 Y-1054.67
M94 F2750
G41 D21
N159 M07
G01 X1923.96 Y-1053.53
G01 X1881.69 Y-1044.76
G02 X1880.98 Y-1044.53 I0.74 J3.55
G01 X1847.96 Y-1029.91
G01 X1847.96 Y-984.44
G01 X1880.98 Y-969.82
G02 X1881.69 Y-969.59 I1.35 J-3.02
G01 X1923.96 Y-960.82
G01 X1923.96 Y-1052.43
M50
G01 X1923.96 Y-1053.53
G03 X1925.96 Y-1055.53 I2.00 J0.00
M08
G40
M51
M93
G00 X1929.45 Y-957.07
M94 F2750
G41 D21
N160 M07
G01 X1923.96 Y-955.94
G01 X1881.69 Y-947.17
G02 X1880.98 Y-946.94 I0.74 J3.55
G01 X1847.96 Y-932.32
G01 X1847.96 Y-886.85
G01 X1880.98 Y-872.23
G02 X1881.69 Y-872.00 I1.35 J-3.02
G01 X1923.96 Y-863.23
G01 X1923.96 Y-954.84
M50
G01 X1923.96 Y-955.94
G03 X1925.96 Y-957.94 I2.00 J0.00
M08
G40
M51
M93
G00 X1929.45 Y-859.48
M94 F2750
G41 D21
N161 M07
G01 X1923.96 Y-858.35
G01 X1881.69 Y-849.58
G02 X1880.98 Y-849.35 I0.74 J3.55
G01 X1847.96 Y-834.73
G01 X1847.96 Y-789.26
G01 X1880.98 Y-774.64
G02 X1881.69 Y-774.41 I1.35 J-3.02
G01 X1923.96 Y-765.64
G01 X1923.96 Y-857.25
M50
G01 X1923.96 Y-858.35
G03 X1925.96 Y-860.35 I2.00 J0.00
M08
G40
M51
M93
G00 X1929.45 Y-761.89
M94 F2750
G41 D21
N162 M07
G01 X1923.96 Y-760.76
G01 X1881.69 Y-751.99
G02 X1880.98 Y-751.76 I0.74 J3.55
G01 X1847.96 Y-737.14
G01 X1847.96 Y-691.67
G01 X1880.98 Y-677.04
G02 X1881.69 Y-676.82 I1.35 J-3.02
G01 X1923.96 Y-668.05
G01 X1923.96 Y-759.66
M50
G01 X1923.96 Y-760.76
G03 X1925.96 Y-762.76 I2.00 J0.00
M08
G40
M51
M93
G00 X1860.13 Y-682.50
M94 F2750
G41 D21
N163 M07
G01 X1854.64 Y-681.37
G01 X1812.37 Y-672.60
G02 X1811.66 Y-672.37 I0.74 J3.55
G01 X1778.64 Y-657.75
G01 X1778.64 Y-612.28
G01 X1811.66 Y-597.66
G02 X1812.37 Y-597.43 I1.35 J-3.02
G01 X1854.64 Y-588.66
G01 X1854.64 Y-680.27
M50
G01 X1854.64 Y-681.37
G03 X1856.64 Y-683.37 I2.00 J0.00
M08
G40
M51
M93
G00 X1950.75 Y-670.11
M94 F2750
G41 D21
N164 M07
G01 X1945.26 Y-668.97
G01 X1902.99 Y-660.20
G02 X1902.28 Y-659.98 I0.74 J3.55
G01 X1869.26 Y-645.36
G01 X1869.26 Y-599.88
G01 X1902.28 Y-585.26
G02 X1902.99 Y-585.04 I1.35 J-3.02
G01 X1945.26 Y-576.27
G01 X1945.26 Y-667.87
M50
G01 X1945.26 Y-668.97
G03 X1947.26 Y-670.97 I2.00 J0.00
M08
G40
M51
M93
G00 X1927.12 Y-576.78
M94 F2750
G41 D21
N165 M07
G01 X1921.64 Y-575.64
G01 X1879.36 Y-566.87
G02 X1878.66 Y-566.65 I0.74 J3.55
G01 X1845.64 Y-552.03
G01 X1845.64 Y-506.55
G01 X1878.66 Y-491.93
G02 X1879.36 Y-491.71 I1.35 J-3.02
G01 X1921.64 Y-482.94
G01 X1921.64 Y-574.54
M50
G01 X1921.64 Y-575.64
G03 X1923.64 Y-577.64 I2.00 J0.00
M08
G40
M51
M93
G00 X1877.24 Y-488.51
M94 F2750
G41 D21
N166 M07
G01 X1871.64 Y-488.51
G01 X1850.12 Y-488.51
G01 X1845.64 Y-484.60
G01 X1845.64 Y-376.34
G01 X1849.47 Y-372.51
G01 X1871.64 Y-372.51
G01 X1871.64 Y-487.41
M50
G01 X1871.64 Y-488.51
G03 X1873.64 Y-490.51 I2.00 J0.00
M08
G40
M51
M93
G00 X1956.17 Y-443.17
M94 F2750
G41 D21
N167 M07
G01 X1950.68 Y-442.04
G01 X1908.41 Y-433.27
G02 X1907.70 Y-433.04 I0.74 J3.55
G01 X1874.68 Y-418.42
G01 X1874.68 Y-372.95
G01 X1907.70 Y-358.33
G02 X1908.41 Y-358.10 I1.35 J-3.02
G01 X1950.68 Y-349.33
G01 X1950.68 Y-440.94
M50
G01 X1950.68 Y-442.04
G03 X1952.68 Y-444.04 I2.00 J0.00
M08
G40
M51
M93
G00 X1877.24 Y-367.68
M94 F2750
G41 D21
N168 M07
G01 X1871.64 Y-367.68
G01 X1850.12 Y-367.68
G01 X1845.64 Y-363.77
G01 X1845.64 Y-255.51
G01 X1849.47 Y-251.68
G01 X1871.64 Y-251.68
G01 X1871.64 Y-366.58
M50
G01 X1871.64 Y-367.68
G03 X1873.64 Y-369.68 I2.00 J0.00
M08
G40
M51
M93
G00 X1956.17 Y-322.35
M94 F2750
G41 D21
N169 M07
G01 X1950.68 Y-321.21
G01 X1908.41 Y-312.44
G02 X1907.70 Y-312.21 I0.74 J3.55
G01 X1874.68 Y-297.59
G01 X1874.68 Y-252.12
G01 X1907.70 Y-237.50
G02 X1908.41 Y-237.27 I1.35 J-3.02
G01 X1950.68 Y-228.50
G01 X1950.68 Y-320.11
M50
G01 X1950.68 Y-321.21
G03 X1952.68 Y-323.21 I2.00 J0.00
M08
G40
M51
M93
G00 X1877.24 Y-246.85
M94 F2750
G41 D21
N170 M07
G01 X1871.64 Y-246.85
G01 X1850.12 Y-246.85
G01 X1845.64 Y-242.94
G01 X1845.64 Y-134.68
G01 X1849.47 Y-130.85
G01 X1871.64 Y-130.85
G01 X1871.64 Y-245.75
M50
G01 X1871.64 Y-246.85
G03 X1873.64 Y-248.85 I2.00 J0.00
M08
G40
M51
M93
G00 X1956.17 Y-201.52
M94 F2750
G41 D21
N171 M07
G01 X1950.68 Y-200.38
G01 X1908.41 Y-191.61
G02 X1907.70 Y-191.39 I0.74 J3.55
G01 X1874.68 Y-176.77
G01 X1874.68 Y-131.29
G01 X1907.70 Y-116.67
G02 X1908.41 Y-116.45 I1.35 J-3.02
G01 X1950.68 Y-107.68
G01 X1950.68 Y-199.28
M50
G01 X1950.68 Y-200.38
G03 X1952.68 Y-202.38 I2.00 J0.00
M08
G40
M51
M93
G00 X1877.24 Y-126.03
M94 F2750
G41 D21
N172 M07
G01 X1871.64 Y-126.03
G01 X1850.12 Y-126.03
G01 X1845.64 Y-122.12
G01 X1845.64 Y-13.86
G01 X1849.47 Y-10.03
G01 X1871.64 Y-10.03
G01 X1871.64 Y-124.93
M50
G01 X1871.64 Y-126.03
G03 X1873.64 Y-128.03 I2.00 J-0.00
M08
G40
M51
M93
G00 X1956.17 Y-103.93
M94 F2750
G41 D21
N173 M07
G01 X1950.68 Y-102.79
G01 X1908.41 Y-94.02
G02 X1907.70 Y-93.80 I0.74 J3.55
G01 X1874.68 Y-79.18
G01 X1874.68 Y-33.70
G01 X1907.70 Y-19.08
G02 X1908.41 Y-18.86 I1.35 J-3.02
G01 X1950.68 Y-10.09
G01 X1950.68 Y-101.69
M50
G01 X1950.68 Y-102.79
G03 X1952.68 Y-104.79 I2.00 J0.00
M08
G40
M51
M93
(PlanFooterCommand)
M64
T0
M65
#CS OFF
M30
