(PP_NAME=	  PP_Din)
(PP_VERSION=	  4.0)
(PP_INI_NAME=	  GC_PLASMA_4.5.ini)
(PP_INI_VERSION=  2014-02-26)
(PLANNAME=        vanger 1)
(MACHINE= 	  PowerMAX105_MS_45)
(MATERIAL= 	  S235JR)
(THICKNESS= 	  3)
#CONTOUR MODE [DEV PATH_DEV=0.2 RELEVANT_PATH=0.1]
#TRC [CONV_CIR_TO_LIN=1]
G71
G90
#CS ON [V.A.ABS.X, V.A.ABS.Y, 0, 0, 0, V.E.ROTATION]
M190
G162
G141
G237
G00 X127.69 Y-36.42
M64
T21
M65
M94 F2750
G41 D21
N1 M07
G01 X122.09 Y-36.42
G01 X13.83 Y-36.42
G01 X10.00 Y-32.59
G01 X10.00 Y-10.42
G01 X126.00 Y-10.42
G01 X126.00 Y-31.94
G01 X122.81 Y-35.59
M50
G01 X122.09 Y-36.42
G03 X122.28 Y-39.24 I1.51 J-1.31
M08
G40
M51
M93
G00 X382.28 Y-36.42
M94 F2750
G41 D21
N2 M07
G01 X376.68 Y-36.42
G01 X268.42 Y-36.42
G01 X264.59 Y-32.59
G01 X264.59 Y-10.42
G01 X380.59 Y-10.42
G01 X380.59 Y-31.94
G01 X377.40 Y-35.59
M50
G01 X376.68 Y-36.42
G03 X376.87 Y-39.24 I1.51 J-1.31
M08
G40
M51
M93
G00 X501.71 Y-36.42
M94 F2750
G41 D21
N3 M07
G01 X496.11 Y-36.42
G01 X387.84 Y-36.42
G01 X384.02 Y-32.59
G01 X384.02 Y-10.42
G01 X500.02 Y-10.42
G01 X500.02 Y-31.94
G01 X496.83 Y-35.59
M50
G01 X496.11 Y-36.42
G03 X496.30 Y-39.24 I1.51 J-1.31
M08
G40
M51
M93
G00 X504.62 Y-617.25
M94 F2750
G41 D21
N4 M07
G01 X499.02 Y-617.25
G01 X390.76 Y-617.25
G01 X386.93 Y-613.42
G01 X386.93 Y-591.25
G01 X502.93 Y-591.25
G01 X502.93 Y-612.77
G01 X499.74 Y-616.42
M50
G01 X499.02 Y-617.25
G03 X499.21 Y-620.07 I1.51 J-1.31
M08
G40
M51
M93
G00 X127.69 Y-617.25
M94 F2750
G41 D21
N5 M07
G01 X122.09 Y-617.25
G01 X13.83 Y-617.25
G01 X10.00 Y-613.42
G01 X10.00 Y-591.25
G01 X126.00 Y-591.25
G01 X126.00 Y-612.77
G01 X122.81 Y-616.42
M50
G01 X122.09 Y-617.25
G03 X122.28 Y-620.07 I1.51 J-1.31
M08
G40
M51
M93
G00 X386.19 Y-618.07
M94 F2750
G41 D21
N6 M07
G01 X380.59 Y-618.07
G01 X264.59 Y-618.07
G01 X264.59 Y-596.56
G01 X268.50 Y-592.07
G01 X376.76 Y-592.07
G01 X380.59 Y-595.90
G01 X380.59 Y-616.97
M50
G01 X380.59 Y-618.07
G03 X382.59 Y-620.07 I2.00 J0.00
M08
G40
M51
M93
G00 X382.28 Y-649.29
M94 F2750
G41 D21
N7 M07
G01 X376.68 Y-649.29
G01 X268.42 Y-649.29
G01 X264.59 Y-645.46
G01 X264.59 Y-623.29
G01 X380.59 Y-623.29
G01 X380.59 Y-644.81
G01 X377.40 Y-648.46
M50
G01 X376.68 Y-649.29
G03 X376.87 Y-652.11 I1.51 J-1.31
M08
G40
M51
M93
G00 X501.71 Y-649.29
M94 F2750
G41 D21
N8 M07
G01 X496.11 Y-649.29
G01 X387.84 Y-649.29
G01 X384.02 Y-645.46
G01 X384.02 Y-623.29
G01 X500.02 Y-623.29
G01 X500.02 Y-644.81
G01 X496.83 Y-648.46
M50
G01 X496.11 Y-649.29
G03 X496.30 Y-652.11 I1.51 J-1.31
M08
G40
M51
M93
G00 X127.69 Y-649.29
M94 F2750
G41 D21
N9 M07
G01 X122.09 Y-649.29
G01 X13.83 Y-649.29
G01 X10.00 Y-645.46
G01 X10.00 Y-623.29
G01 X126.00 Y-623.29
G01 X126.00 Y-644.81
G01 X122.81 Y-648.46
M50
G01 X122.09 Y-649.29
G03 X122.28 Y-652.11 I1.51 J-1.31
M08
G40
M51
M93
G00 X961.47 Y-666.95
M94 F2750
G41 D21
N10 M07
G01 X955.87 Y-666.95
G01 X910.40 Y-666.95
G01 X895.77 Y-633.93
G02 X895.55 Y-633.23 I3.02 J1.35
G01 X886.78 Y-590.95
G01 X979.48 Y-590.95
G01 X970.71 Y-633.23
G02 X970.49 Y-633.92 I-3.55 J0.74
G01 X970.49 Y-633.93
G01 X956.31 Y-665.95
M50
G01 X955.87 Y-666.95
G03 X956.89 Y-669.59 I1.83 J-0.81
M08
G40
M51
M93
G00 X203.54 Y-667.54
M94 F2750
G41 D21
N11 M07
G01 X197.94 Y-667.54
G01 X152.46 Y-667.54
G01 X137.84 Y-634.52
G02 X137.62 Y-633.81 I3.02 J1.35
G01 X128.85 Y-591.54
G01 X221.55 Y-591.54
G01 X212.78 Y-633.81
G02 X212.56 Y-634.51 I-3.55 J0.74
G01 X212.56 Y-634.52
G01 X198.38 Y-666.53
M50
G01 X197.94 Y-667.54
G03 X198.95 Y-670.17 I1.83 J-0.81
M08
G40
M51
M93
G00 X580.46 Y-669.28
M94 F2750
G41 D21
N12 M07
G01 X574.86 Y-669.28
G01 X529.39 Y-669.28
G01 X514.77 Y-636.26
G02 X514.54 Y-635.56 I3.02 J1.35
G01 X505.77 Y-593.28
G01 X598.48 Y-593.28
G01 X589.71 Y-635.56
G02 X589.49 Y-636.25 I-3.55 J0.74
G01 X589.48 Y-636.26
G01 X575.31 Y-668.28
M50
G01 X574.86 Y-669.28
G03 X575.88 Y-671.92 I1.83 J-0.81
M08
G40
M51
M93
G00 X804.17 Y-672.78
M94 F2750
G41 D21
N13 M07
G01 X798.57 Y-672.78
G01 X753.10 Y-672.78
G01 X738.48 Y-639.76
G02 X738.25 Y-639.05 I3.02 J1.35
G01 X729.48 Y-596.78
G01 X822.19 Y-596.78
G01 X813.42 Y-639.05
G02 X813.20 Y-639.75 I-3.55 J0.74
G01 X813.19 Y-639.76
G01 X799.02 Y-671.77
M50
G01 X798.57 Y-672.78
G03 X799.59 Y-675.42 I1.83 J-0.81
M08
G40
M51
M93
G00 X499.21 Y-678.66
M94 F2750
G41 D21
N14 M07
G01 X493.61 Y-678.66
G01 X377.61 Y-678.66
G01 X377.61 Y-657.14
G01 X381.52 Y-652.66
G01 X489.78 Y-652.66
G01 X493.61 Y-656.49
G01 X493.61 Y-677.56
M50
G01 X493.61 Y-678.66
G03 X495.61 Y-680.66 I2.00 J0.00
M08
G40
M51
M93
G00 X907.02 Y-679.07
M94 F2750
G41 D21
N15 M07
G01 X901.42 Y-679.07
G01 X808.71 Y-679.07
G01 X817.48 Y-636.79
G02 X817.71 Y-636.09 I3.55 J-0.74
G01 X832.33 Y-603.07
G01 X877.80 Y-603.07
G01 X892.42 Y-636.09
G02 X892.65 Y-636.78 I-3.02 J-1.35
G01 X892.65 Y-636.79
G01 X901.20 Y-677.99
M50
G01 X901.42 Y-679.07
G03 X903.78 Y-680.62 I1.96 J0.41
M08
G40
M51
M93
G00 X504.62 Y-1247.02
M94 F2750
G41 D21
N16 M07
G01 X499.02 Y-1247.02
G01 X390.76 Y-1247.02
G01 X386.93 Y-1243.19
G01 X386.93 Y-1221.02
G01 X502.93 Y-1221.02
G01 X502.93 Y-1242.53
G01 X499.74 Y-1246.19
M50
G01 X499.02 Y-1247.02
G03 X499.21 Y-1249.84 I1.51 J-1.31
M08
G40
M51
M93
G00 X127.69 Y-1247.02
M94 F2750
G41 D21
N17 M07
G01 X122.09 Y-1247.02
G01 X13.83 Y-1247.02
G01 X10.00 Y-1243.19
G01 X10.00 Y-1221.02
G01 X126.00 Y-1221.02
G01 X126.00 Y-1242.53
G01 X122.81 Y-1246.19
M50
G01 X122.09 Y-1247.02
G03 X122.28 Y-1249.84 I1.51 J-1.31
M08
G40
M51
M93
G00 X386.19 Y-1247.84
M94 F2750
G41 D21
N18 M07
G01 X380.59 Y-1247.84
G01 X264.59 Y-1247.84
G01 X264.59 Y-1226.32
G01 X268.50 Y-1221.84
G01 X376.76 Y-1221.84
G01 X380.59 Y-1225.67
G01 X380.59 Y-1246.74
M50
G01 X380.59 Y-1247.84
G03 X382.59 Y-1249.84 I2.00 J0.00
M08
G40
M51
M93
G00 X382.28 Y-1279.06
M94 F2750
G41 D21
N19 M07
G01 X376.68 Y-1279.06
G01 X268.42 Y-1279.06
G01 X264.59 Y-1275.23
G01 X264.59 Y-1253.06
G01 X380.59 Y-1253.06
G01 X380.59 Y-1274.58
G01 X377.40 Y-1278.23
M50
G01 X376.68 Y-1279.06
G03 X376.87 Y-1281.88 I1.51 J-1.31
M08
G40
M51
M93
G00 X501.71 Y-1279.06
M94 F2750
G41 D21
N20 M07
G01 X496.11 Y-1279.06
G01 X387.84 Y-1279.06
G01 X384.02 Y-1275.23
G01 X384.02 Y-1253.06
G01 X500.02 Y-1253.06
G01 X500.02 Y-1274.58
G01 X496.83 Y-1278.23
M50
G01 X496.11 Y-1279.06
G03 X496.30 Y-1281.88 I1.51 J-1.31
M08
G40
M51
M93
G00 X127.69 Y-1279.06
M94 F2750
G41 D21
N21 M07
G01 X122.09 Y-1279.06
G01 X13.83 Y-1279.06
G01 X10.00 Y-1275.23
G01 X10.00 Y-1253.06
G01 X126.00 Y-1253.06
G01 X126.00 Y-1274.58
G01 X122.81 Y-1278.23
M50
G01 X122.09 Y-1279.06
G03 X122.28 Y-1281.88 I1.51 J-1.31
M08
G40
M51
M93
G00 X961.47 Y-1296.72
M94 F2750
G41 D21
N22 M07
G01 X955.87 Y-1296.72
G01 X910.40 Y-1296.72
G01 X895.77 Y-1263.70
G02 X895.55 Y-1263.00 I3.02 J1.35
G01 X886.78 Y-1220.72
G01 X979.48 Y-1220.72
G01 X970.71 Y-1263.00
G02 X970.49 Y-1263.69 I-3.55 J0.74
G01 X970.49 Y-1263.70
G01 X956.31 Y-1295.71
M50
G01 X955.87 Y-1296.72
G03 X956.89 Y-1299.36 I1.83 J-0.81
M08
G40
M51
M93
G00 X203.54 Y-1297.30
M94 F2750
G41 D21
N23 M07
G01 X197.94 Y-1297.30
G01 X152.46 Y-1297.30
G01 X137.84 Y-1264.28
G02 X137.62 Y-1263.58 I3.02 J1.35
G01 X128.85 Y-1221.30
G01 X221.55 Y-1221.30
G01 X212.78 Y-1263.58
G02 X212.56 Y-1264.27 I-3.55 J0.74
G01 X212.56 Y-1264.28
G01 X198.38 Y-1296.30
M50
G01 X197.94 Y-1297.30
G03 X198.95 Y-1299.94 I1.83 J-0.81
M08
G40
M51
M93
G00 X580.46 Y-1299.05
M94 F2750
G41 D21
N24 M07
G01 X574.86 Y-1299.05
G01 X529.39 Y-1299.05
G01 X514.77 Y-1266.03
G02 X514.54 Y-1265.33 I3.02 J1.35
G01 X505.77 Y-1223.05
G01 X598.48 Y-1223.05
G01 X589.71 Y-1265.33
G02 X589.49 Y-1266.02 I-3.55 J0.74
G01 X589.48 Y-1266.03
G01 X575.31 Y-1298.04
M50
G01 X574.86 Y-1299.05
G03 X575.88 Y-1301.69 I1.83 J-0.81
M08
G40
M51
M93
G00 X804.17 Y-1302.55
M94 F2750
G41 D21
N25 M07
G01 X798.57 Y-1302.55
G01 X753.10 Y-1302.55
G01 X738.48 Y-1269.53
G02 X738.25 Y-1268.82 I3.02 J1.35
G01 X729.48 Y-1226.55
G01 X822.19 Y-1226.55
G01 X813.42 Y-1268.82
G02 X813.20 Y-1269.52 I-3.55 J0.74
G01 X813.19 Y-1269.53
G01 X799.02 Y-1301.54
M50
G01 X798.57 Y-1302.55
G03 X799.59 Y-1305.18 I1.83 J-0.81
M08
G40
M51
M93
G00 X499.21 Y-1308.43
M94 F2750
G41 D21
N26 M07
G01 X493.61 Y-1308.43
G01 X377.61 Y-1308.43
G01 X377.61 Y-1286.91
G01 X381.52 Y-1282.43
G01 X489.78 Y-1282.43
G01 X493.61 Y-1286.26
G01 X493.61 Y-1307.33
M50
G01 X493.61 Y-1308.43
G03 X495.61 Y-1310.43 I2.00 J0.00
M08
G40
M51
M93
G00 X907.02 Y-1308.83
M94 F2750
G41 D21
N27 M07
G01 X901.42 Y-1308.83
G01 X808.71 Y-1308.83
G01 X817.48 Y-1266.56
G02 X817.71 Y-1265.85 I3.55 J-0.74
G01 X832.33 Y-1232.83
G01 X877.80 Y-1232.83
G01 X892.42 Y-1265.85
G02 X892.65 Y-1266.55 I-3.02 J-1.35
G01 X892.65 Y-1266.56
G01 X901.20 Y-1307.76
M50
G01 X901.42 Y-1308.83
G03 X903.78 Y-1310.39 I1.96 J0.41
M08
G40
M51
M93
G00 X386.19 Y-1877.61
M94 F2750
G41 D21
N28 M07
G01 X380.59 Y-1877.61
G01 X264.59 Y-1877.61
G01 X264.59 Y-1856.09
G01 X268.50 Y-1851.61
G01 X376.76 Y-1851.61
G01 X380.59 Y-1855.43
G01 X380.59 Y-1876.51
M50
G01 X380.59 Y-1877.61
G03 X382.59 Y-1879.61 I2.00 J0.00
M08
G40
M51
M93
G00 X402.67 Y-1908.83
M94 F2750
G41 D21
N29 M07
G01 X397.07 Y-1908.83
G01 X288.81 Y-1908.83
G01 X284.98 Y-1905.00
G01 X284.98 Y-1882.83
G01 X400.98 Y-1882.83
G01 X400.98 Y-1904.34
G01 X397.79 Y-1908.00
M50
G01 X397.07 Y-1908.83
G03 X397.26 Y-1911.65 I1.51 J-1.31
M08
G40
M51
M93
G00 X163.23 Y-1911.74
M94 F2750
G41 D21
N30 M07
G01 X157.63 Y-1911.74
G01 X49.37 Y-1911.74
G01 X45.54 Y-1907.91
G01 X45.54 Y-1885.74
G01 X161.54 Y-1885.74
G01 X161.54 Y-1907.26
G01 X158.35 Y-1910.91
M50
G01 X157.63 Y-1911.74
G03 X157.82 Y-1914.56 I1.51 J-1.31
M08
G40
M51
M93
G00 X283.82 Y-1920.48
M94 F2750
G41 D21
N31 M07
G01 X278.22 Y-1920.48
G01 X169.96 Y-1920.48
G01 X166.13 Y-1916.65
G01 X166.13 Y-1894.48
G01 X282.13 Y-1894.48
G01 X282.13 Y-1915.99
G01 X278.94 Y-1919.65
M50
G01 X278.22 Y-1920.48
G03 X278.41 Y-1923.30 I1.51 J-1.31
M08
G40
M51
M93
G00 X489.58 Y-1926.49
M94 F2750
G41 D21
N32 M07
G01 X483.98 Y-1926.49
G01 X438.51 Y-1926.49
G01 X423.89 Y-1893.47
G02 X423.66 Y-1892.76 I3.02 J1.35
G01 X414.89 Y-1850.49
G01 X507.60 Y-1850.49
G01 X498.83 Y-1892.76
G02 X498.61 Y-1893.46 I-3.55 J0.74
G01 X498.60 Y-1893.47
G01 X484.43 Y-1925.48
M50
G01 X483.98 Y-1926.49
G03 X485.00 Y-1929.13 I1.83 J-0.81
M08
G40
M51
M93
G00 X908.45 Y-1926.49
M94 F2750
G41 D21
N33 M07
G01 X902.85 Y-1926.49
G01 X857.38 Y-1926.49
G01 X842.76 Y-1893.47
G02 X842.54 Y-1892.76 I3.02 J1.35
G01 X833.77 Y-1850.49
G01 X926.47 Y-1850.49
G01 X917.70 Y-1892.76
G02 X917.48 Y-1893.46 I-3.55 J0.74
G01 X917.48 Y-1893.47
G01 X903.30 Y-1925.48
M50
G01 X902.85 Y-1926.49
G03 X903.87 Y-1929.13 I1.83 J-0.81
M08
G40
M51
M93
G00 X431.21 Y-1940.87
M94 F2750
G41 D21
N34 M07
G01 X425.61 Y-1940.87
G01 X317.35 Y-1940.87
G01 X313.52 Y-1937.04
G01 X313.52 Y-1914.87
G01 X429.52 Y-1914.87
G01 X429.52 Y-1936.38
G01 X426.34 Y-1940.04
M50
G01 X425.61 Y-1940.87
G03 X425.81 Y-1943.69 I1.51 J-1.31
M08
G40
M51
M93
G00 X312.37 Y-1952.52
M94 F2750
G41 D21
N35 M07
G01 X306.77 Y-1952.52
G01 X198.51 Y-1952.52
G01 X194.68 Y-1948.69
G01 X194.68 Y-1926.52
G01 X310.68 Y-1926.52
G01 X310.68 Y-1948.04
G01 X307.49 Y-1951.69
M50
G01 X306.77 Y-1952.52
G03 X306.96 Y-1955.34 I1.51 J-1.31
M08
G40
M51
M93
G00 X627.07 Y-1970.18
M94 F2750
G41 D21
N36 M07
G01 X621.47 Y-1970.18
G01 X576.00 Y-1970.18
G01 X561.37 Y-1937.16
G02 X561.15 Y-1936.46 I3.02 J1.35
G01 X552.38 Y-1894.18
G01 X645.08 Y-1894.18
G01 X636.32 Y-1936.46
G02 X636.09 Y-1937.15 I-3.55 J0.74
G01 X636.09 Y-1937.16
G01 X621.91 Y-1969.17
M50
G01 X621.47 Y-1970.18
G03 X622.49 Y-1972.82 I1.83 J-0.81
M08
G40
M51
M93
G00 X777.37 Y-1970.18
M94 F2750
G41 D21
N37 M07
G01 X771.77 Y-1970.18
G01 X726.30 Y-1970.18
G01 X711.68 Y-1937.16
G02 X711.46 Y-1936.46 I3.02 J1.35
G01 X702.69 Y-1894.18
G01 X795.39 Y-1894.18
G01 X786.62 Y-1936.46
G02 X786.40 Y-1937.15 I-3.55 J0.74
G01 X786.40 Y-1937.16
G01 X772.22 Y-1969.17
M50
G01 X771.77 Y-1970.18
G03 X772.79 Y-1972.82 I1.83 J-0.81
M08
G40
M51
M93
G00 X142.53 Y-1972.24
M94 F2750
G41 D21
N38 M07
G01 X142.54 Y-1966.64
G02 X141.77 Y-1966.56 I0.01 J3.89
G01 X43.72 Y-1946.22
G02 X43.02 Y-1945.99 I0.77 J3.65
G01 X10.00 Y-1931.37
G01 X10.00 Y-1885.90
G01 X43.02 Y-1871.28
G02 X43.72 Y-1871.05 I1.32 J-2.94
G01 X141.77 Y-1850.71
G02 X142.54 Y-1850.64 I0.76 J-3.61
G01 X191.39 Y-1850.64
G01 X191.39 Y-1882.14
G01 X42.66 Y-1882.14
G01 X42.66 Y-1935.14
G01 X191.39 Y-1935.14
G01 X191.39 Y-1966.64
G01 X143.64 Y-1966.64
M50
G01 X142.54 Y-1966.64
G03 X140.54 Y-1968.64 I0.00 J-2.00
M08
G40
M51
M93
G00 X431.21 Y-1982.23
M94 F2750
G41 D21
N39 M07
G01 X425.61 Y-1982.23
G01 X317.35 Y-1982.23
G01 X313.52 Y-1978.40
G01 X313.52 Y-1956.23
G01 X429.52 Y-1956.23
G01 X429.52 Y-1977.75
G01 X426.34 Y-1981.40
M50
G01 X425.61 Y-1982.23
G03 X425.81 Y-1985.05 I1.51 J-1.31
M08
G40
M51
M93
G00 X312.37 Y-1984.56
M94 F2750
G41 D21
N40 M07
G01 X306.77 Y-1984.56
G01 X198.51 Y-1984.56
G01 X194.68 Y-1980.73
G01 X194.68 Y-1958.56
G01 X310.68 Y-1958.56
G01 X310.68 Y-1980.08
G01 X307.49 Y-1983.73
M50
G01 X306.77 Y-1984.56
G03 X306.96 Y-1987.38 I1.51 J-1.31
M08
G40
M51
M93
G00 X574.95 Y-1986.95
M94 F2750
G41 D21
N41 M07
G01 X569.35 Y-1986.95
G01 X476.65 Y-1986.95
G01 X485.41 Y-1944.68
G02 X485.64 Y-1943.97 I3.55 J-0.74
G01 X500.26 Y-1910.95
G01 X545.73 Y-1910.95
G01 X560.36 Y-1943.97
G02 X560.58 Y-1944.67 I-3.02 J-1.35
G01 X560.58 Y-1944.68
G01 X569.13 Y-1985.88
M50
G01 X569.35 Y-1986.95
G03 X571.71 Y-1988.51 I1.96 J0.41
M08
G40
M51
M93
G00 X993.82 Y-1986.95
M94 F2750
G41 D21
N42 M07
G01 X988.22 Y-1986.95
G01 X895.52 Y-1986.95
G01 X904.29 Y-1944.68
G02 X904.51 Y-1943.97 I3.55 J-0.74
G01 X919.13 Y-1910.95
G01 X964.61 Y-1910.95
G01 X979.23 Y-1943.97
G02 X979.45 Y-1944.67 I-3.02 J-1.35
G01 X979.45 Y-1944.68
G01 X988.00 Y-1985.88
M50
G01 X988.22 Y-1986.95
G03 X990.59 Y-1988.51 I1.96 J0.41
M08
G40
M51
M93
G00 X876.14 Y-1988.12
M94 F2750
G41 D21
N43 M07
G01 X870.54 Y-1988.12
G01 X777.84 Y-1988.12
G01 X786.61 Y-1945.84
G02 X786.83 Y-1945.14 I3.55 J-0.74
G01 X801.45 Y-1912.12
G01 X846.93 Y-1912.12
G01 X861.55 Y-1945.14
G02 X861.77 Y-1945.83 I-3.02 J-1.35
G01 X861.77 Y-1945.84
G01 X870.32 Y-1987.04
M50
G01 X870.54 Y-1988.12
G03 X872.91 Y-1989.67 I1.96 J0.41
M08
G40
M51
M93
G00 X725.84 Y-1988.12
M94 F2750
G41 D21
N44 M07
G01 X720.24 Y-1988.12
G01 X627.53 Y-1988.12
G01 X636.30 Y-1945.84
G02 X636.53 Y-1945.14 I3.55 J-0.74
G01 X651.15 Y-1912.12
G01 X696.62 Y-1912.12
G01 X711.24 Y-1945.14
G02 X711.47 Y-1945.83 I-3.02 J-1.35
G01 X711.47 Y-1945.84
G01 X720.01 Y-1987.04
M50
G01 X720.24 Y-1988.12
G03 X722.60 Y-1989.67 I1.96 J0.41
M08
G40
M51
M93
G00 X1112.09 Y-1986.95
M94 F2750
G41 D21
N45 M07
G01 X1106.49 Y-1986.95
G01 X1013.78 Y-1986.95
G01 X1022.55 Y-1944.68
G02 X1022.78 Y-1943.97 I3.55 J-0.74
G01 X1037.40 Y-1910.95
G01 X1082.87 Y-1910.95
G01 X1097.49 Y-1943.97
G02 X1097.71 Y-1944.67 I-3.02 J-1.35
G01 X1097.72 Y-1944.68
G01 X1106.26 Y-1985.88
M50
G01 X1106.49 Y-1986.95
G03 X1108.85 Y-1988.51 I1.96 J0.41
M08
G40
M51
M93
G00 X1164.21 Y-1970.18
M94 F2750
G41 D21
N46 M07
G01 X1158.61 Y-1970.18
G01 X1113.13 Y-1970.18
G01 X1098.51 Y-1937.16
G02 X1098.29 Y-1936.46 I3.02 J1.35
G01 X1089.52 Y-1894.18
G01 X1182.22 Y-1894.18
G01 X1173.45 Y-1936.46
G02 X1173.23 Y-1937.15 I-3.55 J0.74
G01 X1173.23 Y-1937.16
G01 X1159.05 Y-1969.17
M50
G01 X1158.61 Y-1970.18
G03 X1159.63 Y-1972.82 I1.83 J-0.81
M08
G40
M51
M93
G00 X1026.72 Y-1926.49
M94 F2750
G41 D21
N47 M07
G01 X1021.12 Y-1926.49
G01 X975.64 Y-1926.49
G01 X961.02 Y-1893.47
G02 X960.80 Y-1892.76 I3.02 J1.35
G01 X952.03 Y-1850.49
G01 X1044.73 Y-1850.49
G01 X1035.96 Y-1892.76
G02 X1035.74 Y-1893.46 I-3.55 J0.74
G01 X1035.74 Y-1893.47
G01 X1021.56 Y-1925.48
M50
G01 X1021.12 Y-1926.49
G03 X1022.14 Y-1929.13 I1.83 J-0.81
M08
G40
M51
M93
G00 X1130.24 Y-1580.38
M94 F1581
G41 D21
N48 M07
G01 X1135.84 Y-1580.38
M50
G03 X1132.84 Y-1577.38 I-3.00 J0.00
G01 X1076.04 Y-1577.38
G03 X1073.04 Y-1580.38 I0.00 J-3.00
G03 X1076.04 Y-1583.38 I3.00 J0.00
G01 X1132.84 Y-1583.38
G03 X1135.84 Y-1580.38 I0.00 J3.00
G03 X1135.07 Y-1578.37 I-3.00 J0.00
M08
G40
M51
M93
G00 X979.52 Y-1580.38
M94 F1581
G41 D21
N49 M07
G01 X985.12 Y-1580.38
M50
G03 X982.12 Y-1577.38 I-3.00 J0.00
G01 X925.32 Y-1577.38
G03 X922.32 Y-1580.38 I0.00 J-3.00
G03 X925.32 Y-1583.38 I3.00 J0.00
G01 X982.12 Y-1583.38
G03 X985.12 Y-1580.38 I0.00 J3.00
G03 X984.35 Y-1578.37 I-3.00 J0.00
M08
G40
M51
M93
G00 X828.80 Y-1580.38
M94 F1581
G41 D21
N50 M07
G01 X834.40 Y-1580.38
M50
G03 X831.40 Y-1577.38 I-3.00 J0.00
G01 X774.60 Y-1577.38
G03 X771.60 Y-1580.38 I0.00 J-3.00
G03 X774.60 Y-1583.38 I3.00 J0.00
G01 X831.40 Y-1583.38
G03 X834.40 Y-1580.38 I0.00 J3.00
G03 X833.63 Y-1578.37 I-3.00 J0.00
M08
G40
M51
M93
G00 X678.08 Y-1580.38
M94 F1581
G41 D21
N51 M07
G01 X683.68 Y-1580.38
M50
G03 X680.68 Y-1577.38 I-3.00 J0.00
G01 X623.88 Y-1577.38
G03 X620.88 Y-1580.38 I0.00 J-3.00
G03 X623.88 Y-1583.38 I3.00 J0.00
G01 X680.68 Y-1583.38
G03 X683.68 Y-1580.38 I0.00 J3.00
G03 X682.91 Y-1578.37 I-3.00 J0.00
M08
G40
M51
M93
G00 X527.36 Y-1580.38
M94 F1581
G41 D21
N52 M07
G01 X532.96 Y-1580.38
M50
G03 X529.96 Y-1577.38 I-3.00 J0.00
G01 X473.16 Y-1577.38
G03 X470.16 Y-1580.38 I0.00 J-3.00
G03 X473.16 Y-1583.38 I3.00 J0.00
G01 X529.96 Y-1583.38
G03 X532.96 Y-1580.38 I0.00 J3.00
G03 X532.19 Y-1578.37 I-3.00 J0.00
M08
G40
M51
M93
G00 X376.64 Y-1580.38
M94 F1581
G41 D21
N53 M07
G01 X382.24 Y-1580.38
M50
G03 X379.24 Y-1577.38 I-3.00 J0.00
G01 X322.44 Y-1577.38
G03 X319.44 Y-1580.38 I0.00 J-3.00
G03 X322.44 Y-1583.38 I3.00 J0.00
G01 X379.24 Y-1583.38
G03 X382.24 Y-1580.38 I0.00 J3.00
G03 X381.47 Y-1578.37 I-3.00 J0.00
M08
G40
M51
M93
G00 X225.92 Y-1580.38
M94 F1581
G41 D21
N54 M07
G01 X231.52 Y-1580.38
M50
G03 X228.52 Y-1577.38 I-3.00 J0.00
G01 X171.72 Y-1577.38
G03 X168.72 Y-1580.38 I0.00 J-3.00
G03 X171.72 Y-1583.38 I3.00 J0.00
G01 X228.52 Y-1583.38
G03 X231.52 Y-1580.38 I0.00 J3.00
G03 X230.75 Y-1578.37 I-3.00 J0.00
M08
G40
M51
M93
G00 X75.20 Y-1580.38
M94 F1581
G41 D21
N55 M07
G01 X80.80 Y-1580.38
M50
G03 X77.80 Y-1577.38 I-3.00 J0.00
G01 X21.00 Y-1577.38
G03 X18.00 Y-1580.38 I0.00 J-3.00
G03 X21.00 Y-1583.38 I3.00 J0.00
G01 X77.80 Y-1583.38
G03 X80.80 Y-1580.38 I-0.00 J3.00
G03 X80.03 Y-1578.37 I-3.00 J0.00
M08
G40
M51
M93
G00 X150.56 Y-1580.38
M94 F1581
G41 D21
N56 M07
G01 X156.16 Y-1580.38
M50
G03 X153.16 Y-1577.38 I-3.00 J0.00
G01 X96.36 Y-1577.38
G03 X93.36 Y-1580.38 I0.00 J-3.00
G03 X96.36 Y-1583.38 I3.00 J0.00
G01 X153.16 Y-1583.38
G03 X156.16 Y-1580.38 I0.00 J3.00
G03 X155.39 Y-1578.37 I-3.00 J0.00
M08
G40
M51
M93
G00 X301.28 Y-1580.38
M94 F1581
G41 D21
N57 M07
G01 X306.88 Y-1580.38
M50
G03 X303.88 Y-1577.38 I-3.00 J0.00
G01 X247.08 Y-1577.38
G03 X244.08 Y-1580.38 I0.00 J-3.00
G03 X247.08 Y-1583.38 I3.00 J0.00
G01 X303.88 Y-1583.38
G03 X306.88 Y-1580.38 I0.00 J3.00
G03 X306.11 Y-1578.37 I-3.00 J0.00
M08
G40
M51
M93
G00 X452.00 Y-1580.38
M94 F1581
G41 D21
N58 M07
G01 X457.60 Y-1580.38
M50
G03 X454.60 Y-1577.38 I-3.00 J0.00
G01 X397.80 Y-1577.38
G03 X394.80 Y-1580.38 I0.00 J-3.00
G03 X397.80 Y-1583.38 I3.00 J0.00
G01 X454.60 Y-1583.38
G03 X457.60 Y-1580.38 I0.00 J3.00
G03 X456.83 Y-1578.37 I-3.00 J0.00
M08
G40
M51
M93
G00 X602.72 Y-1580.38
M94 F1581
G41 D21
N59 M07
G01 X608.32 Y-1580.38
M50
G03 X605.32 Y-1577.38 I-3.00 J0.00
G01 X548.52 Y-1577.38
G03 X545.52 Y-1580.38 I0.00 J-3.00
G03 X548.52 Y-1583.38 I3.00 J0.00
G01 X605.32 Y-1583.38
G03 X608.32 Y-1580.38 I0.00 J3.00
G03 X607.55 Y-1578.37 I-3.00 J0.00
M08
G40
M51
M93
G00 X753.44 Y-1580.38
M94 F1581
G41 D21
N60 M07
G01 X759.04 Y-1580.38
M50
G03 X756.04 Y-1577.38 I-3.00 J0.00
G01 X699.24 Y-1577.38
G03 X696.24 Y-1580.38 I0.00 J-3.00
G03 X699.24 Y-1583.38 I3.00 J0.00
G01 X756.04 Y-1583.38
G03 X759.04 Y-1580.38 I0.00 J3.00
G03 X758.27 Y-1578.37 I-3.00 J0.00
M08
G40
M51
M93
G00 X904.16 Y-1580.38
M94 F1581
G41 D21
N61 M07
G01 X909.76 Y-1580.38
M50
G03 X906.76 Y-1577.38 I-3.00 J0.00
G01 X849.96 Y-1577.38
G03 X846.96 Y-1580.38 I0.00 J-3.00
G03 X849.96 Y-1583.38 I3.00 J0.00
G01 X906.76 Y-1583.38
G03 X909.76 Y-1580.38 I0.00 J3.00
G03 X908.99 Y-1578.37 I-3.00 J0.00
M08
G40
M51
M93
G00 X1054.88 Y-1580.38
M94 F1581
G41 D21
N62 M07
G01 X1060.48 Y-1580.38
M50
G03 X1057.48 Y-1577.38 I-3.00 J0.00
G01 X1000.68 Y-1577.38
G03 X997.68 Y-1580.38 I0.00 J-3.00
G03 X1000.68 Y-1583.38 I3.00 J0.00
G01 X1057.48 Y-1583.38
G03 X1060.48 Y-1580.38 I0.00 J3.00
G03 X1059.71 Y-1578.37 I-3.00 J0.00
M08
G40
M51
M93
G00 X1205.60 Y-1580.38
M94 F1581
G41 D21
N63 M07
G01 X1211.20 Y-1580.38
M50
G03 X1208.20 Y-1577.38 I-3.00 J0.00
G01 X1151.40 Y-1577.38
G03 X1148.40 Y-1580.38 I0.00 J-3.00
G03 X1151.40 Y-1583.38 I3.00 J0.00
G01 X1208.20 Y-1583.38
G03 X1211.20 Y-1580.38 I0.00 J3.00
G03 X1210.43 Y-1578.37 I-3.00 J0.00
M08
G40
M51
M93
G00 X1129.85 Y-1721.76
M94 F1788
G41 D21
N64 M07
G01 X1135.44 Y-1721.38
M50
G03 X1132.43 Y-1713.48 I-10.69 J0.45
G03 X1111.86 Y-1713.82 I-10.15 J-8.43
G03 X1116.21 Y-1734.55 I11.05 J-8.50
G03 X1134.95 Y-1726.50 I6.16 J11.50
G01 X1135.56 Y-1723.10
G01 X1135.44 Y-1721.38
G01 X1135.32 Y-1719.65
M08
G40
M51
M93
G00 X827.11 Y-1721.76
M94 F1788
G41 D21
N65 M07
G01 X832.70 Y-1721.38
M50
G03 X829.69 Y-1713.48 I-10.69 J0.45
G03 X809.12 Y-1713.82 I-10.15 J-8.43
G03 X813.47 Y-1734.55 I11.05 J-8.50
G03 X832.21 Y-1726.50 I6.16 J11.50
G01 X832.82 Y-1723.10
G01 X832.70 Y-1721.38
G01 X832.58 Y-1719.65
M08
G40
M51
M93
G00 X524.38 Y-1721.76
M94 F1788
G41 D21
N66 M07
G01 X529.96 Y-1721.38
M50
G03 X526.95 Y-1713.48 I-10.69 J0.45
G03 X506.38 Y-1713.82 I-10.15 J-8.43
G03 X510.74 Y-1734.55 I11.05 J-8.50
G03 X529.48 Y-1726.50 I6.16 J11.50
G01 X530.08 Y-1723.10
G01 X529.96 Y-1721.38
G01 X529.84 Y-1719.65
M08
G40
M51
M93
G00 X221.64 Y-1721.76
M94 F1788
G41 D21
N67 M07
G01 X227.23 Y-1721.38
M50
G03 X224.22 Y-1713.48 I-10.69 J0.45
G03 X203.65 Y-1713.82 I-10.15 J-8.43
G03 X208.00 Y-1734.55 I11.05 J-8.50
G03 X226.74 Y-1726.50 I6.16 J11.50
G01 X227.34 Y-1723.10
G01 X227.23 Y-1721.38
G01 X227.11 Y-1719.65
M08
G40
M51
M93
G00 X1189.26 Y-1530.07
M94 F1375
G41 D21
N68 M07
G01 X1193.22 Y-1526.11
M50
G03 X1188.45 Y-1524.13 I-4.77 J-4.77
G03 X1181.70 Y-1530.88 I0.00 J-6.75
G03 X1188.45 Y-1537.63 I6.75 J0.00
G03 X1195.20 Y-1530.88 I0.00 J6.75
G03 X1193.22 Y-1526.11 I-6.75 J-0.00
G03 X1191.44 Y-1524.83 I-4.77 J-4.77
M08
G40
M51
M93
G00 X1137.26 Y-1530.07
M94 F1375
G41 D21
N69 M07
G01 X1141.22 Y-1526.11
M50
G03 X1136.45 Y-1524.13 I-4.77 J-4.77
G03 X1129.70 Y-1530.88 I0.00 J-6.75
G03 X1136.45 Y-1537.63 I6.75 J0.00
G03 X1143.20 Y-1530.88 I0.00 J6.75
G03 X1141.22 Y-1526.11 I-6.75 J-0.00
G03 X1139.44 Y-1524.83 I-4.77 J-4.77
M08
G40
M51
M93
G00 X111.83 Y-1359.66
M94 F1719
G41 D21
N70 M07
G01 X115.79 Y-1355.70
M50
G03 X106.67 Y-1351.93 I-9.12 J-9.12
G03 X93.77 Y-1364.83 I0.00 J-12.90
G03 X106.67 Y-1377.73 I12.90 J0.00
G03 X119.57 Y-1364.83 I-0.00 J12.90
G03 X115.79 Y-1355.70 I-12.90 J0.00
G03 X114.11 Y-1354.29 I-9.12 J-9.12
M08
G40
M51
M93
G00 X414.57 Y-1359.66
M94 F1719
G41 D21
N71 M07
G01 X418.53 Y-1355.70
M50
G03 X409.41 Y-1351.93 I-9.12 J-9.12
G03 X396.51 Y-1364.83 I0.00 J-12.90
G03 X409.41 Y-1377.73 I12.90 J0.00
G03 X422.31 Y-1364.83 I-0.00 J12.90
G03 X418.53 Y-1355.70 I-12.90 J0.00
G03 X416.85 Y-1354.29 I-9.12 J-9.12
M08
G40
M51
M93
G00 X717.31 Y-1369.99
M94 F1719
G41 D21
N72 M07
G01 X721.27 Y-1373.95
M50
G03 X725.05 Y-1364.83 I-9.12 J9.12
G03 X712.15 Y-1351.93 I-12.90 J0.00
G03 X699.25 Y-1364.83 I0.00 J-12.90
G03 X712.15 Y-1377.73 I12.90 J0.00
G03 X721.27 Y-1373.95 I-0.00 J12.90
G03 X722.68 Y-1372.27 I-9.12 J9.12
M08
G40
M51
M93
G00 X1020.05 Y-1359.66
M94 F1719
G41 D21
N73 M07
G01 X1024.00 Y-1355.70
M50
G03 X1014.88 Y-1351.93 I-9.12 J-9.12
G03 X1001.98 Y-1364.83 I0.00 J-12.90
G03 X1014.88 Y-1377.73 I12.90 J0.00
G03 X1027.78 Y-1364.83 I-0.00 J12.90
G03 X1024.00 Y-1355.70 I-12.90 J0.00
G03 X1022.32 Y-1354.29 I-9.12 J-9.12
M08
G40
M51
M93
G00 X1189.26 Y-1379.57
M94 F1375
G41 D21
N74 M07
G01 X1193.22 Y-1375.61
M50
G03 X1188.45 Y-1373.63 I-4.77 J-4.77
G03 X1181.70 Y-1380.38 I0.00 J-6.75
G03 X1188.45 Y-1387.13 I6.75 J0.00
G03 X1195.20 Y-1380.38 I0.00 J6.75
G03 X1193.22 Y-1375.61 I-6.75 J-0.00
G03 X1191.44 Y-1374.33 I-4.77 J-4.77
M08
G40
M51
M93
G00 X1137.26 Y-1381.19
M94 F1375
G41 D21
N75 M07
G01 X1141.22 Y-1385.15
M50
G03 X1143.20 Y-1380.38 I-4.77 J4.77
G03 X1136.45 Y-1373.63 I-6.75 J0.00
G03 X1129.70 Y-1380.38 I0.00 J-6.75
G03 X1136.45 Y-1387.13 I6.75 J0.00
G03 X1141.22 Y-1385.15 I-0.00 J6.75
G03 X1142.50 Y-1383.37 I-4.77 J4.77
M08
G40
M51
M93
G00 X221.65 Y-1438.74
M94 F1788
G41 D21
N76 M07
G01 X227.25 Y-1438.96
M50
G03 X225.10 Y-1430.77 I-10.61 J1.59
G03 X207.63 Y-1426.42 I-11.11 J-7.36
G03 X202.09 Y-1444.38 I6.64 J-11.88
G03 X219.18 Y-1451.08 I12.14 J5.83
G03 X226.22 Y-1443.99 I-5.27 J12.27
G01 X227.18 Y-1440.68
G01 X227.25 Y-1438.96
G01 X227.31 Y-1437.23
M08
G40
M51
M93
G00 X524.39 Y-1438.74
M94 F1788
G41 D21
N77 M07
G01 X529.99 Y-1438.96
M50
G03 X527.84 Y-1430.77 I-10.61 J1.59
G03 X510.37 Y-1426.42 I-11.11 J-7.36
G03 X504.83 Y-1444.38 I6.64 J-11.88
G03 X521.92 Y-1451.08 I12.14 J5.83
G03 X528.96 Y-1443.99 I-5.27 J12.27
G01 X529.92 Y-1440.68
G01 X529.99 Y-1438.96
G01 X530.05 Y-1437.23
M08
G40
M51
M93
G00 X827.13 Y-1438.74
M94 F1788
G41 D21
N78 M07
G01 X832.72 Y-1438.96
M50
G03 X830.58 Y-1430.77 I-10.61 J1.59
G03 X813.10 Y-1426.42 I-11.11 J-7.36
G03 X807.56 Y-1444.38 I6.64 J-11.88
G03 X824.65 Y-1451.08 I12.14 J5.83
G03 X831.69 Y-1443.99 I-5.27 J12.27
G01 X832.66 Y-1440.68
G01 X832.72 Y-1438.96
G01 X832.79 Y-1437.23
M08
G40
M51
M93
G00 X1129.86 Y-1438.74
M94 F1788
G41 D21
N79 M07
G01 X1135.46 Y-1438.96
M50
G03 X1133.31 Y-1430.77 I-10.61 J1.59
G03 X1115.84 Y-1426.42 I-11.11 J-7.36
G03 X1110.30 Y-1444.38 I6.64 J-11.88
G03 X1127.39 Y-1451.08 I12.14 J5.83
G03 X1134.43 Y-1443.99 I-5.27 J12.27
G01 X1135.39 Y-1440.68
G01 X1135.46 Y-1438.96
G01 X1135.53 Y-1437.23
M08
G40
M51
M93
G00 X1137.26 Y-1629.07
M94 F1375
G41 D21
N80 M07
G01 X1141.22 Y-1625.11
M50
G03 X1136.45 Y-1623.13 I-4.77 J-4.77
G03 X1129.70 Y-1629.88 I0.00 J-6.75
G03 X1136.45 Y-1636.63 I6.75 J0.00
G03 X1143.20 Y-1629.88 I0.00 J6.75
G03 X1141.22 Y-1625.11 I-6.75 J-0.00
G03 X1139.44 Y-1623.83 I-4.77 J-4.77
M08
G40
M51
M93
G00 X1189.26 Y-1629.07
M94 F1375
G41 D21
N81 M07
G01 X1193.22 Y-1625.11
M50
G03 X1188.45 Y-1623.13 I-4.77 J-4.77
G03 X1181.70 Y-1629.88 I0.00 J-6.75
G03 X1188.45 Y-1636.63 I6.75 J0.00
G03 X1195.20 Y-1629.88 I0.00 J6.75
G03 X1193.22 Y-1625.11 I-6.75 J-0.00
G03 X1191.44 Y-1623.83 I-4.77 J-4.77
M08
G40
M51
M93
G00 X1137.26 Y-1781.20
M94 F1375
G41 D21
N82 M07
G01 X1141.22 Y-1785.16
M50
G03 X1143.20 Y-1780.38 I-4.77 J4.77
G03 X1136.45 Y-1773.63 I-6.75 J0.00
G03 X1129.70 Y-1780.38 I0.00 J-6.75
G03 X1136.45 Y-1787.13 I6.75 J0.00
G03 X1141.22 Y-1785.16 I-0.00 J6.75
G03 X1142.50 Y-1783.38 I-4.77 J4.77
M08
G40
M51
M93
G00 X1189.26 Y-1779.57
M94 F1375
G41 D21
N83 M07
G01 X1193.22 Y-1775.61
M50
G03 X1188.45 Y-1773.63 I-4.77 J-4.77
G03 X1181.70 Y-1780.38 I0.00 J-6.75
G03 X1188.45 Y-1787.13 I6.75 J0.00
G03 X1195.20 Y-1780.38 I0.00 J6.75
G03 X1193.22 Y-1775.61 I-6.75 J-0.00
G03 X1191.44 Y-1774.33 I-4.77 J-4.77
M08
G40
M51
M93
G00 X1020.05 Y-1801.10
M94 F1719
G41 D21
N84 M07
G01 X1024.00 Y-1805.06
M50
G03 X1027.78 Y-1795.94 I-9.12 J9.12
G03 X1014.88 Y-1783.04 I-12.90 J0.00
G03 X1001.98 Y-1795.94 I0.00 J-12.90
G03 X1014.88 Y-1808.84 I12.90 J0.00
G03 X1024.00 Y-1805.06 I-0.00 J12.90
G03 X1025.42 Y-1803.38 I-9.12 J9.12
M08
G40
M51
M93
G00 X717.31 Y-1801.10
M94 F1719
G41 D21
N85 M07
G01 X721.27 Y-1805.06
M50
G03 X725.05 Y-1795.94 I-9.12 J9.12
G03 X712.15 Y-1783.04 I-12.90 J0.00
G03 X699.25 Y-1795.94 I0.00 J-12.90
G03 X712.15 Y-1808.84 I12.90 J0.00
G03 X721.27 Y-1805.06 I-0.00 J12.90
G03 X722.68 Y-1803.38 I-9.12 J9.12
M08
G40
M51
M93
G00 X414.57 Y-1801.10
M94 F1719
G41 D21
N86 M07
G01 X418.53 Y-1805.06
M50
G03 X422.31 Y-1795.94 I-9.12 J9.12
G03 X409.41 Y-1783.04 I-12.90 J0.00
G03 X396.51 Y-1795.94 I0.00 J-12.90
G03 X409.41 Y-1808.84 I12.90 J0.00
G03 X418.53 Y-1805.06 I0.00 J12.90
G03 X419.95 Y-1803.38 I-9.12 J9.12
M08
G40
M51
M93
G00 X111.83 Y-1790.77
M94 F1719
G41 D21
N87 M07
G01 X115.79 Y-1786.81
M50
G03 X106.67 Y-1783.04 I-9.12 J-9.12
G03 X93.77 Y-1795.94 I0.00 J-12.90
G03 X106.67 Y-1808.84 I12.90 J0.00
G03 X119.57 Y-1795.94 I-0.00 J12.90
G03 X115.79 Y-1786.81 I-12.90 J0.00
G03 X114.11 Y-1785.40 I-9.12 J-9.12
M08
G40
M51
M93
G00 X1069.26 Y-1896.50
M94 F2750
G41 D21
N88 M07
G01 X1069.26 Y-1890.90
G01 X1069.26 Y-1857.40
G03 X1059.26 Y-1847.40 I-10.00 J0.00
G01 X736.27 Y-1847.40
G03 X726.27 Y-1857.40 I0.00 J-10.00
G01 X726.27 Y-1890.90
G01 X697.22 Y-1890.90
G03 X690.43 Y-1876.48 I-21.40 J-1.27
G03 X674.63 Y-1867.77 I-21.67 J-20.62
G03 X642.38 Y-1874.42 I-9.00 J-37.87
G03 X633.73 Y-1888.18 I17.55 J-20.63
G01 X633.35 Y-1890.90
G01 X604.30 Y-1890.90
G01 X604.30 Y-1857.40
G03 X594.30 Y-1847.40 I-10.00 J0.00
G01 X271.31 Y-1847.40
G03 X261.31 Y-1857.40 I0.00 J-10.00
G01 X261.31 Y-1890.90
G01 X231.31 Y-1890.90
G01 X231.31 Y-1857.40
G03 X221.31 Y-1847.40 I-10.00 J0.00
G01 X10.00 Y-1847.40
G01 X10.00 Y-1313.36
G01 X221.31 Y-1313.36
G03 X231.31 Y-1303.36 I0.00 J10.00
G01 X231.31 Y-1269.86
G01 X261.31 Y-1269.86
G01 X261.31 Y-1303.36
G03 X271.31 Y-1313.36 I10.00 J0.00
G01 X594.30 Y-1313.36
G03 X604.30 Y-1303.36 I0.00 J10.00
G01 X604.30 Y-1269.86
G01 X633.35 Y-1269.86
G03 X640.14 Y-1284.28 I21.40 J1.27
G03 X655.94 Y-1292.99 I21.67 J20.62
G03 X688.19 Y-1286.34 I9.00 J37.87
G03 X696.84 Y-1272.58 I-17.55 J20.63
G01 X697.22 Y-1269.86
G01 X726.27 Y-1269.86
G01 X726.27 Y-1303.36
G03 X736.27 Y-1313.36 I10.00 J0.00
G01 X1059.26 Y-1313.36
G03 X1069.26 Y-1303.36 I0.00 J10.00
G01 X1069.26 Y-1269.86
G01 X1099.26 Y-1269.86
G01 X1099.26 Y-1303.36
G03 X1109.26 Y-1313.36 I10.00 J0.00
G01 X1218.95 Y-1313.36
G01 X1218.95 Y-1847.40
G01 X1109.26 Y-1847.40
G03 X1099.26 Y-1857.40 I0.00 J-10.00
G01 X1099.26 Y-1890.90
G01 X1070.36 Y-1890.90
M50
G01 X1069.26 Y-1890.90
G03 X1067.26 Y-1892.90 I0.00 J-2.00
M08
G40
M51
M93
G00 X1063.15 Y-1307.67
M94 F2750
G41 D21
N89 M07
G01 X1057.55 Y-1307.67
G01 X964.85 Y-1307.67
G01 X973.62 Y-1265.39
G02 X973.84 Y-1264.69 I3.55 J-0.74
G01 X988.46 Y-1231.67
G01 X1033.93 Y-1231.67
G01 X1048.56 Y-1264.69
G02 X1048.78 Y-1265.38 I-3.02 J-1.35
G01 X1048.78 Y-1265.39
G01 X1057.33 Y-1306.59
M50
G01 X1057.55 Y-1307.67
G03 X1059.91 Y-1309.22 I1.96 J0.41
M08
G40
M51
M93
G00 X1177.02 Y-1303.13
M94 F2750
G41 D21
N90 M07
G01 X1171.42 Y-1303.13
G01 X1125.95 Y-1303.13
G01 X1111.33 Y-1270.11
G02 X1111.10 Y-1269.40 I3.02 J1.35
G01 X1102.33 Y-1227.13
G01 X1195.04 Y-1227.13
G01 X1186.27 Y-1269.40
G02 X1186.05 Y-1270.10 I-3.55 J0.74
G01 X1186.04 Y-1270.11
G01 X1171.87 Y-1302.12
M50
G01 X1171.42 Y-1303.13
G03 X1172.44 Y-1305.77 I1.83 J-0.81
M08
G40
M51
M93
G00 X1130.24 Y-950.61
M94 F1581
G41 D21
N91 M07
G01 X1135.84 Y-950.61
M50
G03 X1132.84 Y-947.61 I-3.00 J0.00
G01 X1076.04 Y-947.61
G03 X1073.04 Y-950.61 I0.00 J-3.00
G03 X1076.04 Y-953.61 I3.00 J0.00
G01 X1132.84 Y-953.61
G03 X1135.84 Y-950.61 I0.00 J3.00
G03 X1135.07 Y-948.61 I-3.00 J-0.00
M08
G40
M51
M93
G00 X979.52 Y-950.61
M94 F1581
G41 D21
N92 M07
G01 X985.12 Y-950.61
M50
G03 X982.12 Y-947.61 I-3.00 J0.00
G01 X925.32 Y-947.61
G03 X922.32 Y-950.61 I0.00 J-3.00
G03 X925.32 Y-953.61 I3.00 J0.00
G01 X982.12 Y-953.61
G03 X985.12 Y-950.61 I0.00 J3.00
G03 X984.35 Y-948.61 I-3.00 J-0.00
M08
G40
M51
M93
G00 X828.80 Y-950.61
M94 F1581
G41 D21
N93 M07
G01 X834.40 Y-950.61
M50
G03 X831.40 Y-947.61 I-3.00 J0.00
G01 X774.60 Y-947.61
G03 X771.60 Y-950.61 I0.00 J-3.00
G03 X774.60 Y-953.61 I3.00 J0.00
G01 X831.40 Y-953.61
G03 X834.40 Y-950.61 I0.00 J3.00
G03 X833.63 Y-948.61 I-3.00 J-0.00
M08
G40
M51
M93
G00 X678.08 Y-950.61
M94 F1581
G41 D21
N94 M07
G01 X683.68 Y-950.61
M50
G03 X680.68 Y-947.61 I-3.00 J0.00
G01 X623.88 Y-947.61
G03 X620.88 Y-950.61 I0.00 J-3.00
G03 X623.88 Y-953.61 I3.00 J0.00
G01 X680.68 Y-953.61
G03 X683.68 Y-950.61 I0.00 J3.00
G03 X682.91 Y-948.61 I-3.00 J-0.00
M08
G40
M51
M93
G00 X527.36 Y-950.61
M94 F1581
G41 D21
N95 M07
G01 X532.96 Y-950.61
M50
G03 X529.96 Y-947.61 I-3.00 J0.00
G01 X473.16 Y-947.61
G03 X470.16 Y-950.61 I0.00 J-3.00
G03 X473.16 Y-953.61 I3.00 J0.00
G01 X529.96 Y-953.61
G03 X532.96 Y-950.61 I0.00 J3.00
G03 X532.19 Y-948.61 I-3.00 J-0.00
M08
G40
M51
M93
G00 X376.64 Y-950.61
M94 F1581
G41 D21
N96 M07
G01 X382.24 Y-950.61
M50
G03 X379.24 Y-947.61 I-3.00 J0.00
G01 X322.44 Y-947.61
G03 X319.44 Y-950.61 I0.00 J-3.00
G03 X322.44 Y-953.61 I3.00 J0.00
G01 X379.24 Y-953.61
G03 X382.24 Y-950.61 I0.00 J3.00
G03 X381.47 Y-948.61 I-3.00 J-0.00
M08
G40
M51
M93
G00 X225.92 Y-950.61
M94 F1581
G41 D21
N97 M07
G01 X231.52 Y-950.61
M50
G03 X228.52 Y-947.61 I-3.00 J0.00
G01 X171.72 Y-947.61
G03 X168.72 Y-950.61 I0.00 J-3.00
G03 X171.72 Y-953.61 I3.00 J0.00
G01 X228.52 Y-953.61
G03 X231.52 Y-950.61 I0.00 J3.00
G03 X230.75 Y-948.61 I-3.00 J0.00
M08
G40
M51
M93
G00 X75.20 Y-950.61
M94 F1581
G41 D21
N98 M07
G01 X80.80 Y-950.61
M50
G03 X77.80 Y-947.61 I-3.00 J0.00
G01 X21.00 Y-947.61
G03 X18.00 Y-950.61 I0.00 J-3.00
G03 X21.00 Y-953.61 I3.00 J0.00
G01 X77.80 Y-953.61
G03 X80.80 Y-950.61 I-0.00 J3.00
G03 X80.03 Y-948.61 I-3.00 J-0.00
M08
G40
M51
M93
G00 X150.56 Y-950.61
M94 F1581
G41 D21
N99 M07
G01 X156.16 Y-950.61
M50
G03 X153.16 Y-947.61 I-3.00 J0.00
G01 X96.36 Y-947.61
G03 X93.36 Y-950.61 I0.00 J-3.00
G03 X96.36 Y-953.61 I3.00 J0.00
G01 X153.16 Y-953.61
G03 X156.16 Y-950.61 I0.00 J3.00
G03 X155.39 Y-948.61 I-3.00 J0.00
M08
G40
M51
M93
G00 X301.28 Y-950.61
M94 F1581
G41 D21
N100 M07
G01 X306.88 Y-950.61
M50
G03 X303.88 Y-947.61 I-3.00 J0.00
G01 X247.08 Y-947.61
G03 X244.08 Y-950.61 I0.00 J-3.00
G03 X247.08 Y-953.61 I3.00 J0.00
G01 X303.88 Y-953.61
G03 X306.88 Y-950.61 I0.00 J3.00
G03 X306.11 Y-948.61 I-3.00 J-0.00
M08
G40
M51
M93
G00 X452.00 Y-950.61
M94 F1581
G41 D21
N101 M07
G01 X457.60 Y-950.61
M50
G03 X454.60 Y-947.61 I-3.00 J0.00
G01 X397.80 Y-947.61
G03 X394.80 Y-950.61 I0.00 J-3.00
G03 X397.80 Y-953.61 I3.00 J0.00
G01 X454.60 Y-953.61
G03 X457.60 Y-950.61 I0.00 J3.00
G03 X456.83 Y-948.61 I-3.00 J-0.00
M08
G40
M51
M93
G00 X602.72 Y-950.61
M94 F1581
G41 D21
N102 M07
G01 X608.32 Y-950.61
M50
G03 X605.32 Y-947.61 I-3.00 J0.00
G01 X548.52 Y-947.61
G03 X545.52 Y-950.61 I0.00 J-3.00
G03 X548.52 Y-953.61 I3.00 J0.00
G01 X605.32 Y-953.61
G03 X608.32 Y-950.61 I0.00 J3.00
G03 X607.55 Y-948.61 I-3.00 J-0.00
M08
G40
M51
M93
G00 X753.44 Y-950.61
M94 F1581
G41 D21
N103 M07
G01 X759.04 Y-950.61
M50
G03 X756.04 Y-947.61 I-3.00 J0.00
G01 X699.24 Y-947.61
G03 X696.24 Y-950.61 I0.00 J-3.00
G03 X699.24 Y-953.61 I3.00 J0.00
G01 X756.04 Y-953.61
G03 X759.04 Y-950.61 I0.00 J3.00
G03 X758.27 Y-948.61 I-3.00 J-0.00
M08
G40
M51
M93
G00 X904.16 Y-950.61
M94 F1581
G41 D21
N104 M07
G01 X909.76 Y-950.61
M50
G03 X906.76 Y-947.61 I-3.00 J0.00
G01 X849.96 Y-947.61
G03 X846.96 Y-950.61 I0.00 J-3.00
G03 X849.96 Y-953.61 I3.00 J0.00
G01 X906.76 Y-953.61
G03 X909.76 Y-950.61 I0.00 J3.00
G03 X908.99 Y-948.61 I-3.00 J-0.00
M08
G40
M51
M93
G00 X1054.88 Y-950.61
M94 F1581
G41 D21
N105 M07
G01 X1060.48 Y-950.61
M50
G03 X1057.48 Y-947.61 I-3.00 J0.00
G01 X1000.68 Y-947.61
G03 X997.68 Y-950.61 I0.00 J-3.00
G03 X1000.68 Y-953.61 I3.00 J0.00
G01 X1057.48 Y-953.61
G03 X1060.48 Y-950.61 I0.00 J3.00
G03 X1059.71 Y-948.61 I-3.00 J-0.00
M08
G40
M51
M93
G00 X1205.60 Y-950.61
M94 F1581
G41 D21
N106 M07
G01 X1211.20 Y-950.61
M50
G03 X1208.20 Y-947.61 I-3.00 J0.00
G01 X1151.40 Y-947.61
G03 X1148.40 Y-950.61 I-0.00 J-3.00
G03 X1151.40 Y-953.61 I3.00 J0.00
G01 X1208.20 Y-953.61
G03 X1211.20 Y-950.61 I0.00 J3.00
G03 X1210.43 Y-948.61 I-3.00 J-0.00
M08
G40
M51
M93
G00 X1129.85 Y-1091.99
M94 F1788
G41 D21
N107 M07
G01 X1135.44 Y-1091.61
M50
G03 X1132.43 Y-1083.71 I-10.69 J0.45
G03 X1111.86 Y-1084.05 I-10.15 J-8.43
G03 X1116.21 Y-1104.78 I11.05 J-8.50
G03 X1134.95 Y-1096.73 I6.16 J11.50
G01 X1135.56 Y-1093.33
G01 X1135.44 Y-1091.61
G01 X1135.32 Y-1089.89
M08
G40
M51
M93
G00 X827.11 Y-1091.99
M94 F1788
G41 D21
N108 M07
G01 X832.70 Y-1091.61
M50
G03 X829.69 Y-1083.71 I-10.69 J0.45
G03 X809.12 Y-1084.05 I-10.15 J-8.43
G03 X813.47 Y-1104.78 I11.05 J-8.50
G03 X832.21 Y-1096.73 I6.16 J11.50
G01 X832.82 Y-1093.33
G01 X832.70 Y-1091.61
G01 X832.58 Y-1089.89
M08
G40
M51
M93
G00 X524.38 Y-1091.99
M94 F1788
G41 D21
N109 M07
G01 X529.96 Y-1091.61
M50
G03 X526.95 Y-1083.71 I-10.69 J0.45
G03 X506.38 Y-1084.05 I-10.15 J-8.43
G03 X510.74 Y-1104.78 I11.05 J-8.50
G03 X529.48 Y-1096.73 I6.16 J11.50
G01 X530.08 Y-1093.33
G01 X529.96 Y-1091.61
G01 X529.84 Y-1089.89
M08
G40
M51
M93
G00 X221.64 Y-1091.99
M94 F1788
G41 D21
N110 M07
G01 X227.23 Y-1091.61
M50
G03 X224.22 Y-1083.71 I-10.69 J0.45
G03 X203.65 Y-1084.05 I-10.15 J-8.43
G03 X208.00 Y-1104.78 I11.05 J-8.50
G03 X226.74 Y-1096.73 I6.16 J11.50
G01 X227.34 Y-1093.33
G01 X227.23 Y-1091.61
G01 X227.11 Y-1089.89
M08
G40
M51
M93
G00 X1189.26 Y-900.30
M94 F1375
G41 D21
N111 M07
G01 X1193.22 Y-896.34
M50
G03 X1188.45 Y-894.36 I-4.77 J-4.77
G03 X1181.70 Y-901.11 I0.00 J-6.75
G03 X1188.45 Y-907.86 I6.75 J0.00
G03 X1195.20 Y-901.11 I0.00 J6.75
G03 X1193.22 Y-896.34 I-6.75 J-0.00
G03 X1191.44 Y-895.06 I-4.77 J-4.77
M08
G40
M51
M93
G00 X1137.26 Y-900.30
M94 F1375
G41 D21
N112 M07
G01 X1141.22 Y-896.34
M50
G03 X1136.45 Y-894.36 I-4.77 J-4.77
G03 X1129.70 Y-901.11 I0.00 J-6.75
G03 X1136.45 Y-907.86 I6.75 J0.00
G03 X1143.20 Y-901.11 I0.00 J6.75
G03 X1141.22 Y-896.34 I-6.75 J-0.00
G03 X1139.44 Y-895.06 I-4.77 J-4.77
M08
G40
M51
M93
G00 X111.83 Y-729.90
M94 F1719
G41 D21
N113 M07
G01 X115.79 Y-725.94
M50
G03 X106.67 Y-722.16 I-9.12 J-9.12
G03 X93.77 Y-735.06 I-0.00 J-12.90
G03 X106.67 Y-747.96 I12.90 J0.00
G03 X119.57 Y-735.06 I0.00 J12.90
G03 X115.79 Y-725.94 I-12.90 J0.00
G03 X114.11 Y-724.52 I-9.12 J-9.12
M08
G40
M51
M93
G00 X414.57 Y-729.90
M94 F1719
G41 D21
N114 M07
G01 X418.53 Y-725.94
M50
G03 X409.41 Y-722.16 I-9.12 J-9.12
G03 X396.51 Y-735.06 I0.00 J-12.90
G03 X409.41 Y-747.96 I12.90 J0.00
G03 X422.31 Y-735.06 I0.00 J12.90
G03 X418.53 Y-725.94 I-12.90 J0.00
G03 X416.85 Y-724.52 I-9.12 J-9.12
M08
G40
M51
M93
G00 X717.31 Y-740.22
M94 F1719
G41 D21
N115 M07
G01 X721.27 Y-744.18
M50
G03 X725.05 Y-735.06 I-9.12 J9.12
G03 X712.15 Y-722.16 I-12.90 J0.00
G03 X699.25 Y-735.06 I0.00 J-12.90
G03 X712.15 Y-747.96 I12.90 J0.00
G03 X721.27 Y-744.18 I-0.00 J12.90
G03 X722.68 Y-742.50 I-9.12 J9.12
M08
G40
M51
M93
G00 X1020.05 Y-729.90
M94 F1719
G41 D21
N116 M07
G01 X1024.00 Y-725.94
M50
G03 X1014.88 Y-722.16 I-9.12 J-9.12
G03 X1001.98 Y-735.06 I0.00 J-12.90
G03 X1014.88 Y-747.96 I12.90 J0.00
G03 X1027.78 Y-735.06 I-0.00 J12.90
G03 X1024.00 Y-725.94 I-12.90 J0.00
G03 X1022.32 Y-724.52 I-9.12 J-9.12
M08
G40
M51
M93
G00 X1189.26 Y-749.80
M94 F1375
G41 D21
N117 M07
G01 X1193.22 Y-745.84
M50
G03 X1188.45 Y-743.86 I-4.77 J-4.77
G03 X1181.70 Y-750.61 I0.00 J-6.75
G03 X1188.45 Y-757.36 I6.75 J0.00
G03 X1195.20 Y-750.61 I0.00 J6.75
G03 X1193.22 Y-745.84 I-6.75 J-0.00
G03 X1191.44 Y-744.56 I-4.77 J-4.77
M08
G40
M51
M93
G00 X1137.26 Y-751.43
M94 F1375
G41 D21
N118 M07
G01 X1141.22 Y-755.38
M50
G03 X1143.20 Y-750.61 I-4.77 J4.77
G03 X1136.45 Y-743.86 I-6.75 J0.00
G03 X1129.70 Y-750.61 I0.00 J-6.75
G03 X1136.45 Y-757.36 I6.75 J0.00
G03 X1141.22 Y-755.38 I0.00 J6.75
G03 X1142.50 Y-753.61 I-4.77 J4.77
M08
G40
M51
M93
G00 X221.65 Y-808.97
M94 F1788
G41 D21
N119 M07
G01 X227.25 Y-809.19
M50
G03 X225.10 Y-801.00 I-10.61 J1.59
G03 X207.63 Y-796.65 I-11.11 J-7.36
G03 X202.09 Y-814.62 I6.64 J-11.88
G03 X219.18 Y-821.31 I12.14 J5.83
G03 X226.22 Y-814.22 I-5.27 J12.27
G01 X227.18 Y-810.92
G01 X227.25 Y-809.19
G01 X227.31 Y-807.46
M08
G40
M51
M93
G00 X524.39 Y-808.97
M94 F1788
G41 D21
N120 M07
G01 X529.99 Y-809.19
M50
G03 X527.84 Y-801.00 I-10.61 J1.59
G03 X510.37 Y-796.65 I-11.11 J-7.36
G03 X504.83 Y-814.62 I6.64 J-11.88
G03 X521.92 Y-821.31 I12.14 J5.83
G03 X528.96 Y-814.22 I-5.27 J12.27
G01 X529.92 Y-810.92
G01 X529.99 Y-809.19
G01 X530.05 Y-807.46
M08
G40
M51
M93
G00 X827.13 Y-808.97
M94 F1788
G41 D21
N121 M07
G01 X832.72 Y-809.19
M50
G03 X830.58 Y-801.00 I-10.61 J1.59
G03 X813.10 Y-796.65 I-11.11 J-7.36
G03 X807.56 Y-814.62 I6.64 J-11.88
G03 X824.65 Y-821.31 I12.14 J5.83
G03 X831.69 Y-814.22 I-5.27 J12.27
G01 X832.66 Y-810.92
G01 X832.72 Y-809.19
G01 X832.79 Y-807.46
M08
G40
M51
M93
G00 X1129.86 Y-808.97
M94 F1788
G41 D21
N122 M07
G01 X1135.46 Y-809.19
M50
G03 X1133.31 Y-801.00 I-10.61 J1.59
G03 X1115.84 Y-796.65 I-11.11 J-7.36
G03 X1110.30 Y-814.62 I6.64 J-11.88
G03 X1127.39 Y-821.31 I12.14 J5.83
G03 X1134.43 Y-814.22 I-5.27 J12.27
G01 X1135.39 Y-810.92
G01 X1135.46 Y-809.19
G01 X1135.53 Y-807.46
M08
G40
M51
M93
G00 X1137.26 Y-999.30
M94 F1375
G41 D21
N123 M07
G01 X1141.22 Y-995.34
M50
G03 X1136.45 Y-993.36 I-4.77 J-4.77
G03 X1129.70 Y-1000.11 I0.00 J-6.75
G03 X1136.45 Y-1006.86 I6.75 J0.00
G03 X1143.20 Y-1000.11 I0.00 J6.75
G03 X1141.22 Y-995.34 I-6.75 J-0.00
G03 X1139.44 Y-994.06 I-4.77 J-4.77
M08
G40
M51
M93
G00 X1189.26 Y-999.30
M94 F1375
G41 D21
N124 M07
G01 X1193.22 Y-995.34
M50
G03 X1188.45 Y-993.36 I-4.77 J-4.77
G03 X1181.70 Y-1000.11 I0.00 J-6.75
G03 X1188.45 Y-1006.86 I6.75 J0.00
G03 X1195.20 Y-1000.11 I0.00 J6.75
G03 X1193.22 Y-995.34 I-6.75 J-0.00
G03 X1191.44 Y-994.06 I-4.77 J-4.77
M08
G40
M51
M93
G00 X1137.26 Y-1151.43
M94 F1375
G41 D21
N125 M07
G01 X1141.22 Y-1155.39
M50
G03 X1143.20 Y-1150.62 I-4.77 J4.77
G03 X1136.45 Y-1143.87 I-6.75 J0.00
G03 X1129.70 Y-1150.62 I0.00 J-6.75
G03 X1136.45 Y-1157.37 I6.75 J0.00
G03 X1141.22 Y-1155.39 I-0.00 J6.75
G03 X1142.50 Y-1153.61 I-4.77 J4.77
M08
G40
M51
M93
G00 X1189.26 Y-1149.80
M94 F1375
G41 D21
N126 M07
G01 X1193.22 Y-1145.84
M50
G03 X1188.45 Y-1143.87 I-4.77 J-4.77
G03 X1181.70 Y-1150.62 I0.00 J-6.75
G03 X1188.45 Y-1157.37 I6.75 J0.00
G03 X1195.20 Y-1150.62 I0.00 J6.75
G03 X1193.22 Y-1145.84 I-6.75 J-0.00
G03 X1191.44 Y-1144.57 I-4.77 J-4.77
M08
G40
M51
M93
G00 X1020.05 Y-1171.33
M94 F1719
G41 D21
N127 M07
G01 X1024.00 Y-1175.29
M50
G03 X1027.78 Y-1166.17 I-9.12 J9.12
G03 X1014.88 Y-1153.27 I-12.90 J0.00
G03 X1001.98 Y-1166.17 I0.00 J-12.90
G03 X1014.88 Y-1179.07 I12.90 J0.00
G03 X1024.00 Y-1175.29 I-0.00 J12.90
G03 X1025.42 Y-1173.61 I-9.12 J9.12
M08
G40
M51
M93
G00 X717.31 Y-1171.33
M94 F1719
G41 D21
N128 M07
G01 X721.27 Y-1175.29
M50
G03 X725.05 Y-1166.17 I-9.12 J9.12
G03 X712.15 Y-1153.27 I-12.90 J0.00
G03 X699.25 Y-1166.17 I0.00 J-12.90
G03 X712.15 Y-1179.07 I12.90 J0.00
G03 X721.27 Y-1175.29 I-0.00 J12.90
G03 X722.68 Y-1173.61 I-9.12 J9.12
M08
G40
M51
M93
G00 X414.57 Y-1171.33
M94 F1719
G41 D21
N129 M07
G01 X418.53 Y-1175.29
M50
G03 X422.31 Y-1166.17 I-9.12 J9.12
G03 X409.41 Y-1153.27 I-12.90 J0.00
G03 X396.51 Y-1166.17 I0.00 J-12.90
G03 X409.41 Y-1179.07 I12.90 J0.00
G03 X418.53 Y-1175.29 I0.00 J12.90
G03 X419.95 Y-1173.61 I-9.12 J9.12
M08
G40
M51
M93
G00 X111.83 Y-1161.01
M94 F1719
G41 D21
N130 M07
G01 X115.79 Y-1157.05
M50
G03 X106.67 Y-1153.27 I-9.12 J-9.12
G03 X93.77 Y-1166.17 I0.00 J-12.90
G03 X106.67 Y-1179.07 I12.90 J0.00
G03 X119.57 Y-1166.17 I-0.00 J12.90
G03 X115.79 Y-1157.05 I-12.90 J0.00
G03 X114.11 Y-1155.63 I-9.12 J-9.12
M08
G40
M51
M93
G00 X1069.26 Y-1266.73
M94 F2750
G41 D21
N131 M07
G01 X1069.26 Y-1261.13
G01 X1069.26 Y-1227.63
G03 X1059.26 Y-1217.63 I-10.00 J0.00
G01 X736.27 Y-1217.63
G03 X726.27 Y-1227.63 I0.00 J-10.00
G01 X726.27 Y-1261.13
G01 X697.22 Y-1261.13
G03 X690.43 Y-1246.72 I-21.40 J-1.27
G03 X674.63 Y-1238.01 I-21.67 J-20.62
G03 X642.38 Y-1244.66 I-9.00 J-37.87
G03 X633.73 Y-1258.41 I17.55 J-20.63
G01 X633.35 Y-1261.13
G01 X604.30 Y-1261.13
G01 X604.30 Y-1227.63
G03 X594.30 Y-1217.63 I-10.00 J0.00
G01 X271.31 Y-1217.63
G03 X261.31 Y-1227.63 I0.00 J-10.00
G01 X261.31 Y-1261.13
G01 X231.31 Y-1261.13
G01 X231.31 Y-1227.63
G03 X221.31 Y-1217.63 I-10.00 J0.00
G01 X10.00 Y-1217.63
G01 X10.00 Y-683.59
G01 X221.31 Y-683.59
G03 X231.31 Y-673.59 I0.00 J10.00
G01 X231.31 Y-640.09
G01 X261.31 Y-640.09
G01 X261.31 Y-673.59
G03 X271.31 Y-683.59 I10.00 J0.00
G01 X594.30 Y-683.59
G03 X604.30 Y-673.59 I0.00 J10.00
G01 X604.30 Y-640.09
G01 X633.35 Y-640.09
G03 X640.14 Y-654.51 I21.40 J1.27
G03 X655.94 Y-663.22 I21.67 J20.62
G03 X688.19 Y-656.57 I9.00 J37.87
G03 X696.84 Y-642.82 I-17.55 J20.63
G01 X697.22 Y-640.09
G01 X726.27 Y-640.09
G01 X726.27 Y-673.59
G03 X736.27 Y-683.59 I10.00 J0.00
G01 X1059.26 Y-683.59
G03 X1069.26 Y-673.59 I0.00 J10.00
G01 X1069.26 Y-640.09
G01 X1099.26 Y-640.09
G01 X1099.26 Y-673.59
G03 X1109.26 Y-683.59 I10.00 J0.00
G01 X1218.95 Y-683.59
G01 X1218.95 Y-1217.63
G01 X1109.26 Y-1217.63
G03 X1099.26 Y-1227.63 I0.00 J-10.00
G01 X1099.26 Y-1261.13
G01 X1070.36 Y-1261.13
M50
G01 X1069.26 Y-1261.13
G03 X1067.26 Y-1263.13 I0.00 J-2.00
M08
G40
M51
M93
G00 X1063.15 Y-677.90
M94 F2750
G41 D21
N132 M07
G01 X1057.55 Y-677.90
G01 X964.85 Y-677.90
G01 X973.62 Y-635.63
G02 X973.84 Y-634.92 I3.55 J-0.74
G01 X988.46 Y-601.90
G01 X1033.93 Y-601.90
G01 X1048.56 Y-634.92
G02 X1048.78 Y-635.61 I-3.02 J-1.35
G01 X1048.78 Y-635.63
G01 X1057.33 Y-676.82
M50
G01 X1057.55 Y-677.90
G03 X1059.91 Y-679.45 I1.96 J0.41
M08
G40
M51
M93
G00 X1177.02 Y-673.36
M94 F2750
G41 D21
N133 M07
G01 X1171.42 Y-673.36
G01 X1125.95 Y-673.36
G01 X1111.33 Y-640.34
G02 X1111.10 Y-639.64 I3.02 J1.35
G01 X1102.33 Y-597.36
G01 X1195.04 Y-597.36
G01 X1186.27 Y-639.64
G02 X1186.05 Y-640.33 I-3.55 J0.74
G01 X1186.04 Y-640.34
G01 X1171.87 Y-672.36
M50
G01 X1171.42 Y-673.36
G03 X1172.44 Y-676.00 I1.83 J-0.81
M08
G40
M51
M93
G00 X1130.24 Y-320.85
M94 F1581
G41 D21
N134 M07
G01 X1135.84 Y-320.85
M50
G03 X1132.84 Y-317.85 I-3.00 J0.00
G01 X1076.04 Y-317.85
G03 X1073.04 Y-320.85 I0.00 J-3.00
G03 X1076.04 Y-323.85 I3.00 J0.00
G01 X1132.84 Y-323.85
G03 X1135.84 Y-320.85 I0.00 J3.00
G03 X1135.07 Y-318.84 I-3.00 J0.00
M08
G40
M51
M93
G00 X979.52 Y-320.85
M94 F1581
G41 D21
N135 M07
G01 X985.12 Y-320.85
M50
G03 X982.12 Y-317.85 I-3.00 J0.00
G01 X925.32 Y-317.85
G03 X922.32 Y-320.85 I0.00 J-3.00
G03 X925.32 Y-323.85 I3.00 J0.00
G01 X982.12 Y-323.85
G03 X985.12 Y-320.85 I0.00 J3.00
G03 X984.35 Y-318.84 I-3.00 J0.00
M08
G40
M51
M93
G00 X828.80 Y-320.85
M94 F1581
G41 D21
N136 M07
G01 X834.40 Y-320.85
M50
G03 X831.40 Y-317.85 I-3.00 J0.00
G01 X774.60 Y-317.85
G03 X771.60 Y-320.85 I0.00 J-3.00
G03 X774.60 Y-323.85 I3.00 J0.00
G01 X831.40 Y-323.85
G03 X834.40 Y-320.85 I0.00 J3.00
G03 X833.63 Y-318.84 I-3.00 J0.00
M08
G40
M51
M93
G00 X678.08 Y-320.85
M94 F1581
G41 D21
N137 M07
G01 X683.68 Y-320.85
M50
G03 X680.68 Y-317.85 I-3.00 J0.00
G01 X623.88 Y-317.85
G03 X620.88 Y-320.85 I0.00 J-3.00
G03 X623.88 Y-323.85 I3.00 J0.00
G01 X680.68 Y-323.85
G03 X683.68 Y-320.85 I0.00 J3.00
G03 X682.91 Y-318.84 I-3.00 J0.00
M08
G40
M51
M93
G00 X527.36 Y-320.85
M94 F1581
G41 D21
N138 M07
G01 X532.96 Y-320.85
M50
G03 X529.96 Y-317.85 I-3.00 J0.00
G01 X473.16 Y-317.85
G03 X470.16 Y-320.85 I0.00 J-3.00
G03 X473.16 Y-323.85 I3.00 J0.00
G01 X529.96 Y-323.85
G03 X532.96 Y-320.85 I0.00 J3.00
G03 X532.19 Y-318.84 I-3.00 J0.00
M08
G40
M51
M93
G00 X376.64 Y-320.85
M94 F1581
G41 D21
N139 M07
G01 X382.24 Y-320.85
M50
G03 X379.24 Y-317.85 I-3.00 J0.00
G01 X322.44 Y-317.85
G03 X319.44 Y-320.85 I0.00 J-3.00
G03 X322.44 Y-323.85 I3.00 J0.00
G01 X379.24 Y-323.85
G03 X382.24 Y-320.85 I0.00 J3.00
G03 X381.47 Y-318.84 I-3.00 J0.00
M08
G40
M51
M93
G00 X225.92 Y-320.85
M94 F1581
G41 D21
N140 M07
G01 X231.52 Y-320.85
M50
G03 X228.52 Y-317.85 I-3.00 J0.00
G01 X171.72 Y-317.85
G03 X168.72 Y-320.85 I0.00 J-3.00
G03 X171.72 Y-323.85 I3.00 J0.00
G01 X228.52 Y-323.85
G03 X231.52 Y-320.85 I0.00 J3.00
G03 X230.75 Y-318.84 I-3.00 J0.00
M08
G40
M51
M93
G00 X75.20 Y-320.85
M94 F1581
G41 D21
N141 M07
G01 X80.80 Y-320.85
M50
G03 X77.80 Y-317.85 I-3.00 J0.00
G01 X21.00 Y-317.85
G03 X18.00 Y-320.85 I0.00 J-3.00
G03 X21.00 Y-323.85 I3.00 J0.00
G01 X77.80 Y-323.85
G03 X80.80 Y-320.85 I-0.00 J3.00
G03 X80.03 Y-318.84 I-3.00 J0.00
M08
G40
M51
M93
G00 X150.56 Y-320.85
M94 F1581
G41 D21
N142 M07
G01 X156.16 Y-320.85
M50
G03 X153.16 Y-317.85 I-3.00 J0.00
G01 X96.36 Y-317.85
G03 X93.36 Y-320.85 I0.00 J-3.00
G03 X96.36 Y-323.85 I3.00 J0.00
G01 X153.16 Y-323.85
G03 X156.16 Y-320.85 I0.00 J3.00
G03 X155.39 Y-318.84 I-3.00 J0.00
M08
G40
M51
M93
G00 X301.28 Y-320.85
M94 F1581
G41 D21
N143 M07
G01 X306.88 Y-320.85
M50
G03 X303.88 Y-317.85 I-3.00 J0.00
G01 X247.08 Y-317.85
G03 X244.08 Y-320.85 I0.00 J-3.00
G03 X247.08 Y-323.85 I3.00 J0.00
G01 X303.88 Y-323.85
G03 X306.88 Y-320.85 I0.00 J3.00
G03 X306.11 Y-318.84 I-3.00 J0.00
M08
G40
M51
M93
G00 X452.00 Y-320.85
M94 F1581
G41 D21
N144 M07
G01 X457.60 Y-320.85
M50
G03 X454.60 Y-317.85 I-3.00 J0.00
G01 X397.80 Y-317.85
G03 X394.80 Y-320.85 I0.00 J-3.00
G03 X397.80 Y-323.85 I3.00 J0.00
G01 X454.60 Y-323.85
G03 X457.60 Y-320.85 I0.00 J3.00
G03 X456.83 Y-318.84 I-3.00 J0.00
M08
G40
M51
M93
G00 X602.72 Y-320.85
M94 F1581
G41 D21
N145 M07
G01 X608.32 Y-320.85
M50
G03 X605.32 Y-317.85 I-3.00 J0.00
G01 X548.52 Y-317.85
G03 X545.52 Y-320.85 I0.00 J-3.00
G03 X548.52 Y-323.85 I3.00 J0.00
G01 X605.32 Y-323.85
G03 X608.32 Y-320.85 I0.00 J3.00
G03 X607.55 Y-318.84 I-3.00 J0.00
M08
G40
M51
M93
G00 X753.44 Y-320.85
M94 F1581
G41 D21
N146 M07
G01 X759.04 Y-320.85
M50
G03 X756.04 Y-317.85 I-3.00 J0.00
G01 X699.24 Y-317.85
G03 X696.24 Y-320.85 I0.00 J-3.00
G03 X699.24 Y-323.85 I3.00 J0.00
G01 X756.04 Y-323.85
G03 X759.04 Y-320.85 I0.00 J3.00
G03 X758.27 Y-318.84 I-3.00 J0.00
M08
G40
M51
M93
G00 X904.16 Y-320.85
M94 F1581
G41 D21
N147 M07
G01 X909.76 Y-320.85
M50
G03 X906.76 Y-317.85 I-3.00 J0.00
G01 X849.96 Y-317.85
G03 X846.96 Y-320.85 I0.00 J-3.00
G03 X849.96 Y-323.85 I3.00 J0.00
G01 X906.76 Y-323.85
G03 X909.76 Y-320.85 I0.00 J3.00
G03 X908.99 Y-318.84 I-3.00 J0.00
M08
G40
M51
M93
G00 X1054.88 Y-320.85
M94 F1581
G41 D21
N148 M07
G01 X1060.48 Y-320.85
M50
G03 X1057.48 Y-317.85 I-3.00 J0.00
G01 X1000.68 Y-317.85
G03 X997.68 Y-320.85 I0.00 J-3.00
G03 X1000.68 Y-323.85 I3.00 J0.00
G01 X1057.48 Y-323.85
G03 X1060.48 Y-320.85 I0.00 J3.00
G03 X1059.71 Y-318.84 I-3.00 J0.00
M08
G40
M51
M93
G00 X1205.60 Y-320.85
M94 F1581
G41 D21
N149 M07
G01 X1211.20 Y-320.85
M50
G03 X1208.20 Y-317.85 I-3.00 J0.00
G01 X1151.40 Y-317.85
G03 X1148.40 Y-320.85 I-0.00 J-3.00
G03 X1151.40 Y-323.85 I3.00 J0.00
G01 X1208.20 Y-323.85
G03 X1211.20 Y-320.85 I0.00 J3.00
G03 X1210.43 Y-318.84 I-3.00 J0.00
M08
G40
M51
M93
G00 X1129.85 Y-462.23
M94 F1788
G41 D21
N150 M07
G01 X1135.44 Y-461.84
M50
G03 X1132.43 Y-453.95 I-10.69 J0.45
G03 X1111.86 Y-454.28 I-10.15 J-8.43
G03 X1116.21 Y-475.01 I11.05 J-8.50
G03 X1134.95 Y-466.96 I6.16 J11.50
G01 X1135.56 Y-463.57
G01 X1135.44 Y-461.84
G01 X1135.32 Y-460.12
M08
G40
M51
M93
G00 X827.11 Y-462.23
M94 F1788
G41 D21
N151 M07
G01 X832.70 Y-461.84
M50
G03 X829.69 Y-453.95 I-10.69 J0.45
G03 X809.12 Y-454.28 I-10.15 J-8.43
G03 X813.47 Y-475.01 I11.05 J-8.50
G03 X832.21 Y-466.96 I6.16 J11.50
G01 X832.82 Y-463.57
G01 X832.70 Y-461.84
G01 X832.58 Y-460.12
M08
G40
M51
M93
G00 X524.38 Y-462.23
M94 F1788
G41 D21
N152 M07
G01 X529.96 Y-461.84
M50
G03 X526.95 Y-453.95 I-10.69 J0.45
G03 X506.38 Y-454.28 I-10.15 J-8.43
G03 X510.74 Y-475.01 I11.05 J-8.50
G03 X529.48 Y-466.96 I6.16 J11.50
G01 X530.08 Y-463.57
G01 X529.96 Y-461.84
G01 X529.84 Y-460.12
M08
G40
M51
M93
G00 X221.64 Y-462.23
M94 F1788
G41 D21
N153 M07
G01 X227.23 Y-461.84
M50
G03 X224.22 Y-453.95 I-10.69 J0.45
G03 X203.65 Y-454.28 I-10.15 J-8.43
G03 X208.00 Y-475.01 I11.05 J-8.50
G03 X226.74 Y-466.96 I6.16 J11.50
G01 X227.34 Y-463.57
G01 X227.23 Y-461.84
G01 X227.11 Y-460.12
M08
G40
M51
M93
G00 X1189.26 Y-270.53
M94 F1375
G41 D21
N154 M07
G01 X1193.22 Y-266.57
M50
G03 X1188.45 Y-264.60 I-4.77 J-4.77
G03 X1181.70 Y-271.35 I0.00 J-6.75
G03 X1188.45 Y-278.10 I6.75 J0.00
G03 X1195.20 Y-271.35 I0.00 J6.75
G03 X1193.22 Y-266.57 I-6.75 J-0.00
G03 X1191.44 Y-265.30 I-4.77 J-4.77
M08
G40
M51
M93
G00 X1137.26 Y-270.53
M94 F1375
G41 D21
N155 M07
G01 X1141.22 Y-266.57
M50
G03 X1136.45 Y-264.60 I-4.77 J-4.77
G03 X1129.70 Y-271.35 I0.00 J-6.75
G03 X1136.45 Y-278.10 I6.75 J0.00
G03 X1143.20 Y-271.35 I0.00 J6.75
G03 X1141.22 Y-266.57 I-6.75 J-0.00
G03 X1139.44 Y-265.30 I-4.77 J-4.77
M08
G40
M51
M93
G00 X111.83 Y-100.13
M94 F1719
G41 D21
N156 M07
G01 X115.79 Y-96.17
M50
G03 X106.67 Y-92.39 I-9.12 J-9.12
G03 X93.77 Y-105.29 I0.00 J-12.90
G03 X106.67 Y-118.19 I12.90 J0.00
G03 X119.57 Y-105.29 I0.00 J12.90
G03 X115.79 Y-96.17 I-12.90 J0.00
G03 X114.11 Y-94.75 I-9.12 J-9.12
M08
G40
M51
M93
G00 X414.57 Y-100.13
M94 F1719
G41 D21
N157 M07
G01 X418.53 Y-96.17
M50
G03 X409.41 Y-92.39 I-9.12 J-9.12
G03 X396.51 Y-105.29 I0.00 J-12.90
G03 X409.41 Y-118.19 I12.90 J-0.00
G03 X422.31 Y-105.29 I0.00 J12.90
G03 X418.53 Y-96.17 I-12.90 J0.00
G03 X416.85 Y-94.75 I-9.12 J-9.12
M08
G40
M51
M93
G00 X717.31 Y-110.45
M94 F1719
G41 D21
N158 M07
G01 X721.27 Y-114.41
M50
G03 X725.05 Y-105.29 I-9.12 J9.12
G03 X712.15 Y-92.39 I-12.90 J0.00
G03 X699.25 Y-105.29 I0.00 J-12.90
G03 X712.15 Y-118.19 I12.90 J-0.00
G03 X721.27 Y-114.41 I-0.00 J12.90
G03 X722.68 Y-112.73 I-9.12 J9.12
M08
G40
M51
M93
G00 X1020.05 Y-100.13
M94 F1719
G41 D21
N159 M07
G01 X1024.00 Y-96.17
M50
G03 X1014.88 Y-92.39 I-9.12 J-9.12
G03 X1001.98 Y-105.29 I0.00 J-12.90
G03 X1014.88 Y-118.19 I12.90 J-0.00
G03 X1027.78 Y-105.29 I-0.00 J12.90
G03 X1024.00 Y-96.17 I-12.90 J0.00
G03 X1022.32 Y-94.75 I-9.12 J-9.12
M08
G40
M51
M93
G00 X1189.26 Y-120.03
M94 F1375
G41 D21
N160 M07
G01 X1193.22 Y-116.07
M50
G03 X1188.45 Y-114.09 I-4.77 J-4.77
G03 X1181.70 Y-120.84 I0.00 J-6.75
G03 X1188.45 Y-127.59 I6.75 J0.00
G03 X1195.20 Y-120.84 I0.00 J6.75
G03 X1193.22 Y-116.07 I-6.75 J-0.00
G03 X1191.44 Y-114.80 I-4.77 J-4.77
M08
G40
M51
M93
G00 X1137.26 Y-121.66
M94 F1375
G41 D21
N161 M07
G01 X1141.22 Y-125.62
M50
G03 X1143.20 Y-120.84 I-4.77 J4.77
G03 X1136.45 Y-114.09 I-6.75 J0.00
G03 X1129.70 Y-120.84 I0.00 J-6.75
G03 X1136.45 Y-127.59 I6.75 J0.00
G03 X1141.22 Y-125.62 I0.00 J6.75
G03 X1142.50 Y-123.84 I-4.77 J4.77
M08
G40
M51
M93
G00 X221.65 Y-179.21
M94 F1788
G41 D21
N162 M07
G01 X227.25 Y-179.42
M50
G03 X225.10 Y-171.23 I-10.61 J1.59
G03 X207.63 Y-166.89 I-11.11 J-7.36
G03 X202.09 Y-184.85 I6.64 J-11.88
G03 X219.18 Y-191.54 I12.14 J5.83
G03 X226.22 Y-184.46 I-5.27 J12.27
G01 X227.18 Y-181.15
G01 X227.25 Y-179.42
G01 X227.31 Y-177.70
M08
G40
M51
M93
G00 X524.39 Y-179.21
M94 F1788
G41 D21
N163 M07
G01 X529.99 Y-179.42
M50
G03 X527.84 Y-171.23 I-10.61 J1.59
G03 X510.37 Y-166.89 I-11.11 J-7.36
G03 X504.83 Y-184.85 I6.64 J-11.88
G03 X521.92 Y-191.54 I12.14 J5.83
G03 X528.96 Y-184.46 I-5.27 J12.27
G01 X529.92 Y-181.15
G01 X529.99 Y-179.42
G01 X530.05 Y-177.70
M08
G40
M51
M93
G00 X827.13 Y-179.21
M94 F1788
G41 D21
N164 M07
G01 X832.72 Y-179.42
M50
G03 X830.58 Y-171.23 I-10.61 J1.59
G03 X813.10 Y-166.89 I-11.11 J-7.36
G03 X807.56 Y-184.85 I6.64 J-11.88
G03 X824.65 Y-191.54 I12.14 J5.83
G03 X831.69 Y-184.46 I-5.27 J12.27
G01 X832.66 Y-181.15
G01 X832.72 Y-179.42
G01 X832.79 Y-177.70
M08
G40
M51
M93
G00 X1129.86 Y-179.21
M94 F1788
G41 D21
N165 M07
G01 X1135.46 Y-179.42
M50
G03 X1133.31 Y-171.23 I-10.61 J1.59
G03 X1115.84 Y-166.89 I-11.11 J-7.36
G03 X1110.30 Y-184.85 I6.64 J-11.88
G03 X1127.39 Y-191.54 I12.14 J5.83
G03 X1134.43 Y-184.46 I-5.27 J12.27
G01 X1135.39 Y-181.15
G01 X1135.46 Y-179.42
G01 X1135.53 Y-177.70
M08
G40
M51
M93
G00 X1137.26 Y-369.53
M94 F1375
G41 D21
N166 M07
G01 X1141.22 Y-365.57
M50
G03 X1136.45 Y-363.60 I-4.77 J-4.77
G03 X1129.70 Y-370.35 I0.00 J-6.75
G03 X1136.45 Y-377.10 I6.75 J0.00
G03 X1143.20 Y-370.35 I0.00 J6.75
G03 X1141.22 Y-365.57 I-6.75 J-0.00
G03 X1139.44 Y-364.30 I-4.77 J-4.77
M08
G40
M51
M93
G00 X1189.26 Y-369.53
M94 F1375
G41 D21
N167 M07
G01 X1193.22 Y-365.57
M50
G03 X1188.45 Y-363.60 I-4.77 J-4.77
G03 X1181.70 Y-370.35 I0.00 J-6.75
G03 X1188.45 Y-377.10 I6.75 J0.00
G03 X1195.20 Y-370.35 I0.00 J6.75
G03 X1193.22 Y-365.57 I-6.75 J-0.00
G03 X1191.44 Y-364.30 I-4.77 J-4.77
M08
G40
M51
M93
G00 X1137.26 Y-521.66
M94 F1375
G41 D21
N168 M07
G01 X1141.22 Y-525.62
M50
G03 X1143.20 Y-520.85 I-4.77 J4.77
G03 X1136.45 Y-514.10 I-6.75 J0.00
G03 X1129.70 Y-520.85 I0.00 J-6.75
G03 X1136.45 Y-527.60 I6.75 J0.00
G03 X1141.22 Y-525.62 I0.00 J6.75
G03 X1142.50 Y-523.84 I-4.77 J4.77
M08
G40
M51
M93
G00 X1189.26 Y-520.04
M94 F1375
G41 D21
N169 M07
G01 X1193.22 Y-516.08
M50
G03 X1188.45 Y-514.10 I-4.77 J-4.77
G03 X1181.70 Y-520.85 I0.00 J-6.75
G03 X1188.45 Y-527.60 I6.75 J0.00
G03 X1195.20 Y-520.85 I0.00 J6.75
G03 X1193.22 Y-516.08 I-6.75 J-0.00
G03 X1191.44 Y-514.80 I-4.77 J-4.77
M08
G40
M51
M93
G00 X1020.05 Y-541.56
M94 F1719
G41 D21
N170 M07
G01 X1024.00 Y-545.52
M50
G03 X1027.78 Y-536.40 I-9.12 J9.12
G03 X1014.88 Y-523.50 I-12.90 J-0.00
G03 X1001.98 Y-536.40 I0.00 J-12.90
G03 X1014.88 Y-549.30 I12.90 J0.00
G03 X1024.00 Y-545.52 I-0.00 J12.90
G03 X1025.42 Y-543.84 I-9.12 J9.12
M08
G40
M51
M93
G00 X717.31 Y-541.56
M94 F1719
G41 D21
N171 M07
G01 X721.27 Y-545.52
M50
G03 X725.05 Y-536.40 I-9.12 J9.12
G03 X712.15 Y-523.50 I-12.90 J-0.00
G03 X699.25 Y-536.40 I0.00 J-12.90
G03 X712.15 Y-549.30 I12.90 J0.00
G03 X721.27 Y-545.52 I-0.00 J12.90
G03 X722.68 Y-543.84 I-9.12 J9.12
M08
G40
M51
M93
G00 X414.57 Y-541.56
M94 F1719
G41 D21
N172 M07
G01 X418.53 Y-545.52
M50
G03 X422.31 Y-536.40 I-9.12 J9.12
G03 X409.41 Y-523.50 I-12.90 J-0.00
G03 X396.51 Y-536.40 I0.00 J-12.90
G03 X409.41 Y-549.30 I12.90 J0.00
G03 X418.53 Y-545.52 I0.00 J12.90
G03 X419.95 Y-543.84 I-9.12 J9.12
M08
G40
M51
M93
G00 X111.83 Y-531.24
M94 F1719
G41 D21
N173 M07
G01 X115.79 Y-527.28
M50
G03 X106.67 Y-523.50 I-9.12 J-9.12
G03 X93.77 Y-536.40 I-0.00 J-12.90
G03 X106.67 Y-549.30 I12.90 J0.00
G03 X119.57 Y-536.40 I0.00 J12.90
G03 X115.79 Y-527.28 I-12.90 J-0.00
G03 X114.11 Y-525.86 I-9.12 J-9.12
M08
G40
M51
M93
G00 X1069.26 Y-636.97
M94 F2750
G41 D21
N174 M07
G01 X1069.26 Y-631.37
G01 X1069.26 Y-597.87
G03 X1059.26 Y-587.87 I-10.00 J0.00
G01 X736.27 Y-587.87
G03 X726.27 Y-597.87 I0.00 J-10.00
G01 X726.27 Y-631.37
G01 X697.22 Y-631.37
G03 X690.43 Y-616.95 I-21.40 J-1.27
G03 X674.63 Y-608.24 I-21.67 J-20.62
G03 X642.38 Y-614.89 I-9.00 J-37.87
G03 X633.73 Y-628.65 I17.55 J-20.63
G01 X633.35 Y-631.37
G01 X604.30 Y-631.37
G01 X604.30 Y-597.87
G03 X594.30 Y-587.87 I-10.00 J0.00
G01 X271.31 Y-587.87
G03 X261.31 Y-597.87 I0.00 J-10.00
G01 X261.31 Y-631.37
G01 X231.31 Y-631.37
G01 X231.31 Y-597.87
G03 X221.31 Y-587.87 I-10.00 J0.00
G01 X10.00 Y-587.87
G01 X10.00 Y-53.83
G01 X221.31 Y-53.83
G03 X231.31 Y-43.83 I0.00 J10.00
G01 X231.31 Y-10.33
G01 X261.31 Y-10.33
G01 X261.31 Y-43.83
G03 X271.31 Y-53.83 I10.00 J0.00
G01 X594.30 Y-53.83
G03 X604.30 Y-43.83 I0.00 J10.00
G01 X604.30 Y-10.33
G01 X633.35 Y-10.33
G03 X640.14 Y-24.74 I21.40 J1.27
G03 X655.94 Y-33.45 I21.67 J20.62
G03 X688.19 Y-26.80 I9.00 J37.87
G03 X696.84 Y-13.05 I-17.55 J20.63
G01 X697.22 Y-10.33
G01 X726.27 Y-10.33
G01 X726.27 Y-43.83
G03 X736.27 Y-53.83 I10.00 J0.00
G01 X1059.26 Y-53.83
G03 X1069.26 Y-43.83 I0.00 J10.00
G01 X1069.26 Y-10.33
G01 X1099.26 Y-10.33
G01 X1099.26 Y-43.83
G03 X1109.26 Y-53.83 I10.00 J0.00
G01 X1218.95 Y-53.83
G01 X1218.95 Y-587.87
G01 X1109.26 Y-587.87
G03 X1099.26 Y-597.87 I0.00 J-10.00
G01 X1099.26 Y-631.37
G01 X1070.36 Y-631.37
M50
G01 X1069.26 Y-631.37
G03 X1067.26 Y-633.37 I0.00 J-2.00
M08
G40
M51
M93
G00 X2555.13 Y-143.03
M94 F2750
G41 D21
N175 M07
G01 X2549.53 Y-143.03
G01 X2549.53 Y-191.88
G01 X2518.03 Y-191.88
G01 X2518.03 Y-43.15
G01 X2465.03 Y-43.15
G01 X2465.03 Y-191.88
G01 X2433.53 Y-191.88
G01 X2433.53 Y-143.03
G02 X2433.60 Y-142.26 I3.89 J-0.01
G01 X2453.94 Y-44.21
G02 X2454.17 Y-43.51 I3.65 J-0.77
G01 X2468.79 Y-10.49
G01 X2514.26 Y-10.49
G01 X2528.88 Y-43.51
G02 X2529.11 Y-44.21 I-2.94 J-1.32
G01 X2549.45 Y-142.26
G02 X2549.52 Y-143.00 I-3.61 J-0.76
G01 X2549.52 Y-143.02
M50
G01 X2549.53 Y-143.03
G03 X2551.53 Y-145.03 I2.00 J0.00
M08
G40
M51
M93
G00 X2574.79 Y-195.42
M94 F2750
G41 D21
N176 M07
G01 X2569.31 Y-194.27
G02 X2569.08 Y-194.98 I-3.65 J0.77
G01 X2554.46 Y-228.00
G01 X2508.99 Y-228.00
G01 X2494.36 Y-194.98
G02 X2494.14 Y-194.27 I2.94 J1.32
G01 X2473.80 Y-96.23
G02 X2473.72 Y-95.45 I3.61 J0.76
G01 X2473.72 Y-46.61
G01 X2505.22 Y-46.61
G01 X2505.22 Y-195.34
G01 X2558.22 Y-195.34
G01 X2558.22 Y-46.61
G01 X2589.72 Y-46.61
G01 X2589.72 Y-95.45
G02 X2589.65 Y-96.21 I-3.89 J0.01
G01 X2589.64 Y-96.23
G01 X2569.53 Y-193.20
M50
G01 X2569.31 Y-194.27
G03 X2570.86 Y-196.64 I1.96 J-0.41
M08
G40
M51
M93
G00 X2342.00 Y-320.85
M94 F1581
G41 D21
N177 M07
G01 X2347.60 Y-320.85
M50
G03 X2344.60 Y-317.85 I-3.00 J0.00
G01 X2287.80 Y-317.85
G03 X2284.80 Y-320.85 I0.00 J-3.00
G03 X2287.80 Y-323.85 I3.00 J0.00
G01 X2344.60 Y-323.85
G03 X2347.60 Y-320.85 I0.00 J3.00
G03 X2346.83 Y-318.84 I-3.00 J0.00
M08
G40
M51
M93
G00 X2191.28 Y-320.85
M94 F1581
G41 D21
N178 M07
G01 X2196.88 Y-320.85
M50
G03 X2193.88 Y-317.85 I-3.00 J0.00
G01 X2137.08 Y-317.85
G03 X2134.08 Y-320.85 I0.00 J-3.00
G03 X2137.08 Y-323.85 I3.00 J0.00
G01 X2193.88 Y-323.85
G03 X2196.88 Y-320.85 I0.00 J3.00
G03 X2196.11 Y-318.84 I-3.00 J0.00
M08
G40
M51
M93
G00 X2040.56 Y-320.85
M94 F1581
G41 D21
N179 M07
G01 X2046.16 Y-320.85
M50
G03 X2043.16 Y-317.85 I-3.00 J0.00
G01 X1986.36 Y-317.85
G03 X1983.36 Y-320.85 I0.00 J-3.00
G03 X1986.36 Y-323.85 I3.00 J0.00
G01 X2043.16 Y-323.85
G03 X2046.16 Y-320.85 I0.00 J3.00
G03 X2045.39 Y-318.84 I-3.00 J0.00
M08
G40
M51
M93
G00 X1889.84 Y-320.85
M94 F1581
G41 D21
N180 M07
G01 X1895.44 Y-320.85
M50
G03 X1892.44 Y-317.85 I-3.00 J0.00
G01 X1835.64 Y-317.85
G03 X1832.64 Y-320.85 I0.00 J-3.00
G03 X1835.64 Y-323.85 I3.00 J0.00
G01 X1892.44 Y-323.85
G03 X1895.44 Y-320.85 I0.00 J3.00
G03 X1894.67 Y-318.84 I-3.00 J0.00
M08
G40
M51
M93
G00 X1739.12 Y-320.85
M94 F1581
G41 D21
N181 M07
G01 X1744.72 Y-320.85
M50
G03 X1741.72 Y-317.85 I-3.00 J0.00
G01 X1684.92 Y-317.85
G03 X1681.92 Y-320.85 I0.00 J-3.00
G03 X1684.92 Y-323.85 I3.00 J0.00
G01 X1741.72 Y-323.85
G03 X1744.72 Y-320.85 I0.00 J3.00
G03 X1743.95 Y-318.84 I-3.00 J0.00
M08
G40
M51
M93
G00 X1588.40 Y-320.85
M94 F1581
G41 D21
N182 M07
G01 X1594.00 Y-320.85
M50
G03 X1591.00 Y-317.85 I-3.00 J0.00
G01 X1534.20 Y-317.85
G03 X1531.20 Y-320.85 I0.00 J-3.00
G03 X1534.20 Y-323.85 I3.00 J0.00
G01 X1591.00 Y-323.85
G03 X1594.00 Y-320.85 I0.00 J3.00
G03 X1593.23 Y-318.84 I-3.00 J0.00
M08
G40
M51
M93
G00 X1437.68 Y-320.85
M94 F1581
G41 D21
N183 M07
G01 X1443.28 Y-320.85
M50
G03 X1440.28 Y-317.85 I-3.00 J0.00
G01 X1383.48 Y-317.85
G03 X1380.48 Y-320.85 I0.00 J-3.00
G03 X1383.48 Y-323.85 I3.00 J0.00
G01 X1440.28 Y-323.85
G03 X1443.28 Y-320.85 I0.00 J3.00
G03 X1442.51 Y-318.84 I-3.00 J0.00
M08
G40
M51
M93
G00 X1286.96 Y-320.85
M94 F1581
G41 D21
N184 M07
G01 X1292.56 Y-320.85
M50
G03 X1289.56 Y-317.85 I-3.00 J-0.00
G01 X1232.76 Y-317.85
G03 X1229.76 Y-320.85 I0.00 J-3.00
G03 X1232.76 Y-323.85 I3.00 J0.00
G01 X1289.56 Y-323.85
G03 X1292.56 Y-320.85 I0.00 J3.00
G03 X1291.79 Y-318.84 I-3.00 J-0.00
M08
G40
M51
M93
G00 X1362.32 Y-320.85
M94 F1581
G41 D21
N185 M07
G01 X1367.92 Y-320.85
M50
G03 X1364.92 Y-317.85 I-3.00 J0.00
G01 X1308.12 Y-317.85
G03 X1305.12 Y-320.85 I0.00 J-3.00
G03 X1308.12 Y-323.85 I3.00 J0.00
G01 X1364.92 Y-323.85
G03 X1367.92 Y-320.85 I0.00 J3.00
G03 X1367.15 Y-318.84 I-3.00 J0.00
M08
G40
M51
M93
G00 X1513.04 Y-320.85
M94 F1581
G41 D21
N186 M07
G01 X1518.64 Y-320.85
M50
G03 X1515.64 Y-317.85 I-3.00 J0.00
G01 X1458.84 Y-317.85
G03 X1455.84 Y-320.85 I0.00 J-3.00
G03 X1458.84 Y-323.85 I3.00 J0.00
G01 X1515.64 Y-323.85
G03 X1518.64 Y-320.85 I0.00 J3.00
G03 X1517.87 Y-318.84 I-3.00 J0.00
M08
G40
M51
M93
G00 X1663.76 Y-320.85
M94 F1581
G41 D21
N187 M07
G01 X1669.36 Y-320.85
M50
G03 X1666.36 Y-317.85 I-3.00 J0.00
G01 X1609.56 Y-317.85
G03 X1606.56 Y-320.85 I0.00 J-3.00
G03 X1609.56 Y-323.85 I3.00 J0.00
G01 X1666.36 Y-323.85
G03 X1669.36 Y-320.85 I0.00 J3.00
G03 X1668.59 Y-318.84 I-3.00 J0.00
M08
G40
M51
M93
G00 X1814.48 Y-320.85
M94 F1581
G41 D21
N188 M07
G01 X1820.08 Y-320.85
M50
G03 X1817.08 Y-317.85 I-3.00 J0.00
G01 X1760.28 Y-317.85
G03 X1757.28 Y-320.85 I0.00 J-3.00
G03 X1760.28 Y-323.85 I3.00 J0.00
G01 X1817.08 Y-323.85
G03 X1820.08 Y-320.85 I0.00 J3.00
G03 X1819.31 Y-318.84 I-3.00 J0.00
M08
G40
M51
M93
G00 X1965.20 Y-320.85
M94 F1581
G41 D21
N189 M07
G01 X1970.80 Y-320.85
M50
G03 X1967.80 Y-317.85 I-3.00 J0.00
G01 X1911.00 Y-317.85
G03 X1908.00 Y-320.85 I0.00 J-3.00
G03 X1911.00 Y-323.85 I3.00 J0.00
G01 X1967.80 Y-323.85
G03 X1970.80 Y-320.85 I0.00 J3.00
G03 X1970.03 Y-318.84 I-3.00 J0.00
M08
G40
M51
M93
G00 X2115.92 Y-320.85
M94 F1581
G41 D21
N190 M07
G01 X2121.52 Y-320.85
M50
G03 X2118.52 Y-317.85 I-3.00 J0.00
G01 X2061.72 Y-317.85
G03 X2058.72 Y-320.85 I0.00 J-3.00
G03 X2061.72 Y-323.85 I3.00 J0.00
G01 X2118.52 Y-323.85
G03 X2121.52 Y-320.85 I0.00 J3.00
G03 X2120.75 Y-318.84 I-3.00 J0.00
M08
G40
M51
M93
G00 X2266.64 Y-320.85
M94 F1581
G41 D21
N191 M07
G01 X2272.24 Y-320.85
M50
G03 X2269.24 Y-317.85 I-3.00 J0.00
G01 X2212.44 Y-317.85
G03 X2209.44 Y-320.85 I0.00 J-3.00
G03 X2212.44 Y-323.85 I3.00 J0.00
G01 X2269.24 Y-323.85
G03 X2272.24 Y-320.85 I0.00 J3.00
G03 X2271.47 Y-318.84 I-3.00 J0.00
M08
G40
M51
M93
G00 X2417.36 Y-320.85
M94 F1581
G41 D21
N192 M07
G01 X2422.96 Y-320.85
M50
G03 X2419.96 Y-317.85 I-3.00 J0.00
G01 X2363.16 Y-317.85
G03 X2360.16 Y-320.85 I0.00 J-3.00
G03 X2363.16 Y-323.85 I3.00 J0.00
G01 X2419.96 Y-323.85
G03 X2422.96 Y-320.85 I0.00 J3.00
G03 X2422.19 Y-318.84 I-3.00 J0.00
M08
G40
M51
M93
G00 X2341.61 Y-462.23
M94 F1788
G41 D21
N193 M07
G01 X2347.20 Y-461.84
M50
G03 X2344.19 Y-453.95 I-10.69 J0.45
G03 X2323.62 Y-454.28 I-10.15 J-8.43
G03 X2327.97 Y-475.01 I11.05 J-8.50
G03 X2346.71 Y-466.96 I6.16 J11.50
G01 X2347.32 Y-463.57
G01 X2347.20 Y-461.84
G01 X2347.08 Y-460.12
M08
G40
M51
M93
G00 X2038.88 Y-462.23
M94 F1788
G41 D21
N194 M07
G01 X2044.46 Y-461.84
M50
G03 X2041.45 Y-453.95 I-10.69 J0.45
G03 X2020.88 Y-454.28 I-10.15 J-8.43
G03 X2025.24 Y-475.01 I11.05 J-8.50
G03 X2043.98 Y-466.96 I6.16 J11.50
G01 X2044.58 Y-463.57
G01 X2044.46 Y-461.84
G01 X2044.34 Y-460.12
M08
G40
M51
M93
G00 X1736.14 Y-462.23
M94 F1788
G41 D21
N195 M07
G01 X1741.73 Y-461.84
M50
G03 X1738.72 Y-453.95 I-10.69 J0.45
G03 X1718.15 Y-454.28 I-10.15 J-8.43
G03 X1722.50 Y-475.01 I11.05 J-8.50
G03 X1741.24 Y-466.96 I6.16 J11.50
G01 X1741.84 Y-463.57
G01 X1741.73 Y-461.84
G01 X1741.61 Y-460.12
M08
G40
M51
M93
G00 X1433.40 Y-462.23
M94 F1788
G41 D21
N196 M07
G01 X1438.99 Y-461.84
M50
G03 X1435.98 Y-453.95 I-10.69 J0.45
G03 X1415.41 Y-454.28 I-10.15 J-8.43
G03 X1419.76 Y-475.01 I11.05 J-8.50
G03 X1438.50 Y-466.96 I6.16 J11.50
G01 X1439.11 Y-463.57
G01 X1438.99 Y-461.84
G01 X1438.87 Y-460.12
M08
G40
M51
M93
G00 X2401.02 Y-270.53
M94 F1375
G41 D21
N197 M07
G01 X2404.98 Y-266.57
M50
G03 X2400.21 Y-264.60 I-4.77 J-4.77
G03 X2393.46 Y-271.35 I0.00 J-6.75
G03 X2400.21 Y-278.10 I6.75 J0.00
G03 X2406.96 Y-271.35 I0.00 J6.75
G03 X2404.98 Y-266.57 I-6.75 J-0.00
G03 X2403.20 Y-265.30 I-4.77 J-4.77
M08
G40
M51
M93
G00 X2349.02 Y-270.53
M94 F1375
G41 D21
N198 M07
G01 X2352.98 Y-266.57
M50
G03 X2348.21 Y-264.60 I-4.77 J-4.77
G03 X2341.46 Y-271.35 I0.00 J-6.75
G03 X2348.21 Y-278.10 I6.75 J0.00
G03 X2354.96 Y-271.35 I0.00 J6.75
G03 X2352.98 Y-266.57 I-6.75 J-0.00
G03 X2351.20 Y-265.30 I-4.77 J-4.77
M08
G40
M51
M93
G00 X1323.60 Y-100.13
M94 F1719
G41 D21
N199 M07
G01 X1327.56 Y-96.17
M50
G03 X1318.43 Y-92.39 I-9.12 J-9.12
G03 X1305.53 Y-105.29 I0.00 J-12.90
G03 X1318.43 Y-118.19 I12.90 J0.00
G03 X1331.33 Y-105.29 I0.00 J12.90
G03 X1327.56 Y-96.17 I-12.90 J0.00
G03 X1325.88 Y-94.75 I-9.12 J-9.12
M08
G40
M51
M93
G00 X1626.33 Y-100.13
M94 F1719
G41 D21
N200 M07
G01 X1630.29 Y-96.17
M50
G03 X1621.17 Y-92.39 I-9.12 J-9.12
G03 X1608.27 Y-105.29 I0.00 J-12.90
G03 X1621.17 Y-118.19 I12.90 J0.00
G03 X1634.07 Y-105.29 I0.00 J12.90
G03 X1630.29 Y-96.17 I-12.90 J0.00
G03 X1628.61 Y-94.75 I-9.12 J-9.12
M08
G40
M51
M93
G00 X1929.07 Y-110.45
M94 F1719
G41 D21
N201 M07
G01 X1933.03 Y-114.41
M50
G03 X1936.81 Y-105.29 I-9.12 J9.12
G03 X1923.91 Y-92.39 I-12.90 J-0.00
G03 X1911.01 Y-105.29 I0.00 J-12.90
G03 X1923.91 Y-118.19 I12.90 J0.00
G03 X1933.03 Y-114.41 I0.00 J12.90
G03 X1934.45 Y-112.73 I-9.12 J9.12
M08
G40
M51
M93
G00 X2231.81 Y-100.13
M94 F1719
G41 D21
N202 M07
G01 X2235.77 Y-96.17
M50
G03 X2226.65 Y-92.39 I-9.12 J-9.12
G03 X2213.75 Y-105.29 I0.00 J-12.90
G03 X2226.65 Y-118.19 I12.90 J0.00
G03 X2239.55 Y-105.29 I0.00 J12.90
G03 X2235.77 Y-96.17 I-12.90 J0.00
G03 X2234.09 Y-94.75 I-9.12 J-9.12
M08
G40
M51
M93
G00 X2401.02 Y-120.03
M94 F1375
G41 D21
N203 M07
G01 X2404.98 Y-116.07
M50
G03 X2400.21 Y-114.09 I-4.77 J-4.77
G03 X2393.46 Y-120.84 I0.00 J-6.75
G03 X2400.21 Y-127.59 I6.75 J0.00
G03 X2406.96 Y-120.84 I0.00 J6.75
G03 X2404.98 Y-116.07 I-6.75 J-0.00
G03 X2403.20 Y-114.80 I-4.77 J-4.77
M08
G40
M51
M93
G00 X2349.02 Y-121.66
M94 F1375
G41 D21
N204 M07
G01 X2352.98 Y-125.62
M50
G03 X2354.96 Y-120.84 I-4.77 J4.77
G03 X2348.21 Y-114.09 I-6.75 J0.00
G03 X2341.46 Y-120.84 I0.00 J-6.75
G03 X2348.21 Y-127.59 I6.75 J0.00
G03 X2352.98 Y-125.62 I-0.00 J6.75
G03 X2354.26 Y-123.84 I-4.77 J4.77
M08
G40
M51
M93
G00 X1433.42 Y-179.21
M94 F1788
G41 D21
N205 M07
G01 X1439.01 Y-179.42
M50
G03 X1436.86 Y-171.23 I-10.61 J1.59
G03 X1419.39 Y-166.89 I-11.11 J-7.36
G03 X1413.85 Y-184.85 I6.64 J-11.88
G03 X1430.94 Y-191.54 I12.14 J5.83
G03 X1437.98 Y-184.46 I-5.27 J12.27
G01 X1438.95 Y-181.15
G01 X1439.01 Y-179.42
G01 X1439.08 Y-177.70
M08
G40
M51
M93
G00 X1736.15 Y-179.21
M94 F1788
G41 D21
N206 M07
G01 X1741.75 Y-179.42
M50
G03 X1739.60 Y-171.23 I-10.61 J1.59
G03 X1722.13 Y-166.89 I-11.11 J-7.36
G03 X1716.59 Y-184.85 I6.64 J-11.88
G03 X1733.68 Y-191.54 I12.14 J5.83
G03 X1740.72 Y-184.46 I-5.27 J12.27
G01 X1741.68 Y-181.15
G01 X1741.75 Y-179.42
G01 X1741.81 Y-177.70
M08
G40
M51
M93
G00 X2038.89 Y-179.21
M94 F1788
G41 D21
N207 M07
G01 X2044.49 Y-179.42
M50
G03 X2042.34 Y-171.23 I-10.61 J1.59
G03 X2024.86 Y-166.89 I-11.11 J-7.36
G03 X2019.33 Y-184.85 I6.64 J-11.88
G03 X2036.42 Y-191.54 I12.14 J5.83
G03 X2043.45 Y-184.46 I-5.27 J12.27
G01 X2044.42 Y-181.15
G01 X2044.49 Y-179.42
G01 X2044.55 Y-177.70
M08
G40
M51
M93
G00 X2341.63 Y-179.21
M94 F1788
G41 D21
N208 M07
G01 X2347.22 Y-179.42
M50
G03 X2345.08 Y-171.23 I-10.61 J1.59
G03 X2327.60 Y-166.89 I-11.11 J-7.36
G03 X2322.06 Y-184.85 I6.64 J-11.88
G03 X2339.15 Y-191.54 I12.14 J5.83
G03 X2346.19 Y-184.46 I-5.27 J12.27
G01 X2347.16 Y-181.15
G01 X2347.22 Y-179.42
G01 X2347.29 Y-177.70
M08
G40
M51
M93
G00 X2349.02 Y-369.53
M94 F1375
G41 D21
N209 M07
G01 X2352.98 Y-365.57
M50
G03 X2348.21 Y-363.60 I-4.77 J-4.77
G03 X2341.46 Y-370.35 I0.00 J-6.75
G03 X2348.21 Y-377.10 I6.75 J0.00
G03 X2354.96 Y-370.35 I0.00 J6.75
G03 X2352.98 Y-365.57 I-6.75 J-0.00
G03 X2351.20 Y-364.30 I-4.77 J-4.77
M08
G40
M51
M93
G00 X2401.02 Y-369.53
M94 F1375
G41 D21
N210 M07
G01 X2404.98 Y-365.57
M50
G03 X2400.21 Y-363.60 I-4.77 J-4.77
G03 X2393.46 Y-370.35 I0.00 J-6.75
G03 X2400.21 Y-377.10 I6.75 J0.00
G03 X2406.96 Y-370.35 I0.00 J6.75
G03 X2404.98 Y-365.57 I-6.75 J-0.00
G03 X2403.20 Y-364.30 I-4.77 J-4.77
M08
G40
M51
M93
G00 X2349.02 Y-521.66
M94 F1375
G41 D21
N211 M07
G01 X2352.98 Y-525.62
M50
G03 X2354.96 Y-520.85 I-4.77 J4.77
G03 X2348.21 Y-514.10 I-6.75 J0.00
G03 X2341.46 Y-520.85 I0.00 J-6.75
G03 X2348.21 Y-527.60 I6.75 J0.00
G03 X2352.98 Y-525.62 I-0.00 J6.75
G03 X2354.26 Y-523.84 I-4.77 J4.77
M08
G40
M51
M93
G00 X2401.02 Y-520.04
M94 F1375
G41 D21
N212 M07
G01 X2404.98 Y-516.08
M50
G03 X2400.21 Y-514.10 I-4.77 J-4.77
G03 X2393.46 Y-520.85 I0.00 J-6.75
G03 X2400.21 Y-527.60 I6.75 J0.00
G03 X2406.96 Y-520.85 I0.00 J6.75
G03 X2404.98 Y-516.08 I-6.75 J-0.00
G03 X2403.20 Y-514.80 I-4.77 J-4.77
M08
G40
M51
M93
G00 X2231.81 Y-541.56
M94 F1719
G41 D21
N213 M07
G01 X2235.77 Y-545.52
M50
G03 X2239.55 Y-536.40 I-9.12 J9.12
G03 X2226.65 Y-523.50 I-12.90 J-0.00
G03 X2213.75 Y-536.40 I0.00 J-12.90
G03 X2226.65 Y-549.30 I12.90 J0.00
G03 X2235.77 Y-545.52 I0.00 J12.90
G03 X2237.18 Y-543.84 I-9.12 J9.12
M08
G40
M51
M93
G00 X1929.07 Y-541.56
M94 F1719
G41 D21
N214 M07
G01 X1933.03 Y-545.52
M50
G03 X1936.81 Y-536.40 I-9.12 J9.12
G03 X1923.91 Y-523.50 I-12.90 J-0.00
G03 X1911.01 Y-536.40 I0.00 J-12.90
G03 X1923.91 Y-549.30 I12.90 J0.00
G03 X1933.03 Y-545.52 I0.00 J12.90
G03 X1934.45 Y-543.84 I-9.12 J9.12
M08
G40
M51
M93
G00 X1626.33 Y-541.56
M94 F1719
G41 D21
N215 M07
G01 X1630.29 Y-545.52
M50
G03 X1634.07 Y-536.40 I-9.12 J9.12
G03 X1621.17 Y-523.50 I-12.90 J-0.00
G03 X1608.27 Y-536.40 I0.00 J-12.90
G03 X1621.17 Y-549.30 I12.90 J0.00
G03 X1630.29 Y-545.52 I0.00 J12.90
G03 X1631.71 Y-543.84 I-9.12 J9.12
M08
G40
M51
M93
G00 X1323.60 Y-531.24
M94 F1719
G41 D21
N216 M07
G01 X1327.56 Y-527.28
M50
G03 X1318.43 Y-523.50 I-9.12 J-9.12
G03 X1305.53 Y-536.40 I0.00 J-12.90
G03 X1318.43 Y-549.30 I12.90 J0.00
G03 X1331.33 Y-536.40 I0.00 J12.90
G03 X1327.56 Y-527.28 I-12.90 J-0.00
G03 X1325.88 Y-525.86 I-9.12 J-9.12
M08
G40
M51
M93
G00 X2281.02 Y-636.97
M94 F2750
G41 D21
N217 M07
G01 X2281.02 Y-631.37
G01 X2281.02 Y-597.87
G03 X2271.02 Y-587.87 I-10.00 J0.00
G01 X1948.03 Y-587.87
G03 X1938.03 Y-597.87 I0.00 J-10.00
G01 X1938.03 Y-631.37
G01 X1908.98 Y-631.37
G03 X1902.19 Y-616.95 I-21.40 J-1.27
G03 X1886.39 Y-608.24 I-21.67 J-20.62
G03 X1854.15 Y-614.89 I-9.00 J-37.87
G03 X1845.49 Y-628.65 I17.55 J-20.63
G01 X1845.12 Y-631.37
G01 X1816.06 Y-631.37
G01 X1816.06 Y-597.87
G03 X1806.06 Y-587.87 I-10.00 J0.00
G01 X1483.07 Y-587.87
G03 X1473.07 Y-597.87 I0.00 J-10.00
G01 X1473.07 Y-631.37
G01 X1443.07 Y-631.37
G01 X1443.07 Y-597.87
G03 X1433.07 Y-587.87 I-10.00 J0.00
G01 X1221.76 Y-587.87
G01 X1221.76 Y-53.83
G01 X1433.07 Y-53.83
G03 X1443.07 Y-43.83 I0.00 J10.00
G01 X1443.07 Y-10.33
G01 X1473.07 Y-10.33
G01 X1473.07 Y-43.83
G03 X1483.07 Y-53.83 I10.00 J0.00
G01 X1806.06 Y-53.83
G03 X1816.06 Y-43.83 I0.00 J10.00
G01 X1816.06 Y-10.33
G01 X1845.12 Y-10.33
G03 X1851.90 Y-24.74 I21.40 J1.27
G03 X1867.70 Y-33.45 I21.67 J20.62
G03 X1899.95 Y-26.80 I9.00 J37.87
G03 X1908.60 Y-13.05 I-17.55 J20.63
G01 X1908.98 Y-10.33
G01 X1938.03 Y-10.33
G01 X1938.03 Y-43.83
G03 X1948.03 Y-53.83 I10.00 J0.00
G01 X2271.02 Y-53.83
G03 X2281.02 Y-43.83 I0.00 J10.00
G01 X2281.02 Y-10.33
G01 X2311.02 Y-10.33
G01 X2311.02 Y-43.83
G03 X2321.02 Y-53.83 I10.00 J0.00
G01 X2430.71 Y-53.83
G01 X2430.71 Y-587.87
G01 X2321.02 Y-587.87
G03 X2311.02 Y-597.87 I0.00 J-10.00
G01 X2311.02 Y-631.37
G01 X2282.12 Y-631.37
M50
G01 X2281.02 Y-631.37
G03 X2279.02 Y-633.37 I0.00 J-2.00
M08
G40
M51
M93
G00 X2555.13 Y-363.83
M94 F2750
G41 D21
N218 M07
G01 X2549.53 Y-363.83
G01 X2549.53 Y-412.67
G01 X2518.03 Y-412.67
G01 X2518.03 Y-263.95
G01 X2465.03 Y-263.95
G01 X2465.03 Y-412.67
G01 X2433.53 Y-412.67
G01 X2433.53 Y-363.83
G02 X2433.60 Y-363.06 I3.89 J-0.01
G01 X2453.94 Y-265.01
G02 X2454.17 Y-264.31 I3.65 J-0.77
G01 X2468.79 Y-231.29
G01 X2514.26 Y-231.29
G01 X2528.88 Y-264.31
G02 X2529.11 Y-265.01 I-2.94 J-1.32
G01 X2549.45 Y-363.06
G02 X2549.52 Y-363.80 I-3.61 J-0.76
G01 X2549.52 Y-363.82
M50
G01 X2549.53 Y-363.83
G03 X2551.53 Y-365.83 I2.00 J0.00
M08
G40
M51
M93
G00 X2574.79 Y-416.22
M94 F2750
G41 D21
N219 M07
G01 X2569.31 Y-415.07
G02 X2569.08 Y-415.77 I-3.65 J0.77
G01 X2554.46 Y-448.79
G01 X2508.99 Y-448.79
G01 X2494.36 Y-415.77
G02 X2494.14 Y-415.07 I2.94 J1.32
G01 X2473.80 Y-317.02
G02 X2473.72 Y-316.25 I3.61 J0.76
G01 X2473.72 Y-267.41
G01 X2505.22 Y-267.41
G01 X2505.22 Y-416.13
G01 X2558.22 Y-416.13
G01 X2558.22 Y-267.41
G01 X2589.72 Y-267.41
G01 X2589.72 Y-316.25
G02 X2589.65 Y-317.01 I-3.89 J0.01
G01 X2589.64 Y-317.02
G01 X2569.53 Y-413.99
M50
G01 X2569.31 Y-415.07
G03 X2570.86 Y-417.43 I1.96 J-0.41
M08
G40
M51
M93
G00 X2546.97 Y-629.49
M94 F2750
G41 D21
N220 M07
G01 X2541.37 Y-629.49
G01 X2541.37 Y-678.33
G01 X2509.87 Y-678.33
G01 X2509.87 Y-529.60
G01 X2456.87 Y-529.60
G01 X2456.87 Y-678.33
G01 X2425.37 Y-678.33
G01 X2425.37 Y-629.49
G02 X2425.45 Y-628.71 I3.89 J-0.01
G01 X2445.79 Y-530.67
G02 X2446.01 Y-529.96 I3.65 J-0.77
G01 X2460.63 Y-496.94
G01 X2506.11 Y-496.94
G01 X2520.73 Y-529.96
G02 X2520.95 Y-530.67 I-2.94 J-1.32
G01 X2541.29 Y-628.71
G02 X2541.37 Y-629.45 I-3.61 J-0.76
G01 X2541.37 Y-629.47
M50
G01 X2541.37 Y-629.49
G03 X2543.37 Y-631.48 I2.00 J0.00
M08
G40
M51
M93
G00 X2566.63 Y-681.88
M94 F2750
G41 D21
N221 M07
G01 X2561.15 Y-680.73
G02 X2560.92 Y-681.43 I-3.65 J0.77
G01 X2546.30 Y-714.45
G01 X2500.83 Y-714.45
G01 X2486.21 Y-681.43
G02 X2485.98 Y-680.73 I2.94 J1.32
G01 X2465.65 Y-582.68
G02 X2465.57 Y-581.91 I3.61 J0.76
G01 X2465.57 Y-533.06
G01 X2497.07 Y-533.06
G01 X2497.07 Y-681.79
G01 X2550.07 Y-681.79
G01 X2550.07 Y-533.06
G01 X2581.57 Y-533.06
G01 X2581.57 Y-581.91
G02 X2581.49 Y-582.67 I-3.89 J0.01
G01 X2581.49 Y-582.68
G01 X2561.37 Y-679.65
M50
G01 X2561.15 Y-680.73
G03 X2562.70 Y-683.09 I1.96 J-0.41
M08
G40
M51
M93
G00 X2555.13 Y-850.28
M94 F2750
G41 D21
N222 M07
G01 X2549.53 Y-850.28
G01 X2549.53 Y-899.13
G01 X2518.03 Y-899.13
G01 X2518.03 Y-750.40
G01 X2465.03 Y-750.40
G01 X2465.03 Y-899.13
G01 X2433.53 Y-899.13
G01 X2433.53 Y-850.28
G02 X2433.60 Y-849.51 I3.89 J-0.01
G01 X2453.94 Y-751.46
G02 X2454.17 Y-750.76 I3.65 J-0.77
G01 X2468.79 Y-717.74
G01 X2514.26 Y-717.74
G01 X2528.88 Y-750.76
G02 X2529.11 Y-751.46 I-2.94 J-1.32
G01 X2549.45 Y-849.51
G02 X2549.52 Y-850.25 I-3.61 J-0.76
G01 X2549.52 Y-850.27
M50
G01 X2549.53 Y-850.28
G03 X2551.53 Y-852.28 I2.00 J0.00
M08
G40
M51
M93
G00 X2574.79 Y-902.67
M94 F2750
G41 D21
N223 M07
G01 X2569.31 Y-901.52
G02 X2569.08 Y-902.23 I-3.65 J0.77
G01 X2554.46 Y-935.25
G01 X2508.99 Y-935.25
G01 X2494.36 Y-902.23
G02 X2494.14 Y-901.52 I2.94 J1.32
G01 X2473.80 Y-803.48
G02 X2473.72 Y-802.70 I3.61 J0.76
G01 X2473.72 Y-753.86
G01 X2505.22 Y-753.86
G01 X2505.22 Y-902.59
G01 X2558.22 Y-902.59
G01 X2558.22 Y-753.86
G01 X2589.72 Y-753.86
G01 X2589.72 Y-802.70
G02 X2589.65 Y-803.46 I-3.89 J0.01
G01 X2589.64 Y-803.48
G01 X2569.53 Y-900.45
M50
G01 X2569.31 Y-901.52
G03 X2570.86 Y-903.89 I1.96 J-0.41
M08
G40
M51
M93
G00 X2342.00 Y-950.61
M94 F1581
G41 D21
N224 M07
G01 X2347.60 Y-950.61
M50
G03 X2344.60 Y-947.61 I-3.00 J0.00
G01 X2287.80 Y-947.61
G03 X2284.80 Y-950.61 I0.00 J-3.00
G03 X2287.80 Y-953.61 I3.00 J0.00
G01 X2344.60 Y-953.61
G03 X2347.60 Y-950.61 I0.00 J3.00
G03 X2346.83 Y-948.61 I-3.00 J-0.00
M08
G40
M51
M93
G00 X2191.28 Y-950.61
M94 F1581
G41 D21
N225 M07
G01 X2196.88 Y-950.61
M50
G03 X2193.88 Y-947.61 I-3.00 J0.00
G01 X2137.08 Y-947.61
G03 X2134.08 Y-950.61 I0.00 J-3.00
G03 X2137.08 Y-953.61 I3.00 J0.00
G01 X2193.88 Y-953.61
G03 X2196.88 Y-950.61 I0.00 J3.00
G03 X2196.11 Y-948.61 I-3.00 J-0.00
M08
G40
M51
M93
G00 X2040.56 Y-950.61
M94 F1581
G41 D21
N226 M07
G01 X2046.16 Y-950.61
M50
G03 X2043.16 Y-947.61 I-3.00 J0.00
G01 X1986.36 Y-947.61
G03 X1983.36 Y-950.61 I0.00 J-3.00
G03 X1986.36 Y-953.61 I3.00 J0.00
G01 X2043.16 Y-953.61
G03 X2046.16 Y-950.61 I0.00 J3.00
G03 X2045.39 Y-948.61 I-3.00 J-0.00
M08
G40
M51
M93
G00 X1889.84 Y-950.61
M94 F1581
G41 D21
N227 M07
G01 X1895.44 Y-950.61
M50
G03 X1892.44 Y-947.61 I-3.00 J0.00
G01 X1835.64 Y-947.61
G03 X1832.64 Y-950.61 I0.00 J-3.00
G03 X1835.64 Y-953.61 I3.00 J0.00
G01 X1892.44 Y-953.61
G03 X1895.44 Y-950.61 I0.00 J3.00
G03 X1894.67 Y-948.61 I-3.00 J-0.00
M08
G40
M51
M93
G00 X1739.12 Y-950.61
M94 F1581
G41 D21
N228 M07
G01 X1744.72 Y-950.61
M50
G03 X1741.72 Y-947.61 I-3.00 J0.00
G01 X1684.92 Y-947.61
G03 X1681.92 Y-950.61 I0.00 J-3.00
G03 X1684.92 Y-953.61 I3.00 J0.00
G01 X1741.72 Y-953.61
G03 X1744.72 Y-950.61 I0.00 J3.00
G03 X1743.95 Y-948.61 I-3.00 J-0.00
M08
G40
M51
M93
G00 X1588.40 Y-950.61
M94 F1581
G41 D21
N229 M07
G01 X1594.00 Y-950.61
M50
G03 X1591.00 Y-947.61 I-3.00 J0.00
G01 X1534.20 Y-947.61
G03 X1531.20 Y-950.61 I0.00 J-3.00
G03 X1534.20 Y-953.61 I3.00 J0.00
G01 X1591.00 Y-953.61
G03 X1594.00 Y-950.61 I0.00 J3.00
G03 X1593.23 Y-948.61 I-3.00 J-0.00
M08
G40
M51
M93
G00 X1437.68 Y-950.61
M94 F1581
G41 D21
N230 M07
G01 X1443.28 Y-950.61
M50
G03 X1440.28 Y-947.61 I-3.00 J0.00
G01 X1383.48 Y-947.61
G03 X1380.48 Y-950.61 I0.00 J-3.00
G03 X1383.48 Y-953.61 I3.00 J0.00
G01 X1440.28 Y-953.61
G03 X1443.28 Y-950.61 I0.00 J3.00
G03 X1442.51 Y-948.61 I-3.00 J-0.00
M08
G40
M51
M93
G00 X1286.96 Y-950.61
M94 F1581
G41 D21
N231 M07
G01 X1292.56 Y-950.61
M50
G03 X1289.56 Y-947.61 I-3.00 J0.00
G01 X1232.76 Y-947.61
G03 X1229.76 Y-950.61 I0.00 J-3.00
G03 X1232.76 Y-953.61 I3.00 J0.00
G01 X1289.56 Y-953.61
G03 X1292.56 Y-950.61 I0.00 J3.00
G03 X1291.79 Y-948.61 I-3.00 J-0.00
M08
G40
M51
M93
G00 X1362.32 Y-950.61
M94 F1581
G41 D21
N232 M07
G01 X1367.92 Y-950.61
M50
G03 X1364.92 Y-947.61 I-3.00 J0.00
G01 X1308.12 Y-947.61
G03 X1305.12 Y-950.61 I0.00 J-3.00
G03 X1308.12 Y-953.61 I3.00 J0.00
G01 X1364.92 Y-953.61
G03 X1367.92 Y-950.61 I0.00 J3.00
G03 X1367.15 Y-948.61 I-3.00 J-0.00
M08
G40
M51
M93
G00 X1513.04 Y-950.61
M94 F1581
G41 D21
N233 M07
G01 X1518.64 Y-950.61
M50
G03 X1515.64 Y-947.61 I-3.00 J0.00
G01 X1458.84 Y-947.61
G03 X1455.84 Y-950.61 I0.00 J-3.00
G03 X1458.84 Y-953.61 I3.00 J0.00
G01 X1515.64 Y-953.61
G03 X1518.64 Y-950.61 I0.00 J3.00
G03 X1517.87 Y-948.61 I-3.00 J-0.00
M08
G40
M51
M93
G00 X1663.76 Y-950.61
M94 F1581
G41 D21
N234 M07
G01 X1669.36 Y-950.61
M50
G03 X1666.36 Y-947.61 I-3.00 J0.00
G01 X1609.56 Y-947.61
G03 X1606.56 Y-950.61 I0.00 J-3.00
G03 X1609.56 Y-953.61 I3.00 J0.00
G01 X1666.36 Y-953.61
G03 X1669.36 Y-950.61 I0.00 J3.00
G03 X1668.59 Y-948.61 I-3.00 J-0.00
M08
G40
M51
M93
G00 X1814.48 Y-950.61
M94 F1581
G41 D21
N235 M07
G01 X1820.08 Y-950.61
M50
G03 X1817.08 Y-947.61 I-3.00 J0.00
G01 X1760.28 Y-947.61
G03 X1757.28 Y-950.61 I0.00 J-3.00
G03 X1760.28 Y-953.61 I3.00 J0.00
G01 X1817.08 Y-953.61
G03 X1820.08 Y-950.61 I0.00 J3.00
G03 X1819.31 Y-948.61 I-3.00 J-0.00
M08
G40
M51
M93
G00 X1965.20 Y-950.61
M94 F1581
G41 D21
N236 M07
G01 X1970.80 Y-950.61
M50
G03 X1967.80 Y-947.61 I-3.00 J0.00
G01 X1911.00 Y-947.61
G03 X1908.00 Y-950.61 I0.00 J-3.00
G03 X1911.00 Y-953.61 I3.00 J0.00
G01 X1967.80 Y-953.61
G03 X1970.80 Y-950.61 I0.00 J3.00
G03 X1970.03 Y-948.61 I-3.00 J-0.00
M08
G40
M51
M93
G00 X2115.92 Y-950.61
M94 F1581
G41 D21
N237 M07
G01 X2121.52 Y-950.61
M50
G03 X2118.52 Y-947.61 I-3.00 J0.00
G01 X2061.72 Y-947.61
G03 X2058.72 Y-950.61 I0.00 J-3.00
G03 X2061.72 Y-953.61 I3.00 J0.00
G01 X2118.52 Y-953.61
G03 X2121.52 Y-950.61 I0.00 J3.00
G03 X2120.75 Y-948.61 I-3.00 J-0.00
M08
G40
M51
M93
G00 X2266.64 Y-950.61
M94 F1581
G41 D21
N238 M07
G01 X2272.24 Y-950.61
M50
G03 X2269.24 Y-947.61 I-3.00 J0.00
G01 X2212.44 Y-947.61
G03 X2209.44 Y-950.61 I0.00 J-3.00
G03 X2212.44 Y-953.61 I3.00 J0.00
G01 X2269.24 Y-953.61
G03 X2272.24 Y-950.61 I0.00 J3.00
G03 X2271.47 Y-948.61 I-3.00 J-0.00
M08
G40
M51
M93
G00 X2417.36 Y-950.61
M94 F1581
G41 D21
N239 M07
G01 X2422.96 Y-950.61
M50
G03 X2419.96 Y-947.61 I-3.00 J0.00
G01 X2363.16 Y-947.61
G03 X2360.16 Y-950.61 I0.00 J-3.00
G03 X2363.16 Y-953.61 I3.00 J0.00
G01 X2419.96 Y-953.61
G03 X2422.96 Y-950.61 I0.00 J3.00
G03 X2422.19 Y-948.61 I-3.00 J-0.00
M08
G40
M51
M93
G00 X2341.61 Y-1091.99
M94 F1788
G41 D21
N240 M07
G01 X2347.20 Y-1091.61
M50
G03 X2344.19 Y-1083.71 I-10.69 J0.45
G03 X2323.62 Y-1084.05 I-10.15 J-8.43
G03 X2327.97 Y-1104.78 I11.05 J-8.50
G03 X2346.71 Y-1096.73 I6.16 J11.50
G01 X2347.32 Y-1093.33
G01 X2347.20 Y-1091.61
G01 X2347.08 Y-1089.89
M08
G40
M51
M93
G00 X2038.88 Y-1091.99
M94 F1788
G41 D21
N241 M07
G01 X2044.46 Y-1091.61
M50
G03 X2041.45 Y-1083.71 I-10.69 J0.45
G03 X2020.88 Y-1084.05 I-10.15 J-8.43
G03 X2025.24 Y-1104.78 I11.05 J-8.50
G03 X2043.98 Y-1096.73 I6.16 J11.50
G01 X2044.58 Y-1093.33
G01 X2044.46 Y-1091.61
G01 X2044.34 Y-1089.89
M08
G40
M51
M93
G00 X1736.14 Y-1091.99
M94 F1788
G41 D21
N242 M07
G01 X1741.73 Y-1091.61
M50
G03 X1738.72 Y-1083.71 I-10.69 J0.45
G03 X1718.15 Y-1084.05 I-10.15 J-8.43
G03 X1722.50 Y-1104.78 I11.05 J-8.50
G03 X1741.24 Y-1096.73 I6.16 J11.50
G01 X1741.84 Y-1093.33
G01 X1741.73 Y-1091.61
G01 X1741.61 Y-1089.89
M08
G40
M51
M93
G00 X1433.40 Y-1091.99
M94 F1788
G41 D21
N243 M07
G01 X1438.99 Y-1091.61
M50
G03 X1435.98 Y-1083.71 I-10.69 J0.45
G03 X1415.41 Y-1084.05 I-10.15 J-8.43
G03 X1419.76 Y-1104.78 I11.05 J-8.50
G03 X1438.50 Y-1096.73 I6.16 J11.50
G01 X1439.11 Y-1093.33
G01 X1438.99 Y-1091.61
G01 X1438.87 Y-1089.89
M08
G40
M51
M93
G00 X2401.02 Y-900.30
M94 F1375
G41 D21
N244 M07
G01 X2404.98 Y-896.34
M50
G03 X2400.21 Y-894.36 I-4.77 J-4.77
G03 X2393.46 Y-901.11 I0.00 J-6.75
G03 X2400.21 Y-907.86 I6.75 J0.00
G03 X2406.96 Y-901.11 I0.00 J6.75
G03 X2404.98 Y-896.34 I-6.75 J-0.00
G03 X2403.20 Y-895.06 I-4.77 J-4.77
M08
G40
M51
M93
G00 X2349.02 Y-900.30
M94 F1375
G41 D21
N245 M07
G01 X2352.98 Y-896.34
M50
G03 X2348.21 Y-894.36 I-4.77 J-4.77
G03 X2341.46 Y-901.11 I0.00 J-6.75
G03 X2348.21 Y-907.86 I6.75 J0.00
G03 X2354.96 Y-901.11 I0.00 J6.75
G03 X2352.98 Y-896.34 I-6.75 J-0.00
G03 X2351.20 Y-895.06 I-4.77 J-4.77
M08
G40
M51
M93
G00 X1323.60 Y-729.90
M94 F1719
G41 D21
N246 M07
G01 X1327.56 Y-725.94
M50
G03 X1318.43 Y-722.16 I-9.12 J-9.12
G03 X1305.53 Y-735.06 I0.00 J-12.90
G03 X1318.43 Y-747.96 I12.90 J0.00
G03 X1331.33 Y-735.06 I0.00 J12.90
G03 X1327.56 Y-725.94 I-12.90 J0.00
G03 X1325.88 Y-724.52 I-9.12 J-9.12
M08
G40
M51
M93
G00 X1626.33 Y-729.90
M94 F1719
G41 D21
N247 M07
G01 X1630.29 Y-725.94
M50
G03 X1621.17 Y-722.16 I-9.12 J-9.12
G03 X1608.27 Y-735.06 I0.00 J-12.90
G03 X1621.17 Y-747.96 I12.90 J0.00
G03 X1634.07 Y-735.06 I0.00 J12.90
G03 X1630.29 Y-725.94 I-12.90 J0.00
G03 X1628.61 Y-724.52 I-9.12 J-9.12
M08
G40
M51
M93
G00 X1929.07 Y-740.22
M94 F1719
G41 D21
N248 M07
G01 X1933.03 Y-744.18
M50
G03 X1936.81 Y-735.06 I-9.12 J9.12
G03 X1923.91 Y-722.16 I-12.90 J0.00
G03 X1911.01 Y-735.06 I0.00 J-12.90
G03 X1923.91 Y-747.96 I12.90 J0.00
G03 X1933.03 Y-744.18 I0.00 J12.90
G03 X1934.45 Y-742.50 I-9.12 J9.12
M08
G40
M51
M93
G00 X2231.81 Y-729.90
M94 F1719
G41 D21
N249 M07
G01 X2235.77 Y-725.94
M50
G03 X2226.65 Y-722.16 I-9.12 J-9.12
G03 X2213.75 Y-735.06 I0.00 J-12.90
G03 X2226.65 Y-747.96 I12.90 J0.00
G03 X2239.55 Y-735.06 I0.00 J12.90
G03 X2235.77 Y-725.94 I-12.90 J0.00
G03 X2234.09 Y-724.52 I-9.12 J-9.12
M08
G40
M51
M93
G00 X2401.02 Y-749.80
M94 F1375
G41 D21
N250 M07
G01 X2404.98 Y-745.84
M50
G03 X2400.21 Y-743.86 I-4.77 J-4.77
G03 X2393.46 Y-750.61 I0.00 J-6.75
G03 X2400.21 Y-757.36 I6.75 J0.00
G03 X2406.96 Y-750.61 I0.00 J6.75
G03 X2404.98 Y-745.84 I-6.75 J-0.00
G03 X2403.20 Y-744.56 I-4.77 J-4.77
M08
G40
M51
M93
G00 X2349.02 Y-751.43
M94 F1375
G41 D21
N251 M07
G01 X2352.98 Y-755.38
M50
G03 X2354.96 Y-750.61 I-4.77 J4.77
G03 X2348.21 Y-743.86 I-6.75 J0.00
G03 X2341.46 Y-750.61 I0.00 J-6.75
G03 X2348.21 Y-757.36 I6.75 J0.00
G03 X2352.98 Y-755.38 I-0.00 J6.75
G03 X2354.26 Y-753.61 I-4.77 J4.77
M08
G40
M51
M93
G00 X1433.42 Y-808.97
M94 F1788
G41 D21
N252 M07
G01 X1439.01 Y-809.19
M50
G03 X1436.86 Y-801.00 I-10.61 J1.59
G03 X1419.39 Y-796.65 I-11.11 J-7.36
G03 X1413.85 Y-814.62 I6.64 J-11.88
G03 X1430.94 Y-821.31 I12.14 J5.83
G03 X1437.98 Y-814.22 I-5.27 J12.27
G01 X1438.95 Y-810.92
G01 X1439.01 Y-809.19
G01 X1439.08 Y-807.46
M08
G40
M51
M93
G00 X1736.15 Y-808.97
M94 F1788
G41 D21
N253 M07
G01 X1741.75 Y-809.19
M50
G03 X1739.60 Y-801.00 I-10.61 J1.59
G03 X1722.13 Y-796.65 I-11.11 J-7.36
G03 X1716.59 Y-814.62 I6.64 J-11.88
G03 X1733.68 Y-821.31 I12.14 J5.83
G03 X1740.72 Y-814.22 I-5.27 J12.27
G01 X1741.68 Y-810.92
G01 X1741.75 Y-809.19
G01 X1741.81 Y-807.46
M08
G40
M51
M93
G00 X2038.89 Y-808.97
M94 F1788
G41 D21
N254 M07
G01 X2044.49 Y-809.19
M50
G03 X2042.34 Y-801.00 I-10.61 J1.59
G03 X2024.86 Y-796.65 I-11.11 J-7.36
G03 X2019.33 Y-814.62 I6.64 J-11.88
G03 X2036.42 Y-821.31 I12.14 J5.83
G03 X2043.45 Y-814.22 I-5.27 J12.27
G01 X2044.42 Y-810.92
G01 X2044.49 Y-809.19
G01 X2044.55 Y-807.46
M08
G40
M51
M93
G00 X2341.63 Y-808.97
M94 F1788
G41 D21
N255 M07
G01 X2347.22 Y-809.19
M50
G03 X2345.08 Y-801.00 I-10.61 J1.59
G03 X2327.60 Y-796.65 I-11.11 J-7.36
G03 X2322.06 Y-814.62 I6.64 J-11.88
G03 X2339.15 Y-821.31 I12.14 J5.83
G03 X2346.19 Y-814.22 I-5.27 J12.27
G01 X2347.16 Y-810.92
G01 X2347.22 Y-809.19
G01 X2347.29 Y-807.46
M08
G40
M51
M93
G00 X2349.02 Y-999.30
M94 F1375
G41 D21
N256 M07
G01 X2352.98 Y-995.34
M50
G03 X2348.21 Y-993.36 I-4.77 J-4.77
G03 X2341.46 Y-1000.11 I0.00 J-6.75
G03 X2348.21 Y-1006.86 I6.75 J0.00
G03 X2354.96 Y-1000.11 I0.00 J6.75
G03 X2352.98 Y-995.34 I-6.75 J-0.00
G03 X2351.20 Y-994.06 I-4.77 J-4.77
M08
G40
M51
M93
G00 X2401.02 Y-999.30
M94 F1375
G41 D21
N257 M07
G01 X2404.98 Y-995.34
M50
G03 X2400.21 Y-993.36 I-4.77 J-4.77
G03 X2393.46 Y-1000.11 I0.00 J-6.75
G03 X2400.21 Y-1006.86 I6.75 J0.00
G03 X2406.96 Y-1000.11 I0.00 J6.75
G03 X2404.98 Y-995.34 I-6.75 J-0.00
G03 X2403.20 Y-994.06 I-4.77 J-4.77
M08
G40
M51
M93
G00 X2349.02 Y-1151.43
M94 F1375
G41 D21
N258 M07
G01 X2352.98 Y-1155.39
M50
G03 X2354.96 Y-1150.62 I-4.77 J4.77
G03 X2348.21 Y-1143.87 I-6.75 J0.00
G03 X2341.46 Y-1150.62 I0.00 J-6.75
G03 X2348.21 Y-1157.37 I6.75 J0.00
G03 X2352.98 Y-1155.39 I-0.00 J6.75
G03 X2354.26 Y-1153.61 I-4.77 J4.77
M08
G40
M51
M93
G00 X2401.02 Y-1149.80
M94 F1375
G41 D21
N259 M07
G01 X2404.98 Y-1145.84
M50
G03 X2400.21 Y-1143.87 I-4.77 J-4.77
G03 X2393.46 Y-1150.62 I0.00 J-6.75
G03 X2400.21 Y-1157.37 I6.75 J0.00
G03 X2406.96 Y-1150.62 I0.00 J6.75
G03 X2404.98 Y-1145.84 I-6.75 J-0.00
G03 X2403.20 Y-1144.57 I-4.77 J-4.77
M08
G40
M51
M93
G00 X2231.81 Y-1171.33
M94 F1719
G41 D21
N260 M07
G01 X2235.77 Y-1175.29
M50
G03 X2239.55 Y-1166.17 I-9.12 J9.12
G03 X2226.65 Y-1153.27 I-12.90 J0.00
G03 X2213.75 Y-1166.17 I0.00 J-12.90
G03 X2226.65 Y-1179.07 I12.90 J0.00
G03 X2235.77 Y-1175.29 I0.00 J12.90
G03 X2237.18 Y-1173.61 I-9.12 J9.12
M08
G40
M51
M93
G00 X1929.07 Y-1171.33
M94 F1719
G41 D21
N261 M07
G01 X1933.03 Y-1175.29
M50
G03 X1936.81 Y-1166.17 I-9.12 J9.12
G03 X1923.91 Y-1153.27 I-12.90 J0.00
G03 X1911.01 Y-1166.17 I0.00 J-12.90
G03 X1923.91 Y-1179.07 I12.90 J0.00
G03 X1933.03 Y-1175.29 I0.00 J12.90
G03 X1934.45 Y-1173.61 I-9.12 J9.12
M08
G40
M51
M93
G00 X1626.33 Y-1171.33
M94 F1719
G41 D21
N262 M07
G01 X1630.29 Y-1175.29
M50
G03 X1634.07 Y-1166.17 I-9.12 J9.12
G03 X1621.17 Y-1153.27 I-12.90 J0.00
G03 X1608.27 Y-1166.17 I0.00 J-12.90
G03 X1621.17 Y-1179.07 I12.90 J0.00
G03 X1630.29 Y-1175.29 I0.00 J12.90
G03 X1631.71 Y-1173.61 I-9.12 J9.12
M08
G40
M51
M93
G00 X1323.60 Y-1161.01
M94 F1719
G41 D21
N263 M07
G01 X1327.56 Y-1157.05
M50
G03 X1318.43 Y-1153.27 I-9.12 J-9.12
G03 X1305.53 Y-1166.17 I0.00 J-12.90
G03 X1318.43 Y-1179.07 I12.90 J0.00
G03 X1331.33 Y-1166.17 I0.00 J12.90
G03 X1327.56 Y-1157.05 I-12.90 J0.00
G03 X1325.88 Y-1155.63 I-9.12 J-9.12
M08
G40
M51
M93
G00 X2281.02 Y-1266.73
M94 F2750
G41 D21
N264 M07
G01 X2281.02 Y-1261.13
G01 X2281.02 Y-1227.63
G03 X2271.02 Y-1217.63 I-10.00 J0.00
G01 X1948.03 Y-1217.63
G03 X1938.03 Y-1227.63 I0.00 J-10.00
G01 X1938.03 Y-1261.13
G01 X1908.98 Y-1261.13
G03 X1902.19 Y-1246.72 I-21.40 J-1.27
G03 X1886.39 Y-1238.01 I-21.67 J-20.62
G03 X1854.15 Y-1244.66 I-9.00 J-37.87
G03 X1845.49 Y-1258.41 I17.55 J-20.63
G01 X1845.12 Y-1261.13
G01 X1816.06 Y-1261.13
G01 X1816.06 Y-1227.63
G03 X1806.06 Y-1217.63 I-10.00 J0.00
G01 X1483.07 Y-1217.63
G03 X1473.07 Y-1227.63 I0.00 J-10.00
G01 X1473.07 Y-1261.13
G01 X1443.07 Y-1261.13
G01 X1443.07 Y-1227.63
G03 X1433.07 Y-1217.63 I-10.00 J0.00
G01 X1221.76 Y-1217.63
G01 X1221.76 Y-683.59
G01 X1433.07 Y-683.59
G03 X1443.07 Y-673.59 I0.00 J10.00
G01 X1443.07 Y-640.09
G01 X1473.07 Y-640.09
G01 X1473.07 Y-673.59
G03 X1483.07 Y-683.59 I10.00 J0.00
G01 X1806.06 Y-683.59
G03 X1816.06 Y-673.59 I0.00 J10.00
G01 X1816.06 Y-640.09
G01 X1845.12 Y-640.09
G03 X1851.90 Y-654.51 I21.40 J1.27
G03 X1867.70 Y-663.22 I21.67 J20.62
G03 X1899.95 Y-656.57 I9.00 J37.87
G03 X1908.60 Y-642.82 I-17.55 J20.63
G01 X1908.98 Y-640.09
G01 X1938.03 Y-640.09
G01 X1938.03 Y-673.59
G03 X1948.03 Y-683.59 I10.00 J0.00
G01 X2271.02 Y-683.59
G03 X2281.02 Y-673.59 I0.00 J10.00
G01 X2281.02 Y-640.09
G01 X2311.02 Y-640.09
G01 X2311.02 Y-673.59
G03 X2321.02 Y-683.59 I10.00 J0.00
G01 X2430.71 Y-683.59
G01 X2430.71 Y-1217.63
G01 X2321.02 Y-1217.63
G03 X2311.02 Y-1227.63 I0.00 J-10.00
G01 X2311.02 Y-1261.13
G01 X2282.12 Y-1261.13
M50
G01 X2281.02 Y-1261.13
G03 X2279.02 Y-1263.13 I0.00 J-2.00
M08
G40
M51
M93
G00 X2546.97 Y-1259.25
M94 F2750
G41 D21
N265 M07
G01 X2541.37 Y-1259.25
G01 X2541.37 Y-1308.10
G01 X2509.87 Y-1308.10
G01 X2509.87 Y-1159.37
G01 X2456.87 Y-1159.37
G01 X2456.87 Y-1308.10
G01 X2425.37 Y-1308.10
G01 X2425.37 Y-1259.25
G02 X2425.45 Y-1258.48 I3.89 J-0.01
G01 X2445.79 Y-1160.43
G02 X2446.01 Y-1159.73 I3.65 J-0.77
G01 X2460.63 Y-1126.71
G01 X2506.11 Y-1126.71
G01 X2520.73 Y-1159.73
G02 X2520.95 Y-1160.43 I-2.94 J-1.32
G01 X2541.29 Y-1258.48
G02 X2541.37 Y-1259.22 I-3.61 J-0.76
G01 X2541.37 Y-1259.24
M50
G01 X2541.37 Y-1259.25
G03 X2543.37 Y-1261.25 I2.00 J0.00
M08
G40
M51
M93
G00 X2566.63 Y-1311.64
M94 F2750
G41 D21
N266 M07
G01 X2561.15 Y-1310.49
G02 X2560.92 Y-1311.20 I-3.65 J0.77
G01 X2546.30 Y-1344.22
G01 X2500.83 Y-1344.22
G01 X2486.21 Y-1311.20
G02 X2485.98 Y-1310.49 I2.94 J1.32
G01 X2465.65 Y-1212.45
G02 X2465.57 Y-1211.67 I3.61 J0.76
G01 X2465.57 Y-1162.83
G01 X2497.07 Y-1162.83
G01 X2497.07 Y-1311.56
G01 X2550.07 Y-1311.56
G01 X2550.07 Y-1162.83
G01 X2581.57 Y-1162.83
G01 X2581.57 Y-1211.67
G02 X2581.49 Y-1212.43 I-3.89 J0.01
G01 X2581.49 Y-1212.45
G01 X2561.37 Y-1309.42
M50
G01 X2561.15 Y-1310.49
G03 X2562.70 Y-1312.86 I1.96 J-0.41
M08
G40
M51
M93
G00 X2555.13 Y-1480.05
M94 F2750
G41 D21
N267 M07
G01 X2549.53 Y-1480.05
G01 X2549.53 Y-1528.89
G01 X2518.03 Y-1528.89
G01 X2518.03 Y-1380.17
G01 X2465.03 Y-1380.17
G01 X2465.03 Y-1528.89
G01 X2433.53 Y-1528.89
G01 X2433.53 Y-1480.05
G02 X2433.60 Y-1479.28 I3.89 J-0.01
G01 X2453.94 Y-1381.23
G02 X2454.17 Y-1380.52 I3.66 J-0.78
G01 X2468.79 Y-1347.51
G01 X2514.26 Y-1347.51
G01 X2528.88 Y-1380.52
G02 X2529.11 Y-1381.23 I-2.94 J-1.32
G01 X2549.45 Y-1479.28
G02 X2549.52 Y-1480.02 I-3.61 J-0.76
G01 X2549.52 Y-1480.04
M50
G01 X2549.53 Y-1480.05
G03 X2551.53 Y-1482.05 I2.00 J0.00
M08
G40
M51
M93
G00 X2574.79 Y-1532.44
M94 F2750
G41 D21
N268 M07
G01 X2569.31 Y-1531.29
G02 X2569.08 Y-1531.99 I-3.65 J0.77
G01 X2554.46 Y-1565.01
G01 X2508.99 Y-1565.01
G01 X2494.36 Y-1531.99
G02 X2494.14 Y-1531.29 I2.94 J1.32
G01 X2473.80 Y-1433.24
G02 X2473.72 Y-1432.47 I3.61 J0.76
G01 X2473.72 Y-1383.63
G01 X2505.22 Y-1383.63
G01 X2505.22 Y-1532.35
G01 X2558.22 Y-1532.35
G01 X2558.22 Y-1383.63
G01 X2589.72 Y-1383.63
G01 X2589.72 Y-1432.47
G02 X2589.65 Y-1433.23 I-3.89 J0.01
G01 X2589.64 Y-1433.24
G01 X2569.53 Y-1530.21
M50
G01 X2569.31 Y-1531.29
G03 X2570.86 Y-1533.65 I1.96 J-0.41
M08
G40
M51
M93
G00 X2342.00 Y-1580.38
M94 F1581
G41 D21
N269 M07
G01 X2347.60 Y-1580.38
M50
G03 X2344.60 Y-1577.38 I-3.00 J0.00
G01 X2287.80 Y-1577.38
G03 X2284.80 Y-1580.38 I0.00 J-3.00
G03 X2287.80 Y-1583.38 I3.00 J0.00
G01 X2344.60 Y-1583.38
G03 X2347.60 Y-1580.38 I0.00 J3.00
G03 X2346.83 Y-1578.37 I-3.00 J0.00
M08
G40
M51
M93
G00 X2191.28 Y-1580.38
M94 F1581
G41 D21
N270 M07
G01 X2196.88 Y-1580.38
M50
G03 X2193.88 Y-1577.38 I-3.00 J0.00
G01 X2137.08 Y-1577.38
G03 X2134.08 Y-1580.38 I0.00 J-3.00
G03 X2137.08 Y-1583.38 I3.00 J0.00
G01 X2193.88 Y-1583.38
G03 X2196.88 Y-1580.38 I0.00 J3.00
G03 X2196.11 Y-1578.37 I-3.00 J0.00
M08
G40
M51
M93
G00 X2040.56 Y-1580.38
M94 F1581
G41 D21
N271 M07
G01 X2046.16 Y-1580.38
M50
G03 X2043.16 Y-1577.38 I-3.00 J0.00
G01 X1986.36 Y-1577.38
G03 X1983.36 Y-1580.38 I0.00 J-3.00
G03 X1986.36 Y-1583.38 I3.00 J0.00
G01 X2043.16 Y-1583.38
G03 X2046.16 Y-1580.38 I0.00 J3.00
G03 X2045.39 Y-1578.37 I-3.00 J0.00
M08
G40
M51
M93
G00 X1889.84 Y-1580.38
M94 F1581
G41 D21
N272 M07
G01 X1895.44 Y-1580.38
M50
G03 X1892.44 Y-1577.38 I-3.00 J0.00
G01 X1835.64 Y-1577.38
G03 X1832.64 Y-1580.38 I0.00 J-3.00
G03 X1835.64 Y-1583.38 I3.00 J0.00
G01 X1892.44 Y-1583.38
G03 X1895.44 Y-1580.38 I0.00 J3.00
G03 X1894.67 Y-1578.37 I-3.00 J0.00
M08
G40
M51
M93
G00 X1739.12 Y-1580.38
M94 F1581
G41 D21
N273 M07
G01 X1744.72 Y-1580.38
M50
G03 X1741.72 Y-1577.38 I-3.00 J0.00
G01 X1684.92 Y-1577.38
G03 X1681.92 Y-1580.38 I0.00 J-3.00
G03 X1684.92 Y-1583.38 I3.00 J0.00
G01 X1741.72 Y-1583.38
G03 X1744.72 Y-1580.38 I0.00 J3.00
G03 X1743.95 Y-1578.37 I-3.00 J0.00
M08
G40
M51
M93
G00 X1588.40 Y-1580.38
M94 F1581
G41 D21
N274 M07
G01 X1594.00 Y-1580.38
M50
G03 X1591.00 Y-1577.38 I-3.00 J0.00
G01 X1534.20 Y-1577.38
