(PP_NAME=	  PP_Din)
(PP_VERSION=	  4.0)
(PP_INI_NAME=	  GC_PLASMA_4.5.ini)
(PP_INI_VERSION=  2014-02-26)
(PLANNAME=        vanger 2)
(MACHINE= 	  PowerMAX105_MS_45)
(MATERIAL= 	  S235JR)
(THICKNESS= 	  3)
#CONTOUR MODE [DEV PATH_DEV=0.2 RELEVANT_PATH=0.1]
#TRC [CONV_CIR_TO_LIN=1]
G71
G90
#CS ON [V.A.ABS.X, V.A.ABS.Y, 0, 0, 0, V.E.ROTATION]
M190
G162
G141
G237
G00 X503.28 Y-423.05
M64
T21
M65
M94 F1581
G41 D21
N1 M07
G01 X508.88 Y-423.05
M50
G03 X505.88 Y-420.05 I-3.00 J0.00
G01 X450.28 Y-420.05
G03 X447.28 Y-423.05 I0.00 J-3.00
G03 X450.28 Y-426.05 I3.00 J0.00
G01 X505.88 Y-426.05
G03 X508.88 Y-423.05 I0.00 J3.00
G03 X508.11 Y-421.04 I-3.00 J0.00
M08
G40
M51
M93
G00 X651.12 Y-423.05
M94 F1581
G41 D21
N2 M07
G01 X656.72 Y-423.05
M50
G03 X653.72 Y-420.05 I-3.00 J0.00
G01 X598.12 Y-420.05
G03 X595.12 Y-423.05 I0.00 J-3.00
G03 X598.12 Y-426.05 I3.00 J0.00
G01 X653.72 Y-426.05
G03 X656.72 Y-423.05 I-0.00 J3.00
G03 X655.95 Y-421.04 I-3.00 J-0.00
M08
G40
M51
M93
G00 X798.96 Y-423.05
M94 F1581
G41 D21
N3 M07
G01 X804.56 Y-423.05
M50
G03 X801.56 Y-420.05 I-3.00 J0.00
G01 X745.96 Y-420.05
G03 X742.96 Y-423.05 I0.00 J-3.00
G03 X745.96 Y-426.05 I3.00 J0.00
G01 X801.56 Y-426.05
G03 X804.56 Y-423.05 I-0.00 J3.00
G03 X803.79 Y-421.04 I-3.00 J-0.00
M08
G40
M51
M93
G00 X946.80 Y-423.05
M94 F1581
G41 D21
N4 M07
G01 X952.40 Y-423.05
M50
G03 X949.40 Y-420.05 I-3.00 J0.00
G01 X893.80 Y-420.05
G03 X890.80 Y-423.05 I0.00 J-3.00
G03 X893.80 Y-426.05 I3.00 J0.00
G01 X949.40 Y-426.05
G03 X952.40 Y-423.05 I0.00 J3.00
G03 X951.63 Y-421.04 I-3.00 J-0.00
M08
G40
M51
M93
G00 X1094.64 Y-423.05
M94 F1581
G41 D21
N5 M07
G01 X1100.24 Y-423.05
M50
G03 X1097.24 Y-420.05 I-3.00 J-0.00
G01 X1041.64 Y-420.05
G03 X1038.64 Y-423.05 I0.00 J-3.00
G03 X1041.64 Y-426.05 I3.00 J0.00
G01 X1097.24 Y-426.05
G03 X1100.24 Y-423.05 I0.00 J3.00
G03 X1099.47 Y-421.04 I-3.00 J-0.00
M08
G40
M51
M93
G00 X1242.48 Y-423.05
M94 F1581
G41 D21
N6 M07
G01 X1248.08 Y-423.05
M50
G03 X1245.08 Y-420.05 I-3.00 J0.00
G01 X1189.48 Y-420.05
G03 X1186.48 Y-423.05 I0.00 J-3.00
G03 X1189.48 Y-426.05 I3.00 J0.00
G01 X1245.08 Y-426.05
G03 X1248.08 Y-423.05 I0.00 J3.00
G03 X1247.31 Y-421.04 I-3.00 J0.00
M08
G40
M51
M93
G00 X1316.40 Y-423.05
M94 F1581
G41 D21
N7 M07
G01 X1322.00 Y-423.05
M50
G03 X1319.00 Y-420.05 I-3.00 J0.00
G01 X1263.40 Y-420.05
G03 X1260.40 Y-423.05 I-0.00 J-3.00
G03 X1263.40 Y-426.05 I3.00 J0.00
G01 X1319.00 Y-426.05
G03 X1322.00 Y-423.05 I0.00 J3.00
G03 X1321.23 Y-421.04 I-3.00 J0.00
M08
G40
M51
M93
G00 X1168.56 Y-423.05
M94 F1581
G41 D21
N8 M07
G01 X1174.16 Y-423.05
M50
G03 X1171.16 Y-420.05 I-3.00 J-0.00
G01 X1115.56 Y-420.05
G03 X1112.56 Y-423.05 I0.00 J-3.00
G03 X1115.56 Y-426.05 I3.00 J0.00
G01 X1171.16 Y-426.05
G03 X1174.16 Y-423.05 I0.00 J3.00
G03 X1173.39 Y-421.04 I-3.00 J-0.00
M08
G40
M51
M93
G00 X1020.72 Y-423.05
M94 F1581
G41 D21
N9 M07
G01 X1026.32 Y-423.05
M50
G03 X1023.32 Y-420.05 I-3.00 J0.00
G01 X967.72 Y-420.05
G03 X964.72 Y-423.05 I0.00 J-3.00
G03 X967.72 Y-426.05 I3.00 J0.00
G01 X1023.32 Y-426.05
G03 X1026.32 Y-423.05 I0.00 J3.00
G03 X1025.55 Y-421.04 I-3.00 J-0.00
M08
G40
M51
M93
G00 X872.88 Y-423.05
M94 F1581
G41 D21
N10 M07
G01 X878.48 Y-423.05
M50
G03 X875.48 Y-420.05 I-3.00 J0.00
G01 X819.88 Y-420.05
G03 X816.88 Y-423.05 I0.00 J-3.00
G03 X819.88 Y-426.05 I3.00 J0.00
G01 X875.48 Y-426.05
G03 X878.48 Y-423.05 I-0.00 J3.00
G03 X877.71 Y-421.04 I-3.00 J-0.00
M08
G40
M51
M93
G00 X725.04 Y-423.05
M94 F1581
G41 D21
N11 M07
G01 X730.64 Y-423.05
M50
G03 X727.64 Y-420.05 I-3.00 J0.00
G01 X672.04 Y-420.05
G03 X669.04 Y-423.05 I0.00 J-3.00
G03 X672.04 Y-426.05 I3.00 J0.00
G01 X727.64 Y-426.05
G03 X730.64 Y-423.05 I0.00 J3.00
G03 X729.87 Y-421.04 I-3.00 J-0.00
M08
G40
M51
M93
G00 X577.20 Y-423.05
M94 F1581
G41 D21
N12 M07
G01 X582.80 Y-423.05
M50
G03 X579.80 Y-420.05 I-3.00 J0.00
G01 X524.20 Y-420.05
G03 X521.20 Y-423.05 I0.00 J-3.00
G03 X524.20 Y-426.05 I3.00 J0.00
G01 X579.80 Y-426.05
G03 X582.80 Y-423.05 I0.00 J3.00
G03 X582.03 Y-421.04 I-3.00 J-0.00
M08
G40
M51
M93
G00 X429.36 Y-423.05
M94 F1581
G41 D21
N13 M07
G01 X434.96 Y-423.05
M50
G03 X431.96 Y-420.05 I-3.00 J0.00
G01 X376.36 Y-420.05
G03 X373.36 Y-423.05 I0.00 J-3.00
G03 X376.36 Y-426.05 I3.00 J0.00
G01 X431.96 Y-426.05
G03 X434.96 Y-423.05 I0.00 J3.00
G03 X434.19 Y-421.04 I-3.00 J0.00
M08
G40
M51
M93
G00 X332.69 Y-564.43
M94 F1788
G41 D21
N14 M07
G01 X338.28 Y-564.05
M50
G03 X335.27 Y-556.15 I-10.69 J0.45
G03 X314.70 Y-556.49 I-10.15 J-8.43
G03 X319.05 Y-577.22 I11.05 J-8.50
G03 X337.79 Y-569.17 I6.16 J11.50
G01 X338.40 Y-565.77
G01 X338.28 Y-564.05
G01 X338.16 Y-562.33
M08
G40
M51
M93
G00 X635.43 Y-564.43
M94 F1788
G41 D21
N15 M07
G01 X641.01 Y-564.05
M50
G03 X638.00 Y-556.15 I-10.69 J0.45
G03 X617.44 Y-556.49 I-10.15 J-8.43
G03 X621.79 Y-577.22 I11.05 J-8.50
G03 X640.53 Y-569.17 I6.16 J11.50
G01 X641.13 Y-565.77
G01 X641.01 Y-564.05
G01 X640.90 Y-562.33
M08
G40
M51
M93
G00 X938.17 Y-564.43
M94 F1788
G41 D21
N16 M07
G01 X943.75 Y-564.05
M50
G03 X940.74 Y-556.15 I-10.69 J0.45
G03 X920.17 Y-556.49 I-10.15 J-8.43
G03 X924.52 Y-577.22 I11.05 J-8.50
G03 X943.27 Y-569.17 I6.16 J11.50
G01 X943.87 Y-565.77
G01 X943.75 Y-564.05
G01 X943.63 Y-562.33
M08
G40
M51
M93
G00 X1240.90 Y-564.43
M94 F1788
G41 D21
N17 M07
G01 X1246.49 Y-564.05
M50
G03 X1243.48 Y-556.15 I-10.69 J0.45
G03 X1222.91 Y-556.49 I-10.15 J-8.43
G03 X1227.26 Y-577.22 I11.05 J-8.50
G03 X1246.00 Y-569.17 I6.16 J11.50
G01 X1246.61 Y-565.77
G01 X1246.49 Y-564.05
G01 X1246.37 Y-562.33
M08
G40
M51
M93
G00 X1300.31 Y-372.74
M94 F1375
G41 D21
N18 M07
G01 X1304.27 Y-368.78
M50
G03 X1299.50 Y-366.80 I-4.77 J-4.77
G03 X1292.75 Y-373.55 I0.00 J-6.75
G03 X1299.50 Y-380.30 I6.75 J0.00
G03 X1306.25 Y-373.55 I0.00 J6.75
G03 X1304.27 Y-368.78 I-6.75 J-0.00
G03 X1302.49 Y-367.50 I-4.77 J-4.77
M08
G40
M51
M93
G00 X1248.31 Y-374.37
M94 F1375
G41 D21
N19 M07
G01 X1252.27 Y-378.33
M50
G03 X1254.25 Y-373.55 I-4.77 J4.77
G03 X1247.50 Y-366.80 I-6.75 J0.00
G03 X1240.75 Y-373.55 I0.00 J-6.75
G03 X1247.50 Y-380.30 I6.75 J0.00
G03 X1252.27 Y-378.33 I0.00 J6.75
G03 X1253.55 Y-376.55 I-4.77 J4.77
M08
G40
M51
M93
G00 X1131.10 Y-202.34
M94 F1719
G41 D21
N20 M07
G01 X1135.06 Y-198.38
M50
G03 X1125.94 Y-194.60 I-9.12 J-9.12
G03 X1113.04 Y-207.50 I0.00 J-12.90
G03 X1125.94 Y-220.40 I12.90 J0.00
G03 X1138.84 Y-207.50 I0.00 J12.90
G03 X1135.06 Y-198.38 I-12.90 J-0.00
G03 X1133.38 Y-196.96 I-9.12 J-9.12
M08
G40
M51
M93
G00 X828.36 Y-202.34
M94 F1719
G41 D21
N21 M07
G01 X832.32 Y-198.38
M50
G03 X823.20 Y-194.60 I-9.12 J-9.12
G03 X810.30 Y-207.50 I0.00 J-12.90
G03 X823.20 Y-220.40 I12.90 J0.00
G03 X836.10 Y-207.50 I0.00 J12.90
G03 X832.32 Y-198.38 I-12.90 J-0.00
G03 X830.64 Y-196.96 I-9.12 J-9.12
M08
G40
M51
M93
G00 X525.62 Y-212.66
M94 F1719
G41 D21
N22 M07
G01 X529.58 Y-216.62
M50
G03 X533.36 Y-207.50 I-9.12 J9.12
G03 X520.46 Y-194.60 I-12.90 J0.00
G03 X507.56 Y-207.50 I0.00 J-12.90
G03 X520.46 Y-220.40 I12.90 J0.00
G03 X529.58 Y-216.62 I-0.00 J12.90
G03 X531.00 Y-214.94 I-9.12 J9.12
M08
G40
M51
M93
G00 X222.89 Y-202.34
M94 F1719
G41 D21
N23 M07
G01 X226.85 Y-198.38
M50
G03 X217.72 Y-194.60 I-9.12 J-9.12
G03 X204.82 Y-207.50 I0.00 J-12.90
G03 X217.72 Y-220.40 I12.90 J0.00
G03 X230.62 Y-207.50 I0.00 J12.90
G03 X226.85 Y-198.38 I-12.90 J-0.00
G03 X225.17 Y-196.96 I-9.12 J-9.12
M08
G40
M51
M93
G00 X1300.31 Y-222.24
M94 F1375
G41 D21
N24 M07
G01 X1304.27 Y-218.28
M50
G03 X1299.50 Y-216.30 I-4.77 J-4.77
G03 X1292.75 Y-223.05 I0.00 J-6.75
G03 X1299.50 Y-229.80 I6.75 J0.00
G03 X1306.25 Y-223.05 I0.00 J6.75
G03 X1304.27 Y-218.28 I-6.75 J-0.00
G03 X1302.49 Y-217.00 I-4.77 J-4.77
M08
G40
M51
M93
G00 X1248.31 Y-223.86
M94 F1375
G41 D21
N25 M07
G01 X1252.27 Y-227.82
M50
G03 X1254.25 Y-223.05 I-4.77 J4.77
G03 X1247.50 Y-216.30 I-6.75 J0.00
G03 X1240.75 Y-223.05 I0.00 J-6.75
G03 X1247.50 Y-229.80 I6.75 J0.00
G03 X1252.27 Y-227.82 I0.00 J6.75
G03 X1253.55 Y-226.04 I-4.77 J4.77
M08
G40
M51
M93
G00 X1240.92 Y-281.41
M94 F1788
G41 D21
N26 M07
G01 X1246.51 Y-281.63
M50
G03 X1244.36 Y-273.44 I-10.61 J1.59
G03 X1226.89 Y-269.09 I-11.11 J-7.36
G03 X1221.35 Y-287.06 I6.64 J-11.88
G03 X1238.44 Y-293.75 I12.14 J5.83
G03 X1245.48 Y-286.66 I-5.27 J12.27
G01 X1246.45 Y-283.35
G01 X1246.51 Y-281.63
G01 X1246.58 Y-279.90
M08
G40
M51
M93
G00 X938.18 Y-281.41
M94 F1788
G41 D21
N27 M07
G01 X943.77 Y-281.63
M50
G03 X941.63 Y-273.44 I-10.61 J1.59
G03 X924.15 Y-269.09 I-11.11 J-7.36
G03 X918.61 Y-287.06 I6.64 J-11.88
G03 X935.70 Y-293.75 I12.14 J5.83
G03 X942.74 Y-286.66 I-5.27 J12.27
G01 X943.71 Y-283.35
G01 X943.77 Y-281.63
G01 X943.84 Y-279.90
M08
G40
M51
M93
G00 X635.44 Y-281.41
M94 F1788
G41 D21
N28 M07
G01 X641.04 Y-281.63
M50
G03 X638.89 Y-273.44 I-10.61 J1.59
G03 X621.42 Y-269.09 I-11.11 J-7.36
G03 X615.88 Y-287.06 I6.64 J-11.88
G03 X632.97 Y-293.75 I12.14 J5.83
G03 X640.01 Y-286.66 I-5.27 J12.27
G01 X640.97 Y-283.35
G01 X641.04 Y-281.63
G01 X641.10 Y-279.90
M08
G40
M51
M93
G00 X332.70 Y-281.41
M94 F1788
G41 D21
N29 M07
G01 X338.30 Y-281.63
M50
G03 X336.15 Y-273.44 I-10.61 J1.59
G03 X318.68 Y-269.09 I-11.11 J-7.36
G03 X313.14 Y-287.06 I6.64 J-11.88
G03 X330.23 Y-293.75 I12.14 J5.83
G03 X337.27 Y-286.66 I-5.27 J12.27
G01 X338.23 Y-283.35
G01 X338.30 Y-281.63
G01 X338.37 Y-279.90
M08
G40
M51
M93
G00 X1248.31 Y-473.37
M94 F1375
G41 D21
N30 M07
G01 X1252.27 Y-477.33
M50
G03 X1254.25 Y-472.55 I-4.77 J4.77
G03 X1247.50 Y-465.80 I-6.75 J0.00
G03 X1240.75 Y-472.55 I0.00 J-6.75
G03 X1247.50 Y-479.30 I6.75 J0.00
G03 X1252.27 Y-477.33 I0.00 J6.75
G03 X1253.55 Y-475.55 I-4.77 J4.77
M08
G40
M51
M93
G00 X1300.31 Y-473.37
M94 F1375
G41 D21
N31 M07
G01 X1304.27 Y-477.33
M50
G03 X1306.25 Y-472.55 I-4.77 J4.77
G03 X1299.50 Y-465.80 I-6.75 J0.00
G03 X1292.75 Y-472.55 I0.00 J-6.75
G03 X1299.50 Y-479.30 I6.75 J0.00
G03 X1304.27 Y-477.33 I0.00 J6.75
G03 X1305.55 Y-475.55 I-4.77 J4.77
M08
G40
M51
M93
G00 X1248.31 Y-622.24
M94 F1375
G41 D21
N32 M07
G01 X1252.27 Y-618.28
M50
G03 X1247.50 Y-616.30 I-4.77 J-4.77
G03 X1240.75 Y-623.05 I0.00 J-6.75
G03 X1247.50 Y-629.80 I6.75 J0.00
G03 X1254.25 Y-623.05 I0.00 J6.75
G03 X1252.27 Y-618.28 I-6.75 J-0.00
G03 X1250.49 Y-617.00 I-4.77 J-4.77
M08
G40
M51
M93
G00 X1300.31 Y-622.24
M94 F1375
G41 D21
N33 M07
G01 X1304.27 Y-618.28
M50
G03 X1299.50 Y-616.30 I-4.77 J-4.77
G03 X1292.75 Y-623.05 I0.00 J-6.75
G03 X1299.50 Y-629.80 I6.75 J0.00
G03 X1306.25 Y-623.05 I0.00 J6.75
G03 X1304.27 Y-618.28 I-6.75 J-0.00
G03 X1302.49 Y-617.00 I-4.77 J-4.77
M08
G40
M51
M93
G00 X222.89 Y-633.45
M94 F1719
G41 D21
N34 M07
G01 X226.85 Y-629.49
M50
G03 X217.72 Y-625.71 I-9.12 J-9.12
G03 X204.82 Y-638.61 I0.00 J-12.90
G03 X217.72 Y-651.51 I12.90 J0.00
G03 X230.62 Y-638.61 I0.00 J12.90
G03 X226.85 Y-629.49 I-12.90 J-0.00
G03 X225.17 Y-628.07 I-9.12 J-9.12
M08
G40
M51
M93
G00 X525.62 Y-643.77
M94 F1719
G41 D21
N35 M07
G01 X529.58 Y-647.73
M50
G03 X533.36 Y-638.61 I-9.12 J9.12
G03 X520.46 Y-625.71 I-12.90 J-0.00
G03 X507.56 Y-638.61 I0.00 J-12.90
G03 X520.46 Y-651.51 I12.90 J0.00
G03 X529.58 Y-647.73 I-0.00 J12.90
G03 X531.00 Y-646.05 I-9.12 J9.12
M08
G40
M51
M93
G00 X828.36 Y-643.77
M94 F1719
G41 D21
N36 M07
G01 X832.32 Y-647.73
M50
G03 X836.10 Y-638.61 I-9.12 J9.12
G03 X823.20 Y-625.71 I-12.90 J-0.00
G03 X810.30 Y-638.61 I0.00 J-12.90
G03 X823.20 Y-651.51 I12.90 J0.00
G03 X832.32 Y-647.73 I0.00 J12.90
G03 X833.74 Y-646.05 I-9.12 J9.12
M08
G40
M51
M93
G00 X1131.10 Y-633.45
M94 F1719
G41 D21
N37 M07
G01 X1135.06 Y-629.49
M50
G03 X1125.94 Y-625.71 I-9.12 J-9.12
G03 X1113.04 Y-638.61 I0.00 J-12.90
G03 X1125.94 Y-651.51 I12.90 J0.00
G03 X1138.84 Y-638.61 I0.00 J12.90
G03 X1135.06 Y-629.49 I-12.90 J-0.00
G03 X1133.38 Y-628.07 I-9.12 J-9.12
M08
G40
M51
M93
G00 X847.02 Y-695.67
M94 F2750
G41 D21
N38 M07
G01 X847.02 Y-690.07
G03 X837.02 Y-700.07 I0.00 J-10.00
G01 X837.02 Y-733.57
G01 X807.96 Y-733.57
G03 X801.24 Y-719.30 I-21.19 J-1.27
G03 X785.59 Y-710.68 I-21.46 J-20.44
G03 X753.66 Y-717.27 I-8.91 J-37.52
G03 X745.09 Y-730.88 I17.37 J-20.45
G01 X744.71 Y-733.57
G01 X715.65 Y-733.57
G01 X715.65 Y-700.07
G03 X705.65 Y-690.07 I-10.00 J0.00
G01 X382.89 Y-690.07
G03 X372.89 Y-700.07 I0.00 J-10.00
G01 X372.89 Y-733.57
G01 X10.00 Y-733.57
G01 X10.00 Y-678.82
G02 X11.09 Y-676.42 I2.70 J0.22
G02 X13.87 Y-674.18 I6.11 J-4.74
G02 X19.03 Y-671.30 I17.21 J-24.79
G02 X19.90 Y-670.86 I153.16 J-297.48
G01 X137.59 Y-590.57
G03 X140.00 Y-589.33 I-4141.54 J8004.72
G01 X258.82 Y-505.75
G03 X261.09 Y-504.51 I-47.43 J88.80
G01 X359.26 Y-428.52
G03 X363.40 Y-425.45 I-19.47 J30.52
G03 X364.47 Y-422.88 I-4.52 J3.39
G03 X363.32 Y-420.57 I-2.84 J0.02
G03 X360.39 Y-418.27 I-6.85 J-5.68
G03 X359.26 Y-417.58 I-17.37 J-27.37
G01 X261.09 Y-341.60
G03 X258.82 Y-340.35 I-22.23 J-37.68
G01 X140.00 Y-256.78
G03 X137.59 Y-255.53 I-50.16 J-93.96
G01 X19.90 Y-175.25
G02 X13.79 Y-171.87 I1791.24 J3250.65
G02 X10.67 Y-169.15 I13.79 J18.91
G02 X10.00 Y-167.28 I4.01 J2.50
G01 X10.00 Y-112.53
G01 X372.89 Y-112.53
G01 X372.89 Y-146.03
G03 X382.89 Y-156.03 I10.00 J0.00
G01 X705.65 Y-156.03
G03 X715.65 Y-146.03 I0.00 J10.00
G01 X715.65 Y-112.53
G01 X744.71 Y-112.53
G03 X751.44 Y-126.80 I21.19 J1.27
G03 X767.09 Y-135.42 I21.46 J20.44
G03 X799.01 Y-128.84 I8.91 J37.52
G03 X807.59 Y-115.23 I-17.37 J20.45
G01 X807.96 Y-112.53
G01 X837.02 Y-112.53
G01 X837.02 Y-146.03
G03 X847.02 Y-156.03 I10.00 J0.00
G01 X1169.78 Y-156.03
G03 X1179.78 Y-146.03 I0.00 J10.00
G01 X1179.78 Y-112.53
G01 X1209.78 Y-112.53
G01 X1209.78 Y-146.03
G03 X1219.78 Y-156.03 I10.00 J0.00
G01 X1330.00 Y-156.03
G01 X1330.00 Y-690.07
G01 X1219.78 Y-690.07
G03 X1209.78 Y-700.07 I0.00 J-10.00
G01 X1209.78 Y-733.57
G01 X1179.78 Y-733.57
G01 X1179.78 Y-700.07
G03 X1169.78 Y-690.07 I-10.00 J0.00
G01 X848.12 Y-690.07
M50
G01 X847.02 Y-690.07
G03 X845.02 Y-692.07 I0.00 J-2.00
M08
G40
M51
M93
G00 X503.28 Y-1048.35
M94 F1581
G41 D21
N39 M07
G01 X508.88 Y-1048.35
M50
G03 X505.88 Y-1045.35 I-3.00 J-0.00
G01 X450.28 Y-1045.35
G03 X447.28 Y-1048.35 I0.00 J-3.00
G03 X450.28 Y-1051.35 I3.00 J0.00
G01 X505.88 Y-1051.35
G03 X508.88 Y-1048.35 I-0.00 J3.00
G03 X508.11 Y-1046.35 I-3.00 J0.00
M08
G40
M51
M93
G00 X651.12 Y-1048.35
M94 F1581
G41 D21
N40 M07
G01 X656.72 Y-1048.35
M50
G03 X653.72 Y-1045.35 I-3.00 J-0.00
G01 X598.12 Y-1045.35
G03 X595.12 Y-1048.35 I0.00 J-3.00
G03 X598.12 Y-1051.35 I3.00 J0.00
G01 X653.72 Y-1051.35
G03 X656.72 Y-1048.35 I-0.00 J3.00
G03 X655.95 Y-1046.35 I-3.00 J0.00
M08
G40
M51
M93
G00 X798.96 Y-1048.35
M94 F1581
G41 D21
N41 M07
G01 X804.56 Y-1048.35
M50
G03 X801.56 Y-1045.35 I-3.00 J-0.00
G01 X745.96 Y-1045.35
G03 X742.96 Y-1048.35 I0.00 J-3.00
G03 X745.96 Y-1051.35 I3.00 J0.00
G01 X801.56 Y-1051.35
G03 X804.56 Y-1048.35 I0.00 J3.00
G03 X803.79 Y-1046.35 I-3.00 J0.00
M08
G40
M51
M93
G00 X946.80 Y-1048.35
M94 F1581
G41 D21
N42 M07
G01 X952.40 Y-1048.35
M50
G03 X949.40 Y-1045.35 I-3.00 J0.00
G01 X893.80 Y-1045.35
G03 X890.80 Y-1048.35 I0.00 J-3.00
G03 X893.80 Y-1051.35 I3.00 J0.00
G01 X949.40 Y-1051.35
G03 X952.40 Y-1048.35 I0.00 J3.00
G03 X951.63 Y-1046.35 I-3.00 J0.00
M08
G40
M51
M93
G00 X1094.64 Y-1048.35
M94 F1581
G41 D21
N43 M07
G01 X1100.24 Y-1048.35
M50
G03 X1097.24 Y-1045.35 I-3.00 J-0.00
G01 X1041.64 Y-1045.35
G03 X1038.64 Y-1048.35 I0.00 J-3.00
G03 X1041.64 Y-1051.35 I3.00 J0.00
G01 X1097.24 Y-1051.35
G03 X1100.24 Y-1048.35 I-0.00 J3.00
G03 X1099.47 Y-1046.35 I-3.00 J-0.00
M08
G40
M51
M93
G00 X1242.48 Y-1048.35
M94 F1581
G41 D21
N44 M07
G01 X1248.08 Y-1048.35
M50
G03 X1245.08 Y-1045.35 I-3.00 J0.00
G01 X1189.48 Y-1045.35
G03 X1186.48 Y-1048.35 I0.00 J-3.00
G03 X1189.48 Y-1051.35 I3.00 J0.00
G01 X1245.08 Y-1051.35
G03 X1248.08 Y-1048.35 I-0.00 J3.00
G03 X1247.31 Y-1046.35 I-3.00 J0.00
M08
G40
M51
M93
G00 X1316.40 Y-1048.35
M94 F1581
G41 D21
N45 M07
G01 X1322.00 Y-1048.35
M50
G03 X1319.00 Y-1045.35 I-3.00 J0.00
G01 X1263.40 Y-1045.35
G03 X1260.40 Y-1048.35 I0.00 J-3.00
G03 X1263.40 Y-1051.35 I3.00 J0.00
G01 X1319.00 Y-1051.35
G03 X1322.00 Y-1048.35 I0.00 J3.00
G03 X1321.23 Y-1046.35 I-3.00 J0.00
M08
G40
M51
M93
G00 X1168.56 Y-1048.35
M94 F1581
G41 D21
N46 M07
G01 X1174.16 Y-1048.35
M50
G03 X1171.16 Y-1045.35 I-3.00 J-0.00
G01 X1115.56 Y-1045.35
G03 X1112.56 Y-1048.35 I0.00 J-3.00
G03 X1115.56 Y-1051.35 I3.00 J0.00
G01 X1171.16 Y-1051.35
G03 X1174.16 Y-1048.35 I-0.00 J3.00
G03 X1173.39 Y-1046.35 I-3.00 J-0.00
M08
G40
M51
M93
G00 X1020.72 Y-1048.35
M94 F1581
G41 D21
N47 M07
G01 X1026.32 Y-1048.35
M50
G03 X1023.32 Y-1045.35 I-3.00 J0.00
G01 X967.72 Y-1045.35
G03 X964.72 Y-1048.35 I0.00 J-3.00
G03 X967.72 Y-1051.35 I3.00 J0.00
G01 X1023.32 Y-1051.35
G03 X1026.32 Y-1048.35 I0.00 J3.00
G03 X1025.55 Y-1046.35 I-3.00 J-0.00
M08
G40
M51
M93
G00 X872.88 Y-1048.35
M94 F1581
G41 D21
N48 M07
G01 X878.48 Y-1048.35
M50
G03 X875.48 Y-1045.35 I-3.00 J-0.00
G01 X819.88 Y-1045.35
G03 X816.88 Y-1048.35 I0.00 J-3.00
G03 X819.88 Y-1051.35 I3.00 J0.00
G01 X875.48 Y-1051.35
G03 X878.48 Y-1048.35 I-0.00 J3.00
G03 X877.71 Y-1046.35 I-3.00 J-0.00
M08
G40
M51
M93
G00 X725.04 Y-1048.35
M94 F1581
G41 D21
N49 M07
G01 X730.64 Y-1048.35
M50
G03 X727.64 Y-1045.35 I-3.00 J0.00
G01 X672.04 Y-1045.35
G03 X669.04 Y-1048.35 I0.00 J-3.00
G03 X672.04 Y-1051.35 I3.00 J0.00
G01 X727.64 Y-1051.35
G03 X730.64 Y-1048.35 I0.00 J3.00
G03 X729.87 Y-1046.35 I-3.00 J-0.00
M08
G40
M51
M93
G00 X577.20 Y-1048.35
M94 F1581
G41 D21
N50 M07
G01 X582.80 Y-1048.35
M50
G03 X579.80 Y-1045.35 I-3.00 J0.00
G01 X524.20 Y-1045.35
G03 X521.20 Y-1048.35 I0.00 J-3.00
G03 X524.20 Y-1051.35 I3.00 J0.00
G01 X579.80 Y-1051.35
G03 X582.80 Y-1048.35 I0.00 J3.00
G03 X582.03 Y-1046.35 I-3.00 J-0.00
M08
G40
M51
M93
G00 X429.36 Y-1048.35
M94 F1581
G41 D21
N51 M07
G01 X434.96 Y-1048.35
M50
G03 X431.96 Y-1045.35 I-3.00 J-0.00
G01 X376.36 Y-1045.35
G03 X373.36 Y-1048.35 I0.00 J-3.00
G03 X376.36 Y-1051.35 I3.00 J0.00
G01 X431.96 Y-1051.35
G03 X434.96 Y-1048.35 I-0.00 J3.00
G03 X434.19 Y-1046.35 I-3.00 J0.00
M08
G40
M51
M93
G00 X332.69 Y-1189.73
M94 F1788
G41 D21
N52 M07
G01 X338.28 Y-1189.35
M50
G03 X335.27 Y-1181.45 I-10.69 J0.45
G03 X314.70 Y-1181.79 I-10.15 J-8.43
G03 X319.05 Y-1202.52 I11.05 J-8.50
G03 X337.79 Y-1194.47 I6.16 J11.50
G01 X338.40 Y-1191.07
G01 X338.28 Y-1189.35
G01 X338.16 Y-1187.63
M08
G40
M51
M93
G00 X635.43 Y-1189.73
M94 F1788
G41 D21
N53 M07
G01 X641.01 Y-1189.35
M50
G03 X638.00 Y-1181.45 I-10.69 J0.45
G03 X617.44 Y-1181.79 I-10.15 J-8.43
G03 X621.79 Y-1202.52 I11.05 J-8.50
G03 X640.53 Y-1194.47 I6.16 J11.50
G01 X641.13 Y-1191.07
G01 X641.01 Y-1189.35
G01 X640.90 Y-1187.63
M08
G40
M51
M93
G00 X938.17 Y-1189.73
M94 F1788
G41 D21
N54 M07
G01 X943.75 Y-1189.35
M50
G03 X940.74 Y-1181.45 I-10.69 J0.45
G03 X920.17 Y-1181.79 I-10.15 J-8.43
G03 X924.52 Y-1202.52 I11.05 J-8.50
G03 X943.27 Y-1194.47 I6.16 J11.50
G01 X943.87 Y-1191.07
G01 X943.75 Y-1189.35
G01 X943.63 Y-1187.63
M08
G40
M51
M93
G00 X1240.90 Y-1189.73
M94 F1788
G41 D21
N55 M07
G01 X1246.49 Y-1189.35
M50
G03 X1243.48 Y-1181.45 I-10.69 J0.45
G03 X1222.91 Y-1181.79 I-10.15 J-8.43
G03 X1227.26 Y-1202.52 I11.05 J-8.50
G03 X1246.00 Y-1194.47 I6.16 J11.50
G01 X1246.61 Y-1191.07
G01 X1246.49 Y-1189.35
G01 X1246.37 Y-1187.63
M08
G40
M51
M93
G00 X1300.31 Y-998.04
M94 F1375
G41 D21
N56 M07
G01 X1304.27 Y-994.08
M50
G03 X1299.50 Y-992.10 I-4.77 J-4.77
G03 X1292.75 Y-998.85 I0.00 J-6.75
G03 X1299.50 Y-1005.60 I6.75 J0.00
G03 X1306.25 Y-998.85 I0.00 J6.75
G03 X1304.27 Y-994.08 I-6.75 J-0.00
G03 X1302.49 Y-992.80 I-4.77 J-4.77
M08
G40
M51
M93
G00 X1248.31 Y-999.67
M94 F1375
G41 D21
N57 M07
G01 X1252.27 Y-1003.63
M50
G03 X1254.25 Y-998.85 I-4.77 J4.77
G03 X1247.50 Y-992.10 I-6.75 J0.00
G03 X1240.75 Y-998.85 I0.00 J-6.75
G03 X1247.50 Y-1005.60 I6.75 J0.00
G03 X1252.27 Y-1003.63 I0.00 J6.75
G03 X1253.55 Y-1001.85 I-4.77 J4.77
M08
G40
M51
M93
G00 X1131.10 Y-827.64
M94 F1719
G41 D21
N58 M07
G01 X1135.06 Y-823.68
M50
G03 X1125.94 Y-819.90 I-9.12 J-9.12
G03 X1113.04 Y-832.80 I0.00 J-12.90
G03 X1125.94 Y-845.70 I12.90 J0.00
G03 X1138.84 Y-832.80 I0.00 J12.90
G03 X1135.06 Y-823.68 I-12.90 J-0.00
G03 X1133.38 Y-822.26 I-9.12 J-9.12
M08
G40
M51
M93
G00 X828.36 Y-827.64
M94 F1719
G41 D21
N59 M07
G01 X832.32 Y-823.68
M50
G03 X823.20 Y-819.90 I-9.12 J-9.12
G03 X810.30 Y-832.80 I0.00 J-12.90
G03 X823.20 Y-845.70 I12.90 J0.00
G03 X836.10 Y-832.80 I0.00 J12.90
G03 X832.32 Y-823.68 I-12.90 J-0.00
G03 X830.64 Y-822.26 I-9.12 J-9.12
M08
G40
M51
M93
G00 X525.62 Y-837.96
M94 F1719
G41 D21
N60 M07
G01 X529.58 Y-841.92
M50
G03 X533.36 Y-832.80 I-9.12 J9.12
G03 X520.46 Y-819.90 I-12.90 J-0.00
G03 X507.56 Y-832.80 I0.00 J-12.90
G03 X520.46 Y-845.70 I12.90 J0.00
G03 X529.58 Y-841.92 I-0.00 J12.90
G03 X531.00 Y-840.24 I-9.12 J9.12
M08
G40
M51
M93
G00 X222.89 Y-827.64
M94 F1719
G41 D21
N61 M07
G01 X226.85 Y-823.68
M50
G03 X217.72 Y-819.90 I-9.12 J-9.12
G03 X204.82 Y-832.80 I0.00 J-12.90
G03 X217.72 Y-845.70 I12.90 J0.00
G03 X230.62 Y-832.80 I0.00 J12.90
G03 X226.85 Y-823.68 I-12.90 J-0.00
G03 X225.17 Y-822.26 I-9.12 J-9.12
M08
G40
M51
M93
G00 X1300.31 Y-847.54
M94 F1375
G41 D21
N62 M07
G01 X1304.27 Y-843.58
M50
G03 X1299.50 Y-841.60 I-4.77 J-4.77
G03 X1292.75 Y-848.35 I0.00 J-6.75
G03 X1299.50 Y-855.10 I6.75 J0.00
G03 X1306.25 Y-848.35 I0.00 J6.75
G03 X1304.27 Y-843.58 I-6.75 J-0.00
G03 X1302.49 Y-842.30 I-4.77 J-4.77
M08
G40
M51
M93
G00 X1248.31 Y-849.16
M94 F1375
G41 D21
N63 M07
G01 X1252.27 Y-853.12
M50
G03 X1254.25 Y-848.35 I-4.77 J4.77
G03 X1247.50 Y-841.60 I-6.75 J0.00
G03 X1240.75 Y-848.35 I0.00 J-6.75
G03 X1247.50 Y-855.10 I6.75 J0.00
G03 X1252.27 Y-853.12 I0.00 J6.75
G03 X1253.55 Y-851.35 I-4.77 J4.77
M08
G40
M51
M93
G00 X1240.92 Y-906.71
M94 F1788
G41 D21
N64 M07
G01 X1246.51 Y-906.93
M50
G03 X1244.36 Y-898.74 I-10.61 J1.59
G03 X1226.89 Y-894.39 I-11.11 J-7.36
G03 X1221.35 Y-912.36 I6.64 J-11.88
G03 X1238.44 Y-919.05 I12.14 J5.83
G03 X1245.48 Y-911.96 I-5.27 J12.27
G01 X1246.45 Y-908.65
G01 X1246.51 Y-906.93
G01 X1246.58 Y-905.20
M08
G40
M51
M93
G00 X938.18 Y-906.71
M94 F1788
G41 D21
N65 M07
G01 X943.77 Y-906.93
M50
G03 X941.63 Y-898.74 I-10.61 J1.59
G03 X924.15 Y-894.39 I-11.11 J-7.36
G03 X918.61 Y-912.36 I6.64 J-11.88
G03 X935.70 Y-919.05 I12.14 J5.83
G03 X942.74 Y-911.96 I-5.27 J12.27
G01 X943.71 Y-908.65
G01 X943.77 Y-906.93
G01 X943.84 Y-905.20
M08
G40
M51
M93
G00 X635.44 Y-906.71
M94 F1788
G41 D21
N66 M07
G01 X641.04 Y-906.93
M50
G03 X638.89 Y-898.74 I-10.61 J1.59
G03 X621.42 Y-894.39 I-11.11 J-7.36
G03 X615.88 Y-912.36 I6.64 J-11.88
G03 X632.97 Y-919.05 I12.14 J5.83
G03 X640.01 Y-911.96 I-5.27 J12.27
G01 X640.97 Y-908.65
G01 X641.04 Y-906.93
G01 X641.10 Y-905.20
M08
G40
M51
M93
G00 X332.70 Y-906.71
M94 F1788
G41 D21
N67 M07
G01 X338.30 Y-906.93
M50
G03 X336.15 Y-898.74 I-10.61 J1.59
G03 X318.68 Y-894.39 I-11.11 J-7.36
G03 X313.14 Y-912.36 I6.64 J-11.88
G03 X330.23 Y-919.05 I12.14 J5.83
G03 X337.27 Y-911.96 I-5.27 J12.27
G01 X338.23 Y-908.65
G01 X338.30 Y-906.93
G01 X338.37 Y-905.20
M08
G40
M51
M93
G00 X1248.31 Y-1098.67
M94 F1375
G41 D21
N68 M07
G01 X1252.27 Y-1102.63
M50
G03 X1254.25 Y-1097.85 I-4.77 J4.77
G03 X1247.50 Y-1091.10 I-6.75 J0.00
G03 X1240.75 Y-1097.85 I0.00 J-6.75
G03 X1247.50 Y-1104.60 I6.75 J0.00
G03 X1252.27 Y-1102.63 I-0.00 J6.75
G03 X1253.55 Y-1100.85 I-4.77 J4.77
M08
G40
M51
M93
G00 X1300.31 Y-1098.67
M94 F1375
G41 D21
N69 M07
G01 X1304.27 Y-1102.63
M50
G03 X1306.25 Y-1097.85 I-4.77 J4.77
G03 X1299.50 Y-1091.10 I-6.75 J0.00
G03 X1292.75 Y-1097.85 I0.00 J-6.75
G03 X1299.50 Y-1104.60 I6.75 J0.00
G03 X1304.27 Y-1102.63 I-0.00 J6.75
G03 X1305.55 Y-1100.85 I-4.77 J4.77
M08
G40
M51
M93
G00 X1248.31 Y-1247.54
M94 F1375
G41 D21
N70 M07
G01 X1252.27 Y-1243.58
M50
G03 X1247.50 Y-1241.61 I-4.77 J-4.77
G03 X1240.75 Y-1248.36 I0.00 J-6.75
G03 X1247.50 Y-1255.11 I6.75 J0.00
G03 X1254.25 Y-1248.36 I0.00 J6.75
G03 X1252.27 Y-1243.58 I-6.75 J-0.00
G03 X1250.49 Y-1242.31 I-4.77 J-4.77
M08
G40
M51
M93
G00 X1300.31 Y-1247.54
M94 F1375
G41 D21
N71 M07
G01 X1304.27 Y-1243.58
M50
G03 X1299.50 Y-1241.61 I-4.77 J-4.77
G03 X1292.75 Y-1248.36 I0.00 J-6.75
G03 X1299.50 Y-1255.11 I6.75 J0.00
G03 X1306.25 Y-1248.36 I0.00 J6.75
G03 X1304.27 Y-1243.58 I-6.75 J-0.00
G03 X1302.49 Y-1242.31 I-4.77 J-4.77
M08
G40
M51
M93
G00 X222.89 Y-1258.75
M94 F1719
G41 D21
N72 M07
G01 X226.85 Y-1254.79
M50
G03 X217.72 Y-1251.01 I-9.12 J-9.12
G03 X204.82 Y-1263.91 I0.00 J-12.90
G03 X217.72 Y-1276.81 I12.90 J0.00
G03 X230.62 Y-1263.91 I-0.00 J12.90
G03 X226.85 Y-1254.79 I-12.90 J0.00
G03 X225.17 Y-1253.37 I-9.12 J-9.12
M08
G40
M51
M93
G00 X525.62 Y-1269.07
M94 F1719
G41 D21
N73 M07
G01 X529.58 Y-1273.03
M50
G03 X533.36 Y-1263.91 I-9.12 J9.12
G03 X520.46 Y-1251.01 I-12.90 J0.00
G03 X507.56 Y-1263.91 I0.00 J-12.90
G03 X520.46 Y-1276.81 I12.90 J0.00
G03 X529.58 Y-1273.03 I-0.00 J12.90
G03 X531.00 Y-1271.35 I-9.12 J9.12
M08
G40
M51
M93
G00 X828.36 Y-1269.07
M94 F1719
G41 D21
N74 M07
G01 X832.32 Y-1273.03
M50
G03 X836.10 Y-1263.91 I-9.12 J9.12
G03 X823.20 Y-1251.01 I-12.90 J0.00
G03 X810.30 Y-1263.91 I0.00 J-12.90
G03 X823.20 Y-1276.81 I12.90 J0.00
G03 X832.32 Y-1273.03 I0.00 J12.90
G03 X833.74 Y-1271.35 I-9.12 J9.12
M08
G40
M51
M93
G00 X1131.10 Y-1258.75
M94 F1719
G41 D21
N75 M07
G01 X1135.06 Y-1254.79
M50
G03 X1125.94 Y-1251.01 I-9.12 J-9.12
G03 X1113.04 Y-1263.91 I0.00 J-12.90
G03 X1125.94 Y-1276.81 I12.90 J0.00
G03 X1138.84 Y-1263.91 I0.00 J12.90
G03 X1135.06 Y-1254.79 I-12.90 J0.00
G03 X1133.38 Y-1253.37 I-9.12 J-9.12
M08
G40
M51
M93
G00 X847.02 Y-1320.97
M94 F2750
G41 D21
N76 M07
G01 X847.02 Y-1315.37
G03 X837.02 Y-1325.37 I0.00 J-10.00
G01 X837.02 Y-1358.87
G01 X807.96 Y-1358.87
G03 X801.24 Y-1344.61 I-21.19 J-1.27
G03 X785.59 Y-1335.98 I-21.46 J-20.44
G03 X753.66 Y-1342.57 I-8.91 J-37.52
G03 X745.09 Y-1356.18 I17.37 J-20.45
G01 X744.71 Y-1358.87
G01 X715.65 Y-1358.87
G01 X715.65 Y-1325.37
G03 X705.65 Y-1315.37 I-10.00 J0.00
G01 X382.89 Y-1315.37
G03 X372.89 Y-1325.37 I0.00 J-10.00
G01 X372.89 Y-1358.87
G01 X10.00 Y-1358.87
G01 X10.00 Y-1304.12
G02 X11.09 Y-1301.72 I2.70 J0.22
G02 X13.87 Y-1299.48 I6.11 J-4.74
G02 X19.03 Y-1296.60 I17.21 J-24.79
G02 X19.90 Y-1296.16 I153.16 J-297.48
G01 X137.59 Y-1215.87
G03 X140.00 Y-1214.63 I-4141.54 J8004.72
G01 X258.82 Y-1131.05
G03 X261.09 Y-1129.81 I-47.43 J88.80
G01 X359.26 Y-1053.82
G03 X363.40 Y-1050.75 I-19.47 J30.52
G03 X364.47 Y-1048.18 I-4.52 J3.39
G03 X363.32 Y-1045.88 I-2.84 J0.02
G03 X360.39 Y-1043.57 I-6.85 J-5.68
G03 X359.26 Y-1042.88 I-17.37 J-27.37
G01 X261.09 Y-966.90
G03 X258.82 Y-965.65 I-22.23 J-37.68
G01 X140.00 Y-882.08
G03 X137.59 Y-880.83 I-50.16 J-93.96
G01 X19.90 Y-800.55
G02 X13.79 Y-797.17 I1791.24 J3250.65
G02 X10.67 Y-794.45 I13.79 J18.91
G02 X10.00 Y-792.58 I4.01 J2.50
G01 X10.00 Y-737.83
G01 X372.89 Y-737.83
G01 X372.89 Y-771.33
G03 X382.89 Y-781.33 I10.00 J0.00
G01 X705.65 Y-781.33
G03 X715.65 Y-771.33 I0.00 J10.00
G01 X715.65 Y-737.83
G01 X744.71 Y-737.83
G03 X751.44 Y-752.10 I21.19 J1.27
G03 X767.09 Y-760.72 I21.46 J20.44
G03 X799.01 Y-754.14 I8.91 J37.52
G03 X807.59 Y-740.53 I-17.37 J20.45
G01 X807.96 Y-737.83
G01 X837.02 Y-737.83
G01 X837.02 Y-771.33
G03 X847.02 Y-781.33 I10.00 J0.00
G01 X1169.78 Y-781.33
G03 X1179.78 Y-771.33 I0.00 J10.00
G01 X1179.78 Y-737.83
G01 X1209.78 Y-737.83
G01 X1209.78 Y-771.33
G03 X1219.78 Y-781.33 I10.00 J0.00
G01 X1330.00 Y-781.33
G01 X1330.00 Y-1315.37
G01 X1219.78 Y-1315.37
G03 X1209.78 Y-1325.37 I0.00 J-10.00
G01 X1209.78 Y-1358.87
G01 X1179.78 Y-1358.87
G01 X1179.78 Y-1325.37
G03 X1169.78 Y-1315.37 I-10.00 J0.00
G01 X848.12 Y-1315.37
M50
G01 X847.02 Y-1315.37
G03 X845.02 Y-1317.37 I0.00 J-2.00
M08
G40
M51
M93
G00 X150.31 Y-1673.88
M94 F1581
G41 D21
N77 M07
G01 X155.91 Y-1673.88
M50
G03 X152.91 Y-1670.88 I-3.00 J0.00
G01 X96.11 Y-1670.88
G03 X93.11 Y-1673.88 I0.00 J-3.00
G03 X96.11 Y-1676.88 I3.00 J0.00
G01 X152.91 Y-1676.88
G03 X155.91 Y-1673.88 I0.00 J3.00
G03 X155.14 Y-1671.87 I-3.00 J0.00
M08
G40
M51
M93
G00 X301.03 Y-1673.88
M94 F1581
G41 D21
N78 M07
G01 X306.63 Y-1673.88
M50
G03 X303.63 Y-1670.88 I-3.00 J0.00
G01 X246.83 Y-1670.88
G03 X243.83 Y-1673.88 I0.00 J-3.00
G03 X246.83 Y-1676.88 I3.00 J0.00
G01 X303.63 Y-1676.88
G03 X306.63 Y-1673.88 I-0.00 J3.00
G03 X305.86 Y-1671.87 I-3.00 J0.00
M08
G40
M51
M93
G00 X451.75 Y-1673.88
M94 F1581
G41 D21
N79 M07
G01 X457.35 Y-1673.88
M50
G03 X454.35 Y-1670.88 I-3.00 J0.00
G01 X397.55 Y-1670.88
G03 X394.55 Y-1673.88 I0.00 J-3.00
G03 X397.55 Y-1676.88 I3.00 J0.00
G01 X454.35 Y-1676.88
G03 X457.35 Y-1673.88 I0.00 J3.00
G03 X456.58 Y-1671.87 I-3.00 J0.00
M08
G40
M51
M93
G00 X602.47 Y-1673.88
M94 F1581
G41 D21
N80 M07
G01 X608.07 Y-1673.88
M50
G03 X605.07 Y-1670.88 I-3.00 J0.00
G01 X548.27 Y-1670.88
G03 X545.27 Y-1673.88 I0.00 J-3.00
G03 X548.27 Y-1676.88 I3.00 J0.00
G01 X605.07 Y-1676.88
G03 X608.07 Y-1673.88 I-0.00 J3.00
G03 X607.30 Y-1671.87 I-3.00 J0.00
M08
G40
M51
M93
G00 X753.19 Y-1673.88
M94 F1581
G41 D21
N81 M07
G01 X758.79 Y-1673.88
M50
G03 X755.79 Y-1670.88 I-3.00 J0.00
G01 X698.99 Y-1670.88
G03 X695.99 Y-1673.88 I0.00 J-3.00
G03 X698.99 Y-1676.88 I3.00 J0.00
G01 X755.79 Y-1676.88
G03 X758.79 Y-1673.88 I-0.00 J3.00
G03 X758.02 Y-1671.87 I-3.00 J0.00
M08
G40
M51
M93
G00 X903.91 Y-1673.88
M94 F1581
G41 D21
N82 M07
G01 X909.51 Y-1673.88
M50
G03 X906.51 Y-1670.88 I-3.00 J0.00
G01 X849.71 Y-1670.88
G03 X846.71 Y-1673.88 I0.00 J-3.00
G03 X849.71 Y-1676.88 I3.00 J0.00
G01 X906.51 Y-1676.88
G03 X909.51 Y-1673.88 I-0.00 J3.00
G03 X908.74 Y-1671.87 I-3.00 J0.00
M08
G40
M51
M93
G00 X1054.63 Y-1673.88
M94 F1581
G41 D21
N83 M07
G01 X1060.23 Y-1673.88
M50
G03 X1057.23 Y-1670.88 I-3.00 J-0.00
G01 X1000.43 Y-1670.88
G03 X997.43 Y-1673.88 I0.00 J-3.00
G03 X1000.43 Y-1676.88 I3.00 J0.00
G01 X1057.23 Y-1676.88
G03 X1060.23 Y-1673.88 I-0.00 J3.00
G03 X1059.46 Y-1671.87 I-3.00 J0.00
M08
G40
M51
M93
G00 X1205.35 Y-1673.88
M94 F1581
G41 D21
N84 M07
G01 X1210.95 Y-1673.88
M50
G03 X1207.95 Y-1670.88 I-3.00 J0.00
G01 X1151.15 Y-1670.88
G03 X1148.15 Y-1673.88 I0.00 J-3.00
G03 X1151.15 Y-1676.88 I3.00 J0.00
G01 X1207.95 Y-1676.88
G03 X1210.95 Y-1673.88 I0.00 J3.00
G03 X1210.18 Y-1671.87 I-3.00 J0.00
M08
G40
M51
M93
G00 X1129.99 Y-1673.88
M94 F1581
G41 D21
N85 M07
G01 X1135.59 Y-1673.88
M50
G03 X1132.59 Y-1670.88 I-3.00 J-0.00
G01 X1075.79 Y-1670.88
G03 X1072.79 Y-1673.88 I0.00 J-3.00
G03 X1075.79 Y-1676.88 I3.00 J0.00
G01 X1132.59 Y-1676.88
G03 X1135.59 Y-1673.88 I0.00 J3.00
G03 X1134.82 Y-1671.87 I-3.00 J-0.00
M08
G40
M51
M93
G00 X979.27 Y-1673.88
M94 F1581
G41 D21
N86 M07
G01 X984.87 Y-1673.88
M50
G03 X981.87 Y-1670.88 I-3.00 J0.00
G01 X925.07 Y-1670.88
G03 X922.07 Y-1673.88 I0.00 J-3.00
G03 X925.07 Y-1676.88 I3.00 J0.00
G01 X981.87 Y-1676.88
G03 X984.87 Y-1673.88 I0.00 J3.00
G03 X984.10 Y-1671.87 I-3.00 J0.00
M08
G40
M51
M93
G00 X828.55 Y-1673.88
M94 F1581
G41 D21
N87 M07
G01 X834.15 Y-1673.88
M50
G03 X831.15 Y-1670.88 I-3.00 J0.00
G01 X774.35 Y-1670.88
G03 X771.35 Y-1673.88 I0.00 J-3.00
G03 X774.35 Y-1676.88 I3.00 J0.00
G01 X831.15 Y-1676.88
G03 X834.15 Y-1673.88 I0.00 J3.00
G03 X833.38 Y-1671.87 I-3.00 J0.00
M08
G40
M51
M93
G00 X677.83 Y-1673.88
M94 F1581
G41 D21
N88 M07
G01 X683.43 Y-1673.88
M50
G03 X680.43 Y-1670.88 I-3.00 J0.00
G01 X623.63 Y-1670.88
G03 X620.63 Y-1673.88 I0.00 J-3.00
G03 X623.63 Y-1676.88 I3.00 J0.00
G01 X680.43 Y-1676.88
G03 X683.43 Y-1673.88 I0.00 J3.00
G03 X682.66 Y-1671.87 I-3.00 J0.00
M08
G40
M51
M93
G00 X527.11 Y-1673.88
M94 F1581
G41 D21
N89 M07
G01 X532.71 Y-1673.88
M50
G03 X529.71 Y-1670.88 I-3.00 J0.00
G01 X472.91 Y-1670.88
G03 X469.91 Y-1673.88 I0.00 J-3.00
G03 X472.91 Y-1676.88 I3.00 J0.00
G01 X529.71 Y-1676.88
G03 X532.71 Y-1673.88 I0.00 J3.00
G03 X531.94 Y-1671.87 I-3.00 J0.00
M08
G40
M51
M93
G00 X376.39 Y-1673.88
M94 F1581
G41 D21
N90 M07
G01 X381.99 Y-1673.88
M50
G03 X378.99 Y-1670.88 I-3.00 J0.00
G01 X322.19 Y-1670.88
G03 X319.19 Y-1673.88 I0.00 J-3.00
G03 X322.19 Y-1676.88 I3.00 J0.00
G01 X378.99 Y-1676.88
G03 X381.99 Y-1673.88 I-0.00 J3.00
G03 X381.22 Y-1671.87 I-3.00 J0.00
M08
G40
M51
M93
G00 X225.67 Y-1673.88
M94 F1581
G41 D21
N91 M07
G01 X231.27 Y-1673.88
M50
G03 X228.27 Y-1670.88 I-3.00 J0.00
G01 X171.47 Y-1670.88
G03 X168.47 Y-1673.88 I0.00 J-3.00
G03 X171.47 Y-1676.88 I3.00 J0.00
G01 X228.27 Y-1676.88
G03 X231.27 Y-1673.88 I0.00 J3.00
G03 X230.50 Y-1671.87 I-3.00 J0.00
M08
G40
M51
M93
G00 X74.95 Y-1673.88
M94 F1581
G41 D21
N92 M07
G01 X80.55 Y-1673.88
M50
G03 X77.55 Y-1670.88 I-3.00 J0.00
G01 X20.75 Y-1670.88
G03 X17.75 Y-1673.88 I0.00 J-3.00
G03 X20.75 Y-1676.88 I3.00 J0.00
G01 X77.55 Y-1676.88
G03 X80.55 Y-1673.88 I0.00 J3.00
G03 X79.78 Y-1671.87 I-3.00 J0.00
M08
G40
M51
M93
G00 X114.26 Y-1532.24
M94 F1788
G41 D21
N93 M07
G01 X119.86 Y-1532.46
M50
G03 X117.71 Y-1524.27 I-10.61 J1.59
G03 X100.24 Y-1519.92 I-11.11 J-7.36
G03 X94.70 Y-1537.88 I6.64 J-11.88
G03 X111.79 Y-1544.58 I12.14 J5.83
G03 X118.83 Y-1537.49 I-5.27 J12.27
G01 X119.79 Y-1534.18
G01 X119.86 Y-1532.46
G01 X119.92 Y-1530.73
M08
G40
M51
M93
G00 X417.00 Y-1532.24
M94 F1788
G41 D21
N94 M07
G01 X422.59 Y-1532.46
M50
G03 X420.45 Y-1524.27 I-10.61 J1.59
G03 X402.97 Y-1519.92 I-11.11 J-7.36
G03 X397.43 Y-1537.88 I6.64 J-11.88
G03 X414.52 Y-1544.58 I12.14 J5.83
G03 X421.56 Y-1537.49 I-5.27 J12.27
G01 X422.53 Y-1534.18
G01 X422.59 Y-1532.46
G01 X422.66 Y-1530.73
M08
G40
M51
M93
G00 X719.73 Y-1532.24
M94 F1788
G41 D21
N95 M07
G01 X725.33 Y-1532.46
M50
G03 X723.18 Y-1524.27 I-10.61 J1.59
G03 X705.71 Y-1519.92 I-11.11 J-7.36
G03 X700.17 Y-1537.88 I6.64 J-11.88
G03 X717.26 Y-1544.58 I12.14 J5.83
G03 X724.30 Y-1537.49 I-5.27 J12.27
G01 X725.26 Y-1534.18
G01 X725.33 Y-1532.46
G01 X725.40 Y-1530.73
M08
G40
M51
M93
G00 X1022.47 Y-1532.24
M94 F1788
G41 D21
N96 M07
G01 X1028.07 Y-1532.46
M50
G03 X1025.92 Y-1524.27 I-10.61 J1.59
G03 X1008.45 Y-1519.92 I-11.11 J-7.36
G03 X1002.91 Y-1537.88 I6.64 J-11.88
G03 X1020.00 Y-1544.58 I12.14 J5.83
G03 X1027.04 Y-1537.49 I-5.27 J12.27
G01 X1028.00 Y-1534.18
G01 X1028.07 Y-1532.46
G01 X1028.13 Y-1530.73
M08
G40
M51
M93
G00 X41.31 Y-1724.19
M94 F1375
G41 D21
N97 M07
G01 X45.27 Y-1728.15
M50
G03 X47.25 Y-1723.38 I-4.77 J4.77
G03 X40.50 Y-1716.63 I-6.75 J0.00
G03 X33.75 Y-1723.38 I0.00 J-6.75
G03 X40.50 Y-1730.13 I6.75 J0.00
G03 X45.27 Y-1728.15 I-0.00 J6.75
G03 X46.55 Y-1726.37 I-4.77 J4.77
M08
G40
M51
M93
G00 X93.31 Y-1724.19
M94 F1375
G41 D21
N98 M07
G01 X97.27 Y-1728.15
M50
G03 X99.25 Y-1723.38 I-4.77 J4.77
G03 X92.50 Y-1716.63 I-6.75 J0.00
G03 X85.75 Y-1723.38 I0.00 J-6.75
G03 X92.50 Y-1730.13 I6.75 J0.00
G03 X97.27 Y-1728.15 I-0.00 J6.75
G03 X98.55 Y-1726.37 I-4.77 J4.77
M08
G40
M51
M93
G00 X1127.44 Y-1894.60
M94 F1719
G41 D21
N99 M07
G01 X1131.40 Y-1898.56
M50
G03 X1135.18 Y-1889.43 I-9.12 J9.12
G03 X1122.28 Y-1876.53 I-12.90 J0.00
G03 X1109.38 Y-1889.43 I0.00 J-12.90
G03 X1122.28 Y-1902.33 I12.90 J0.00
G03 X1131.40 Y-1898.56 I0.00 J12.90
G03 X1132.81 Y-1896.88 I-9.12 J9.12
M08
G40
M51
M93
G00 X824.70 Y-1894.60
M94 F1719
G41 D21
N100 M07
G01 X828.66 Y-1898.56
M50
G03 X832.44 Y-1889.43 I-9.12 J9.12
G03 X819.54 Y-1876.53 I-12.90 J0.00
G03 X806.64 Y-1889.43 I0.00 J-12.90
G03 X819.54 Y-1902.33 I12.90 J0.00
G03 X828.66 Y-1898.56 I-0.00 J12.90
G03 X830.08 Y-1896.88 I-9.12 J9.12
M08
G40
M51
M93
G00 X521.96 Y-1894.60
M94 F1719
G41 D21
N101 M07
G01 X525.92 Y-1898.56
M50
G03 X529.70 Y-1889.43 I-9.12 J9.12
G03 X516.80 Y-1876.53 I-12.90 J0.00
G03 X503.90 Y-1889.43 I0.00 J-12.90
G03 X516.80 Y-1902.33 I12.90 J0.00
G03 X525.92 Y-1898.56 I0.00 J12.90
G03 X527.34 Y-1896.88 I-9.12 J9.12
M08
G40
M51
M93
G00 X219.23 Y-1894.60
M94 F1719
G41 D21
N102 M07
G01 X223.19 Y-1898.56
M50
G03 X226.96 Y-1889.43 I-9.12 J9.12
G03 X214.06 Y-1876.53 I-12.90 J0.00
G03 X201.16 Y-1889.43 I0.00 J-12.90
G03 X214.06 Y-1902.33 I12.90 J0.00
G03 X223.19 Y-1898.56 I-0.00 J12.90
G03 X224.60 Y-1896.88 I-9.12 J9.12
M08
G40
M51
M93
G00 X41.31 Y-1873.07
M94 F1375
G41 D21
N103 M07
G01 X45.27 Y-1869.11
M50
G03 X40.50 Y-1867.13 I-4.77 J-4.77
G03 X33.75 Y-1873.88 I0.00 J-6.75
G03 X40.50 Y-1880.63 I6.75 J0.00
G03 X47.25 Y-1873.88 I0.00 J6.75
G03 X45.27 Y-1869.11 I-6.75 J0.00
G03 X43.49 Y-1867.83 I-4.77 J-4.77
M08
G40
M51
M93
G00 X93.31 Y-1873.07
M94 F1375
G41 D21
N104 M07
G01 X97.27 Y-1869.11
M50
G03 X92.50 Y-1867.13 I-4.77 J-4.77
G03 X85.75 Y-1873.88 I0.00 J-6.75
G03 X92.50 Y-1880.63 I6.75 J0.00
G03 X99.25 Y-1873.88 I0.00 J6.75
G03 X97.27 Y-1869.11 I-6.75 J0.00
G03 X95.49 Y-1867.83 I-4.77 J-4.77
M08
G40
M51
M93
G00 X1022.46 Y-1815.26
M94 F1788
G41 D21
N105 M07
G01 X1028.04 Y-1814.88
M50
G03 X1025.03 Y-1806.98 I-10.69 J0.45
G03 X1004.47 Y-1807.32 I-10.15 J-8.43
G03 X1008.82 Y-1828.04 I11.05 J-8.50
G03 X1027.56 Y-1820.00 I6.16 J11.50
G01 X1028.16 Y-1816.60
G01 X1028.04 Y-1814.88
G01 X1027.92 Y-1813.15
M08
G40
M51
M93
G00 X719.72 Y-1815.26
M94 F1788
G41 D21
N106 M07
G01 X725.31 Y-1814.88
M50
G03 X722.30 Y-1806.98 I-10.69 J0.45
G03 X701.73 Y-1807.32 I-10.15 J-8.43
G03 X706.08 Y-1828.04 I11.05 J-8.50
G03 X724.82 Y-1820.00 I6.16 J11.50
G01 X725.43 Y-1816.60
G01 X725.31 Y-1814.88
G01 X725.19 Y-1813.15
M08
G40
M51
M93
G00 X416.98 Y-1815.26
M94 F1788
G41 D21
N107 M07
G01 X422.57 Y-1814.88
M50
G03 X419.56 Y-1806.98 I-10.69 J0.45
G03 X398.99 Y-1807.32 I-10.15 J-8.43
G03 X403.34 Y-1828.04 I11.05 J-8.50
G03 X422.08 Y-1820.00 I6.16 J11.50
G01 X422.69 Y-1816.60
G01 X422.57 Y-1814.88
G01 X422.45 Y-1813.15
M08
G40
M51
M93
G00 X114.25 Y-1815.26
M94 F1788
G41 D21
N108 M07
G01 X119.83 Y-1814.88
M50
G03 X116.82 Y-1806.98 I-10.69 J0.45
G03 X96.25 Y-1807.32 I-10.15 J-8.43
G03 X100.61 Y-1828.04 I11.05 J-8.50
G03 X119.35 Y-1820.00 I6.16 J11.50
G01 X119.95 Y-1816.60
G01 X119.83 Y-1814.88
G01 X119.71 Y-1813.15
M08
G40
M51
M93
G00 X93.31 Y-1625.19
M94 F1375
G41 D21
N109 M07
G01 X97.27 Y-1629.15
M50
G03 X99.25 Y-1624.38 I-4.77 J4.77
G03 X92.50 Y-1617.63 I-6.75 J0.00
G03 X85.75 Y-1624.38 I0.00 J-6.75
G03 X92.50 Y-1631.13 I6.75 J0.00
G03 X97.27 Y-1629.15 I-0.00 J6.75
G03 X98.55 Y-1627.37 I-4.77 J4.77
M08
G40
M51
M93
G00 X41.31 Y-1625.19
M94 F1375
G41 D21
N110 M07
G01 X45.27 Y-1629.15
M50
G03 X47.25 Y-1624.38 I-4.77 J4.77
G03 X40.50 Y-1617.63 I-6.75 J0.00
G03 X33.75 Y-1624.38 I0.00 J-6.75
G03 X40.50 Y-1631.13 I6.75 J0.00
G03 X45.27 Y-1629.15 I-0.00 J6.75
G03 X46.55 Y-1627.37 I-4.77 J4.77
M08
G40
M51
M93
G00 X93.31 Y-1474.69
M94 F1375
G41 D21
N111 M07
G01 X97.27 Y-1478.65
M50
G03 X99.25 Y-1473.88 I-4.77 J4.77
G03 X92.50 Y-1467.13 I-6.75 J0.00
G03 X85.75 Y-1473.88 I0.00 J-6.75
G03 X92.50 Y-1480.63 I6.75 J0.00
G03 X97.27 Y-1478.65 I-0.00 J6.75
G03 X98.55 Y-1476.87 I-4.77 J4.77
M08
G40
M51
M93
G00 X41.31 Y-1474.69
M94 F1375
G41 D21
N112 M07
G01 X45.27 Y-1478.65
M50
G03 X47.25 Y-1473.88 I-4.77 J4.77
G03 X40.50 Y-1467.13 I-6.75 J0.00
G03 X33.75 Y-1473.88 I0.00 J-6.75
G03 X40.50 Y-1480.63 I6.75 J0.00
G03 X45.27 Y-1478.65 I-0.00 J6.75
G03 X46.55 Y-1476.87 I-4.77 J4.77
M08
G40
M51
M93
G00 X219.23 Y-1453.16
M94 F1719
G41 D21
N113 M07
G01 X223.19 Y-1449.20
M50
G03 X214.06 Y-1445.42 I-9.12 J-9.12
G03 X201.16 Y-1458.32 I0.00 J-12.90
G03 X214.06 Y-1471.22 I12.90 J0.00
G03 X226.96 Y-1458.32 I-0.00 J12.90
G03 X223.19 Y-1449.20 I-12.90 J0.00
G03 X221.51 Y-1447.79 I-9.12 J-9.12
M08
G40
M51
M93
G00 X521.96 Y-1453.16
M94 F1719
G41 D21
N114 M07
G01 X525.92 Y-1449.20
M50
G03 X516.80 Y-1445.42 I-9.12 J-9.12
G03 X503.90 Y-1458.32 I0.00 J-12.90
G03 X516.80 Y-1471.22 I12.90 J0.00
G03 X529.70 Y-1458.32 I0.00 J12.90
G03 X525.92 Y-1449.20 I-12.90 J0.00
G03 X524.24 Y-1447.79 I-9.12 J-9.12
M08
G40
M51
M93
G00 X824.70 Y-1463.49
M94 F1719
G41 D21
N115 M07
G01 X828.66 Y-1467.45
M50
G03 X832.44 Y-1458.32 I-9.12 J9.12
G03 X819.54 Y-1445.42 I-12.90 J0.00
G03 X806.64 Y-1458.32 I0.00 J-12.90
G03 X819.54 Y-1471.22 I12.90 J0.00
G03 X828.66 Y-1467.45 I-0.00 J12.90
G03 X830.08 Y-1465.77 I-9.12 J9.12
M08
G40
M51
M93
G00 X1127.44 Y-1463.49
M94 F1719
G41 D21
N116 M07
G01 X1131.40 Y-1467.45
M50
G03 X1135.18 Y-1458.32 I-9.12 J9.12
G03 X1122.28 Y-1445.42 I-12.90 J0.00
G03 X1109.38 Y-1458.32 I0.00 J-12.90
G03 X1122.28 Y-1471.22 I12.90 J0.00
G03 X1131.40 Y-1467.45 I0.00 J12.90
G03 X1132.81 Y-1465.77 I-9.12 J9.12
M08
G40
M51
M93
G00 X967.64 Y-1990.00
M94 F2750
G41 D21
N117 M07
G01 X967.64 Y-1984.40
G01 X967.64 Y-1950.90
G03 X957.64 Y-1940.90 I-10.00 J0.00
G01 X634.65 Y-1940.90
G03 X624.65 Y-1950.90 I0.00 J-10.00
G01 X624.65 Y-1984.40
G01 X595.59 Y-1984.40
G03 X588.81 Y-1969.98 I-21.40 J-1.27
G03 X573.01 Y-1961.27 I-21.67 J-20.62
G03 X540.76 Y-1967.92 I-9.00 J-37.87
G03 X532.11 Y-1981.68 I17.55 J-20.63
G01 X531.73 Y-1984.40
G01 X502.68 Y-1984.40
G01 X502.68 Y-1950.90
G03 X492.68 Y-1940.90 I-10.00 J0.00
G01 X169.69 Y-1940.90
G03 X159.69 Y-1950.90 I0.00 J-10.00
G01 X159.69 Y-1984.40
G01 X129.69 Y-1984.40
G01 X129.69 Y-1950.90
G03 X119.69 Y-1940.90 I-10.00 J0.00
G01 X10.00 Y-1940.90
G01 X10.00 Y-1406.86
G01 X119.69 Y-1406.86
G03 X129.69 Y-1396.86 I-0.00 J10.00
G01 X129.69 Y-1363.36
G01 X159.69 Y-1363.36
G01 X159.69 Y-1396.86
G03 X169.69 Y-1406.86 I10.00 J0.00
G01 X492.68 Y-1406.86
G03 X502.68 Y-1396.86 I0.00 J10.00
G01 X502.68 Y-1363.36
G01 X531.73 Y-1363.36
G03 X538.52 Y-1377.78 I21.40 J1.27
G03 X554.32 Y-1386.49 I21.67 J20.62
G03 X586.56 Y-1379.84 I9.00 J37.87
G03 X595.22 Y-1366.08 I-17.55 J20.63
G01 X595.59 Y-1363.36
G01 X624.65 Y-1363.36
G01 X624.65 Y-1396.86
G03 X634.65 Y-1406.86 I10.00 J0.00
G01 X957.64 Y-1406.86
G03 X967.64 Y-1396.86 I0.00 J10.00
G01 X967.64 Y-1363.36
G01 X997.64 Y-1363.36
G01 X997.64 Y-1396.86
G03 X1007.64 Y-1406.86 I10.00 J0.00
G01 X1218.95 Y-1406.86
G01 X1218.95 Y-1940.90
G01 X1007.64 Y-1940.90
G03 X997.64 Y-1950.90 I0.00 J-10.00
G01 X997.64 Y-1984.40
G01 X968.74 Y-1984.40
M50
G01 X967.64 Y-1984.40
G03 X965.64 Y-1986.40 I0.00 J-2.00
M08
G40
M51
M93
G00 X1362.07 Y-1673.88
M94 F1581
G41 D21
N118 M07
G01 X1367.67 Y-1673.88
M50
G03 X1364.67 Y-1670.88 I-3.00 J0.00
G01 X1307.87 Y-1670.88
G03 X1304.87 Y-1673.88 I0.00 J-3.00
G03 X1307.87 Y-1676.88 I3.00 J0.00
G01 X1364.67 Y-1676.88
G03 X1367.67 Y-1673.88 I0.00 J3.00
G03 X1366.90 Y-1671.87 I-3.00 J0.00
M08
G40
M51
M93
G00 X1512.79 Y-1673.88
M94 F1581
G41 D21
N119 M07
G01 X1518.39 Y-1673.88
M50
G03 X1515.39 Y-1670.88 I-3.00 J-0.00
G01 X1458.59 Y-1670.88
G03 X1455.59 Y-1673.88 I0.00 J-3.00
G03 X1458.59 Y-1676.88 I3.00 J0.00
G01 X1515.39 Y-1676.88
G03 X1518.39 Y-1673.88 I0.00 J3.00
G03 X1517.62 Y-1671.87 I-3.00 J-0.00
M08
G40
M51
M93
G00 X1663.51 Y-1673.88
M94 F1581
G41 D21
N120 M07
G01 X1669.11 Y-1673.88
M50
G03 X1666.11 Y-1670.88 I-3.00 J-0.00
G01 X1609.31 Y-1670.88
G03 X1606.31 Y-1673.88 I0.00 J-3.00
G03 X1609.31 Y-1676.88 I3.00 J0.00
G01 X1666.11 Y-1676.88
G03 X1669.11 Y-1673.88 I-0.00 J3.00
G03 X1668.34 Y-1671.87 I-3.00 J-0.00
M08
G40
M51
M93
G00 X1814.23 Y-1673.88
M94 F1581
G41 D21
N121 M07
G01 X1819.83 Y-1673.88
M50
G03 X1816.83 Y-1670.88 I-3.00 J-0.00
G01 X1760.03 Y-1670.88
G03 X1757.03 Y-1673.88 I0.00 J-3.00
G03 X1760.03 Y-1676.88 I3.00 J0.00
G01 X1816.83 Y-1676.88
G03 X1819.83 Y-1673.88 I0.00 J3.00
G03 X1819.06 Y-1671.87 I-3.00 J-0.00
M08
G40
M51
M93
G00 X1964.95 Y-1673.88
M94 F1581
G41 D21
N122 M07
G01 X1970.55 Y-1673.88
M50
G03 X1967.55 Y-1670.88 I-3.00 J-0.00
G01 X1910.75 Y-1670.88
G03 X1907.75 Y-1673.88 I0.00 J-3.00
G03 X1910.75 Y-1676.88 I3.00 J0.00
G01 X1967.55 Y-1676.88
G03 X1970.55 Y-1673.88 I-0.00 J3.00
G03 X1969.78 Y-1671.87 I-3.00 J-0.00
M08
G40
M51
M93
G00 X2115.67 Y-1673.88
M94 F1581
G41 D21
N123 M07
G01 X2121.27 Y-1673.88
M50
G03 X2118.27 Y-1670.88 I-3.00 J0.00
G01 X2061.47 Y-1670.88
G03 X2058.47 Y-1673.88 I0.00 J-3.00
G03 X2061.47 Y-1676.88 I3.00 J0.00
G01 X2118.27 Y-1676.88
G03 X2121.27 Y-1673.88 I-0.00 J3.00
G03 X2120.50 Y-1671.87 I-3.00 J0.00
M08
G40
M51
M93
G00 X2266.39 Y-1673.88
M94 F1581
G41 D21
N124 M07
G01 X2271.99 Y-1673.88
M50
G03 X2268.99 Y-1670.88 I-3.00 J0.00
G01 X2212.19 Y-1670.88
G03 X2209.19 Y-1673.88 I0.00 J-3.00
G03 X2212.19 Y-1676.88 I3.00 J0.00
G01 X2268.99 Y-1676.88
G03 X2271.99 Y-1673.88 I0.00 J3.00
G03 X2271.22 Y-1671.87 I-3.00 J0.00
M08
G40
M51
M93
G00 X2417.11 Y-1673.88
M94 F1581
G41 D21
N125 M07
G01 X2422.71 Y-1673.88
M50
G03 X2419.71 Y-1670.88 I-3.00 J0.00
G01 X2362.91 Y-1670.88
G03 X2359.91 Y-1673.88 I0.00 J-3.00
G03 X2362.91 Y-1676.88 I3.00 J0.00
G01 X2419.71 Y-1676.88
G03 X2422.71 Y-1673.88 I0.00 J3.00
G03 X2421.94 Y-1671.87 I-3.00 J0.00
M08
G40
M51
M93
G00 X2341.75 Y-1673.88
M94 F1581
G41 D21
N126 M07
G01 X2347.35 Y-1673.88
M50
G03 X2344.35 Y-1670.88 I-3.00 J0.00
G01 X2287.55 Y-1670.88
G03 X2284.55 Y-1673.88 I0.00 J-3.00
G03 X2287.55 Y-1676.88 I3.00 J0.00
G01 X2344.35 Y-1676.88
G03 X2347.35 Y-1673.88 I-0.00 J3.00
G03 X2346.58 Y-1671.87 I-3.00 J0.00
M08
G40
M51
M93
G00 X2191.03 Y-1673.88
M94 F1581
G41 D21
N127 M07
G01 X2196.63 Y-1673.88
M50
G03 X2193.63 Y-1670.88 I-3.00 J0.00
G01 X2136.83 Y-1670.88
G03 X2133.83 Y-1673.88 I0.00 J-3.00
G03 X2136.83 Y-1676.88 I3.00 J0.00
G01 X2193.63 Y-1676.88
G03 X2196.63 Y-1673.88 I-0.00 J3.00
G03 X2195.86 Y-1671.87 I-3.00 J0.00
M08
G40
M51
M93
G00 X2040.31 Y-1673.88
M94 F1581
G41 D21
N128 M07
G01 X2045.91 Y-1673.88
M50
G03 X2042.91 Y-1670.88 I-3.00 J-0.00
G01 X1986.11 Y-1670.88
G03 X1983.11 Y-1673.88 I0.00 J-3.00
G03 X1986.11 Y-1676.88 I3.00 J0.00
G01 X2042.91 Y-1676.88
G03 X2045.91 Y-1673.88 I0.00 J3.00
G03 X2045.14 Y-1671.87 I-3.00 J-0.00
M08
G40
M51
M93
G00 X1889.59 Y-1673.88
M94 F1581
G41 D21
N129 M07
G01 X1895.19 Y-1673.88
M50
G03 X1892.19 Y-1670.88 I-3.00 J-0.00
G01 X1835.39 Y-1670.88
G03 X1832.39 Y-1673.88 I0.00 J-3.00
G03 X1835.39 Y-1676.88 I3.00 J0.00
G01 X1892.19 Y-1676.88
G03 X1895.19 Y-1673.88 I0.00 J3.00
G03 X1894.42 Y-1671.87 I-3.00 J-0.00
M08
G40
M51
M93
G00 X1738.87 Y-1673.88
M94 F1581
G41 D21
N130 M07
G01 X1744.47 Y-1673.88
M50
G03 X1741.47 Y-1670.88 I-3.00 J-0.00
G01 X1684.67 Y-1670.88
G03 X1681.67 Y-1673.88 I0.00 J-3.00
G03 X1684.67 Y-1676.88 I3.00 J0.00
G01 X1741.47 Y-1676.88
G03 X1744.47 Y-1673.88 I0.00 J3.00
G03 X1743.70 Y-1671.87 I-3.00 J-0.00
M08
G40
M51
M93
G00 X1588.15 Y-1673.88
M94 F1581
G41 D21
N131 M07
G01 X1593.75 Y-1673.88
M50
G03 X1590.75 Y-1670.88 I-3.00 J-0.00
G01 X1533.95 Y-1670.88
G03 X1530.95 Y-1673.88 I0.00 J-3.00
G03 X1533.95 Y-1676.88 I3.00 J0.00
G01 X1590.75 Y-1676.88
G03 X1593.75 Y-1673.88 I0.00 J3.00
G03 X1592.98 Y-1671.87 I-3.00 J-0.00
M08
G40
M51
M93
G00 X1437.43 Y-1673.88
M94 F1581
G41 D21
N132 M07
G01 X1443.03 Y-1673.88
M50
G03 X1440.03 Y-1670.88 I-3.00 J-0.00
G01 X1383.23 Y-1670.88
G03 X1380.23 Y-1673.88 I0.00 J-3.00
G03 X1383.23 Y-1676.88 I3.00 J0.00
G01 X1440.03 Y-1676.88
G03 X1443.03 Y-1673.88 I-0.00 J3.00
G03 X1442.26 Y-1671.87 I-3.00 J0.00
M08
G40
M51
M93
G00 X1286.71 Y-1673.88
M94 F1581
G41 D21
N133 M07
G01 X1292.31 Y-1673.88
M50
G03 X1289.31 Y-1670.88 I-3.00 J0.00
G01 X1232.51 Y-1670.88
G03 X1229.51 Y-1673.88 I0.00 J-3.00
G03 X1232.51 Y-1676.88 I3.00 J0.00
G01 X1289.31 Y-1676.88
G03 X1292.31 Y-1673.88 I0.00 J3.00
G03 X1291.54 Y-1671.87 I-3.00 J-0.00
M08
G40
M51
M93
G00 X1326.02 Y-1532.24
M94 F1788
G41 D21
N134 M07
G01 X1331.62 Y-1532.46
M50
G03 X1329.47 Y-1524.27 I-10.61 J1.59
G03 X1312.00 Y-1519.92 I-11.11 J-7.36
G03 X1306.46 Y-1537.88 I6.64 J-11.88
G03 X1323.55 Y-1544.58 I12.14 J5.83
G03 X1330.59 Y-1537.49 I-5.27 J12.27
G01 X1331.55 Y-1534.18
G01 X1331.62 Y-1532.46
G01 X1331.68 Y-1530.73
M08
G40
M51
M93
G00 X1628.76 Y-1532.24
M94 F1788
G41 D21
N135 M07
G01 X1634.36 Y-1532.46
M50
G03 X1632.21 Y-1524.27 I-10.61 J1.59
G03 X1614.73 Y-1519.92 I-11.11 J-7.36
G03 X1609.20 Y-1537.88 I6.64 J-11.88
G03 X1626.29 Y-1544.58 I12.14 J5.83
G03 X1633.32 Y-1537.49 I-5.27 J12.27
G01 X1634.29 Y-1534.18
G01 X1634.36 Y-1532.46
G01 X1634.42 Y-1530.73
M08
G40
M51
M93
G00 X1931.50 Y-1532.24
M94 F1788
G41 D21
N136 M07
G01 X1937.09 Y-1532.46
M50
G03 X1934.95 Y-1524.27 I-10.61 J1.59
G03 X1917.47 Y-1519.92 I-11.11 J-7.36
G03 X1911.93 Y-1537.88 I6.64 J-11.88
G03 X1929.02 Y-1544.58 I12.14 J5.83
G03 X1936.06 Y-1537.49 I-5.27 J12.27
G01 X1937.03 Y-1534.18
G01 X1937.09 Y-1532.46
G01 X1937.16 Y-1530.73
M08
G40
M51
M93
G00 X2234.23 Y-1532.24
M94 F1788
G41 D21
N137 M07
G01 X2239.83 Y-1532.46
M50
G03 X2237.68 Y-1524.27 I-10.61 J1.59
G03 X2220.21 Y-1519.92 I-11.11 J-7.36
G03 X2214.67 Y-1537.88 I6.64 J-11.88
G03 X2231.76 Y-1544.58 I12.14 J5.83
G03 X2238.80 Y-1537.49 I-5.27 J12.27
G01 X2239.76 Y-1534.18
G01 X2239.83 Y-1532.46
G01 X2239.90 Y-1530.73
M08
G40
M51
M93
G00 X1253.08 Y-1724.19
M94 F1375
G41 D21
N138 M07
G01 X1257.04 Y-1728.15
M50
G03 X1259.01 Y-1723.38 I-4.77 J4.77
G03 X1252.26 Y-1716.63 I-6.75 J0.00
G03 X1245.51 Y-1723.38 I0.00 J-6.75
G03 X1252.26 Y-1730.13 I6.75 J0.00
G03 X1257.04 Y-1728.15 I-0.00 J6.75
G03 X1258.31 Y-1726.37 I-4.77 J4.77
M08
G40
M51
M93
G00 X1305.08 Y-1724.19
M94 F1375
G41 D21
N139 M07
G01 X1309.04 Y-1728.15
M50
G03 X1311.01 Y-1723.38 I-4.77 J4.77
G03 X1304.26 Y-1716.63 I-6.75 J0.00
G03 X1297.51 Y-1723.38 I0.00 J-6.75
G03 X1304.26 Y-1730.13 I6.75 J0.00
G03 X1309.04 Y-1728.15 I-0.00 J6.75
G03 X1310.31 Y-1726.37 I-4.77 J4.77
M08
G40
M51
M93
G00 X2339.20 Y-1894.60
M94 F1719
G41 D21
N140 M07
G01 X2343.16 Y-1898.56
M50
G03 X2346.94 Y-1889.43 I-9.12 J9.12
G03 X2334.04 Y-1876.53 I-12.90 J0.00
G03 X2321.14 Y-1889.43 I0.00 J-12.90
G03 X2334.04 Y-1902.33 I12.90 J0.00
G03 X2343.16 Y-1898.56 I0.00 J12.90
G03 X2344.58 Y-1896.88 I-9.12 J9.12
M08
G40
M51
M93
G00 X2036.46 Y-1894.60
M94 F1719
G41 D21
N141 M07
G01 X2040.42 Y-1898.56
M50
G03 X2044.20 Y-1889.43 I-9.12 J9.12
G03 X2031.30 Y-1876.53 I-12.90 J0.00
G03 X2018.40 Y-1889.43 I0.00 J-12.90
G03 X2031.30 Y-1902.33 I12.90 J0.00
G03 X2040.42 Y-1898.56 I0.00 J12.90
G03 X2041.84 Y-1896.88 I-9.12 J9.12
M08
G40
M51
M93
G00 X1733.73 Y-1894.60
M94 F1719
G41 D21
N142 M07
G01 X1737.69 Y-1898.56
M50
G03 X1741.46 Y-1889.43 I-9.12 J9.12
G03 X1728.56 Y-1876.53 I-12.90 J0.00
G03 X1715.66 Y-1889.43 I0.00 J-12.90
G03 X1728.56 Y-1902.33 I12.90 J0.00
G03 X1737.69 Y-1898.56 I0.00 J12.90
G03 X1739.10 Y-1896.88 I-9.12 J9.12
M08
G40
M51
M93
G00 X1430.99 Y-1894.60
M94 F1719
G41 D21
N143 M07
G01 X1434.95 Y-1898.56
M50
G03 X1438.73 Y-1889.43 I-9.12 J9.12
G03 X1425.83 Y-1876.53 I-12.90 J0.00
G03 X1412.93 Y-1889.43 I0.00 J-12.90
G03 X1425.83 Y-1902.33 I12.90 J0.00
G03 X1434.95 Y-1898.56 I0.00 J12.90
G03 X1436.36 Y-1896.88 I-9.12 J9.12
M08
G40
M51
M93
G00 X1253.08 Y-1873.07
M94 F1375
G41 D21
N144 M07
G01 X1257.04 Y-1869.11
M50
G03 X1252.26 Y-1867.13 I-4.77 J-4.77
G03 X1245.51 Y-1873.88 I0.00 J-6.75
G03 X1252.26 Y-1880.63 I6.75 J0.00
G03 X1259.01 Y-1873.88 I0.00 J6.75
G03 X1257.04 Y-1869.11 I-6.75 J-0.00
G03 X1255.26 Y-1867.83 I-4.77 J-4.77
M08
G40
M51
M93
G00 X1305.08 Y-1873.07
M94 F1375
G41 D21
N145 M07
G01 X1309.04 Y-1869.11
M50
G03 X1304.26 Y-1867.13 I-4.77 J-4.77
G03 X1297.51 Y-1873.88 I0.00 J-6.75
G03 X1304.26 Y-1880.63 I6.75 J0.00
G03 X1311.01 Y-1873.88 I0.00 J6.75
G03 X1309.04 Y-1869.11 I-6.75 J-0.00
G03 X1307.26 Y-1867.83 I-4.77 J-4.77
M08
G40
M51
M93
G00 X2234.22 Y-1815.26
M94 F1788
G41 D21
N146 M07
G01 X2239.81 Y-1814.88
M50
G03 X2236.80 Y-1806.98 I-10.69 J0.45
G03 X2216.23 Y-1807.32 I-10.15 J-8.43
G03 X2220.58 Y-1828.04 I11.05 J-8.50
G03 X2239.32 Y-1820.00 I6.16 J11.50
G01 X2239.93 Y-1816.60
G01 X2239.81 Y-1814.88
G01 X2239.69 Y-1813.15
M08
G40
M51
M93
G00 X1931.48 Y-1815.26
M94 F1788
G41 D21
N147 M07
G01 X1937.07 Y-1814.88
M50
G03 X1934.06 Y-1806.98 I-10.69 J0.45
G03 X1913.49 Y-1807.32 I-10.15 J-8.43
G03 X1917.84 Y-1828.04 I11.05 J-8.50
G03 X1936.58 Y-1820.00 I6.16 J11.50
G01 X1937.19 Y-1816.60
G01 X1937.07 Y-1814.88
G01 X1936.95 Y-1813.15
M08
G40
M51
M93
G00 X1628.75 Y-1815.26
M94 F1788
G41 D21
N148 M07
G01 X1634.33 Y-1814.88
M50
G03 X1631.32 Y-1806.98 I-10.69 J0.45
G03 X1610.75 Y-1807.32 I-10.15 J-8.43
G03 X1615.11 Y-1828.04 I11.05 J-8.50
G03 X1633.85 Y-1820.00 I6.16 J11.50
G01 X1634.45 Y-1816.60
G01 X1634.33 Y-1814.88
G01 X1634.21 Y-1813.15
M08
G40
M51
M93
G00 X1326.01 Y-1815.26
M94 F1788
G41 D21
N149 M07
G01 X1331.60 Y-1814.88
M50
G03 X1328.59 Y-1806.98 I-10.69 J0.45
G03 X1308.02 Y-1807.32 I-10.15 J-8.43
G03 X1312.37 Y-1828.04 I11.05 J-8.50
G03 X1331.11 Y-1820.00 I6.16 J11.50
G01 X1331.71 Y-1816.60
G01 X1331.60 Y-1814.88
G01 X1331.48 Y-1813.15
M08
G40
M51
M93
G00 X1305.08 Y-1625.19
M94 F1375
G41 D21
N150 M07
G01 X1309.04 Y-1629.15
M50
G03 X1311.01 Y-1624.38 I-4.77 J4.77
G03 X1304.26 Y-1617.63 I-6.75 J0.00
G03 X1297.51 Y-1624.38 I0.00 J-6.75
G03 X1304.26 Y-1631.13 I6.75 J0.00
G03 X1309.04 Y-1629.15 I-0.00 J6.75
G03 X1310.31 Y-1627.37 I-4.77 J4.77
M08
G40
M51
M93
G00 X1253.08 Y-1625.19
M94 F1375
G41 D21
N151 M07
G01 X1257.04 Y-1629.15
M50
G03 X1259.01 Y-1624.38 I-4.77 J4.77
G03 X1252.26 Y-1617.63 I-6.75 J0.00
G03 X1245.51 Y-1624.38 I0.00 J-6.75
G03 X1252.26 Y-1631.13 I6.75 J0.00
G03 X1257.04 Y-1629.15 I-0.00 J6.75
G03 X1258.31 Y-1627.37 I-4.77 J4.77
M08
G40
M51
M93
G00 X1305.08 Y-1474.69
M94 F1375
G41 D21
N152 M07
G01 X1309.04 Y-1478.65
M50
G03 X1311.01 Y-1473.88 I-4.77 J4.77
G03 X1304.26 Y-1467.13 I-6.75 J0.00
G03 X1297.51 Y-1473.88 I0.00 J-6.75
G03 X1304.26 Y-1480.63 I6.75 J0.00
G03 X1309.04 Y-1478.65 I-0.00 J6.75
G03 X1310.31 Y-1476.87 I-4.77 J4.77
M08
G40
M51
M93
G00 X1253.08 Y-1474.69
M94 F1375
G41 D21
N153 M07
G01 X1257.04 Y-1478.65
M50
G03 X1259.01 Y-1473.88 I-4.77 J4.77
G03 X1252.26 Y-1467.13 I-6.75 J0.00
G03 X1245.51 Y-1473.88 I0.00 J-6.75
G03 X1252.26 Y-1480.63 I6.75 J0.00
G03 X1257.04 Y-1478.65 I-0.00 J6.75
G03 X1258.31 Y-1476.87 I-4.77 J4.77
M08
G40
M51
M93
G00 X1430.99 Y-1453.16
M94 F1719
G41 D21
N154 M07
G01 X1434.95 Y-1449.20
M50
G03 X1425.83 Y-1445.42 I-9.12 J-9.12
G03 X1412.93 Y-1458.32 I0.00 J-12.90
G03 X1425.83 Y-1471.22 I12.90 J0.00
G03 X1438.73 Y-1458.32 I0.00 J12.90
G03 X1434.95 Y-1449.20 I-12.90 J0.00
G03 X1433.27 Y-1447.79 I-9.12 J-9.12
M08
G40
M51
M93
G00 X1733.73 Y-1453.16
M94 F1719
G41 D21
N155 M07
G01 X1737.69 Y-1449.20
M50
G03 X1728.56 Y-1445.42 I-9.12 J-9.12
G03 X1715.66 Y-1458.32 I0.00 J-12.90
G03 X1728.56 Y-1471.22 I12.90 J0.00
G03 X1741.46 Y-1458.32 I0.00 J12.90
G03 X1737.69 Y-1449.20 I-12.90 J0.00
G03 X1736.01 Y-1447.79 I-9.12 J-9.12
M08
G40
M51
M93
G00 X2036.46 Y-1463.49
M94 F1719
G41 D21
N156 M07
G01 X2040.42 Y-1467.45
M50
G03 X2044.20 Y-1458.32 I-9.12 J9.12
G03 X2031.30 Y-1445.42 I-12.90 J0.00
G03 X2018.40 Y-1458.32 I0.00 J-12.90
G03 X2031.30 Y-1471.22 I12.90 J0.00
G03 X2040.42 Y-1467.45 I0.00 J12.90
G03 X2041.84 Y-1465.77 I-9.12 J9.12
M08
G40
M51
M93
G00 X2339.20 Y-1463.49
M94 F1719
G41 D21
N157 M07
G01 X2343.16 Y-1467.45
M50
G03 X2346.94 Y-1458.32 I-9.12 J9.12
G03 X2334.04 Y-1445.42 I-12.90 J0.00
G03 X2321.14 Y-1458.32 I0.00 J-12.90
G03 X2334.04 Y-1471.22 I12.90 J0.00
G03 X2343.16 Y-1467.45 I0.00 J12.90
G03 X2344.58 Y-1465.77 I-9.12 J9.12
M08
G40
M51
M93
G00 X2179.40 Y-1990.00
M94 F2750
G41 D21
N158 M07
G01 X2179.40 Y-1984.40
G01 X2179.40 Y-1950.90
G03 X2169.40 Y-1940.90 I-10.00 J0.00
G01 X1846.41 Y-1940.90
G03 X1836.41 Y-1950.90 I0.00 J-10.00
G01 X1836.41 Y-1984.40
G01 X1807.36 Y-1984.40
G03 X1800.57 Y-1969.98 I-21.40 J-1.27
G03 X1784.77 Y-1961.27 I-21.67 J-20.62
G03 X1752.52 Y-1967.92 I-9.00 J-37.87
G03 X1743.87 Y-1981.68 I17.55 J-20.63
G01 X1743.50 Y-1984.40
G01 X1714.44 Y-1984.40
G01 X1714.44 Y-1950.90
G03 X1704.44 Y-1940.90 I-10.00 J0.00
G01 X1381.45 Y-1940.90
G03 X1371.45 Y-1950.90 I0.00 J-10.00
G01 X1371.45 Y-1984.40
G01 X1341.45 Y-1984.40
G01 X1341.45 Y-1950.90
G03 X1331.45 Y-1940.90 I-10.00 J0.00
G01 X1221.76 Y-1940.90
G01 X1221.76 Y-1406.86
G01 X1331.45 Y-1406.86
G03 X1341.45 Y-1396.86 I0.00 J10.00
G01 X1341.45 Y-1363.36
G01 X1371.45 Y-1363.36
G01 X1371.45 Y-1396.86
G03 X1381.45 Y-1406.86 I10.00 J0.00
G01 X1704.44 Y-1406.86
G03 X1714.44 Y-1396.86 I0.00 J10.00
G01 X1714.44 Y-1363.36
G01 X1743.50 Y-1363.36
G03 X1750.28 Y-1377.78 I21.40 J1.27
G03 X1766.08 Y-1386.49 I21.67 J20.62
G03 X1798.33 Y-1379.84 I9.00 J37.87
G03 X1806.98 Y-1366.08 I-17.55 J20.63
G01 X1807.36 Y-1363.36
G01 X1836.41 Y-1363.36
G01 X1836.41 Y-1396.86
G03 X1846.41 Y-1406.86 I10.00 J0.00
G01 X2169.40 Y-1406.86
G03 X2179.40 Y-1396.86 I0.00 J10.00
G01 X2179.40 Y-1363.36
G01 X2209.40 Y-1363.36
G01 X2209.40 Y-1396.86
G03 X2219.40 Y-1406.86 I10.00 J0.00
G01 X2430.71 Y-1406.86
G01 X2430.71 Y-1940.90
G01 X2219.40 Y-1940.90
G03 X2209.40 Y-1950.90 I0.00 J-10.00
G01 X2209.40 Y-1984.40
G01 X2180.50 Y-1984.40
M50
G01 X2179.40 Y-1984.40
G03 X2177.40 Y-1986.40 I0.00 J-2.00
M08
G40
M51
M93
G00 X1827.67 Y-1048.35
M94 F1581
G41 D21
N159 M07
G01 X1833.27 Y-1048.35
M50
G03 X1830.27 Y-1045.35 I-3.00 J-0.00
G01 X1774.67 Y-1045.35
G03 X1771.67 Y-1048.35 I0.00 J-3.00
G03 X1774.67 Y-1051.35 I3.00 J0.00
G01 X1830.27 Y-1051.35
G03 X1833.27 Y-1048.35 I-0.00 J3.00
G03 X1832.50 Y-1046.35 I-3.00 J-0.00
M08
G40
M51
M93
G00 X1975.51 Y-1048.35
M94 F1581
G41 D21
N160 M07
G01 X1981.11 Y-1048.35
M50
G03 X1978.11 Y-1045.35 I-3.00 J-0.00
G01 X1922.51 Y-1045.35
G03 X1919.51 Y-1048.35 I0.00 J-3.00
G03 X1922.51 Y-1051.35 I3.00 J0.00
G01 X1978.11 Y-1051.35
G03 X1981.11 Y-1048.35 I0.00 J3.00
G03 X1980.34 Y-1046.35 I-3.00 J-0.00
M08
G40
M51
M93
G00 X2123.35 Y-1048.35
M94 F1581
G41 D21
N161 M07
G01 X2128.95 Y-1048.35
M50
G03 X2125.95 Y-1045.35 I-3.00 J0.00
G01 X2070.35 Y-1045.35
G03 X2067.35 Y-1048.35 I0.00 J-3.00
G03 X2070.35 Y-1051.35 I3.00 J0.00
G01 X2125.95 Y-1051.35
G03 X2128.95 Y-1048.35 I0.00 J3.00
G03 X2128.18 Y-1046.35 I-3.00 J0.00
M08
G40
M51
M93
G00 X2271.19 Y-1048.35
M94 F1581
G41 D21
N162 M07
G01 X2276.79 Y-1048.35
M50
G03 X2273.79 Y-1045.35 I-3.00 J-0.00
G01 X2218.19 Y-1045.35
G03 X2215.19 Y-1048.35 I0.00 J-3.00
G03 X2218.19 Y-1051.35 I3.00 J0.00
G01 X2273.79 Y-1051.35
G03 X2276.79 Y-1048.35 I-0.00 J3.00
G03 X2276.02 Y-1046.35 I-3.00 J0.00
M08
G40
M51
M93
G00 X2419.03 Y-1048.35
M94 F1581
G41 D21
N163 M07
G01 X2424.63 Y-1048.35
M50
G03 X2421.63 Y-1045.35 I-3.00 J-0.00
G01 X2366.03 Y-1045.35
G03 X2363.03 Y-1048.35 I0.00 J-3.00
G03 X2366.03 Y-1051.35 I3.00 J0.00
G01 X2421.63 Y-1051.35
G03 X2424.63 Y-1048.35 I0.00 J3.00
G03 X2423.86 Y-1046.35 I-3.00 J0.00
M08
G40
M51
M93
G00 X2566.87 Y-1048.35
M94 F1581
G41 D21
N164 M07
G01 X2572.47 Y-1048.35
M50
G03 X2569.47 Y-1045.35 I-3.00 J0.00
G01 X2513.87 Y-1045.35
G03 X2510.87 Y-1048.35 I0.00 J-3.00
G03 X2513.87 Y-1051.35 I3.00 J0.00
G01 X2569.47 Y-1051.35
G03 X2572.47 Y-1048.35 I0.00 J3.00
G03 X2571.70 Y-1046.35 I-3.00 J-0.00
M08
G40
M51
M93
G00 X2640.79 Y-1048.35
M94 F1581
G41 D21
N165 M07
G01 X2646.39 Y-1048.35
M50
G03 X2643.39 Y-1045.35 I-3.00 J0.00
G01 X2587.79 Y-1045.35
G03 X2584.79 Y-1048.35 I0.00 J-3.00
G03 X2587.79 Y-1051.35 I3.00 J0.00
G01 X2643.39 Y-1051.35
G03 X2646.39 Y-1048.35 I0.00 J3.00
G03 X2645.62 Y-1046.35 I-3.00 J0.00
M08
G40
M51
M93
G00 X2492.95 Y-1048.35
M94 F1581
G41 D21
N166 M07
G01 X2498.55 Y-1048.35
M50
G03 X2495.55 Y-1045.35 I-3.00 J-0.00
G01 X2439.95 Y-1045.35
G03 X2436.95 Y-1048.35 I0.00 J-3.00
G03 X2439.95 Y-1051.35 I3.00 J0.00
G01 X2495.55 Y-1051.35
G03 X2498.55 Y-1048.35 I0.00 J3.00
G03 X2497.78 Y-1046.35 I-3.00 J0.00
M08
G40
M51
M93
G00 X2345.11 Y-1048.35
M94 F1581
G41 D21
N167 M07
G01 X2350.71 Y-1048.35
M50
G03 X2347.71 Y-1045.35 I-3.00 J0.00
G01 X2292.11 Y-1045.35
G03 X2289.11 Y-1048.35 I0.00 J-3.00
G03 X2292.11 Y-1051.35 I3.00 J0.00
G01 X2347.71 Y-1051.35
G03 X2350.71 Y-1048.35 I-0.00 J3.00
G03 X2349.94 Y-1046.35 I-3.00 J-0.00
M08
G40
M51
M93
G00 X2197.27 Y-1048.35
M94 F1581
G41 D21
N168 M07
G01 X2202.87 Y-1048.35
M50
G03 X2199.87 Y-1045.35 I-3.00 J-0.00
G01 X2144.27 Y-1045.35
G03 X2141.27 Y-1048.35 I0.00 J-3.00
G03 X2144.27 Y-1051.35 I3.00 J0.00
G01 X2199.87 Y-1051.35
G03 X2202.87 Y-1048.35 I-0.00 J3.00
G03 X2202.10 Y-1046.35 I-3.00 J-0.00
M08
G40
M51
M93
G00 X2049.43 Y-1048.35
M94 F1581
G41 D21
N169 M07
G01 X2055.03 Y-1048.35
M50
G03 X2052.03 Y-1045.35 I-3.00 J0.00
G01 X1996.43 Y-1045.35
G03 X1993.43 Y-1048.35 I0.00 J-3.00
G03 X1996.43 Y-1051.35 I3.00 J0.00
G01 X2052.03 Y-1051.35
G03 X2055.03 Y-1048.35 I0.00 J3.00
G03 X2054.26 Y-1046.35 I-3.00 J-0.00
M08
G40
M51
M93
G00 X1901.59 Y-1048.35
M94 F1581
G41 D21
N170 M07
G01 X1907.19 Y-1048.35
M50
G03 X1904.19 Y-1045.35 I-3.00 J-0.00
G01 X1848.59 Y-1045.35
G03 X1845.59 Y-1048.35 I0.00 J-3.00
G03 X1848.59 Y-1051.35 I3.00 J0.00
G01 X1904.19 Y-1051.35
G03 X1907.19 Y-1048.35 I0.00 J3.00
G03 X1906.42 Y-1046.35 I-3.00 J0.00
M08
G40
M51
M93
G00 X1753.75 Y-1048.35
M94 F1581
G41 D21
N171 M07
G01 X1759.35 Y-1048.35
M50
G03 X1756.35 Y-1045.35 I-3.00 J-0.00
G01 X1700.75 Y-1045.35
G03 X1697.75 Y-1048.35 I0.00 J-3.00
G03 X1700.75 Y-1051.35 I3.00 J0.00
G01 X1756.35 Y-1051.35
G03 X1759.35 Y-1048.35 I-0.00 J3.00
G03 X1758.58 Y-1046.35 I-3.00 J-0.00
M08
G40
M51
M93
G00 X1657.09 Y-1189.73
M94 F1788
G41 D21
N172 M07
G01 X1662.67 Y-1189.35
M50
G03 X1659.66 Y-1181.45 I-10.69 J0.45
G03 X1639.09 Y-1181.79 I-10.15 J-8.43
G03 X1643.45 Y-1202.52 I11.05 J-8.50
G03 X1662.19 Y-1194.47 I6.16 J11.50
G01 X1662.79 Y-1191.07
G01 X1662.67 Y-1189.35
G01 X1662.55 Y-1187.63
M08
G40
M51
M93
G00 X1959.82 Y-1189.73
M94 F1788
G41 D21
N173 M07
G01 X1965.41 Y-1189.35
M50
G03 X1962.40 Y-1181.45 I-10.69 J0.45
G03 X1941.83 Y-1181.79 I-10.15 J-8.43
G03 X1946.18 Y-1202.52 I11.05 J-8.50
G03 X1964.92 Y-1194.47 I6.16 J11.50
G01 X1965.53 Y-1191.07
G01 X1965.41 Y-1189.35
G01 X1965.29 Y-1187.63
M08
G40
M51
M93
G00 X2262.56 Y-1189.73
M94 F1788
G41 D21
N174 M07
G01 X2268.15 Y-1189.35
M50
G03 X2265.14 Y-1181.45 I-10.69 J0.45
G03 X2244.57 Y-1181.79 I-10.15 J-8.43
G03 X2248.92 Y-1202.52 I11.05 J-8.50
G03 X2267.66 Y-1194.47 I6.16 J11.50
G01 X2268.26 Y-1191.07
G01 X2268.15 Y-1189.35
G01 X2268.03 Y-1187.63
M08
G40
M51
M93
G00 X2565.30 Y-1189.73
M94 F1788
G41 D21
N175 M07
G01 X2570.88 Y-1189.35
M50
G03 X2567.87 Y-1181.45 I-10.69 J0.45
G03 X2547.31 Y-1181.79 I-10.15 J-8.43
G03 X2551.66 Y-1202.52 I11.05 J-8.50
G03 X2570.40 Y-1194.47 I6.16 J11.50
G01 X2571.00 Y-1191.07
G01 X2570.88 Y-1189.35
G01 X2570.76 Y-1187.63
M08
G40
M51
M93
G00 X2624.71 Y-998.04
M94 F1375
G41 D21
N176 M07
G01 X2628.67 Y-994.08
M50
G03 X2623.89 Y-992.10 I-4.77 J-4.77
G03 X2617.14 Y-998.85 I0.00 J-6.75
G03 X2623.89 Y-1005.60 I6.75 J0.00
G03 X2630.64 Y-998.85 I0.00 J6.75
G03 X2628.67 Y-994.08 I-6.75 J-0.00
G03 X2626.89 Y-992.80 I-4.77 J-4.77
M08
G40
M51
M93
G00 X2572.71 Y-999.67
M94 F1375
G41 D21
N177 M07
G01 X2576.67 Y-1003.63
M50
G03 X2578.64 Y-998.85 I-4.77 J4.77
G03 X2571.89 Y-992.10 I-6.75 J0.00
G03 X2565.14 Y-998.85 I0.00 J-6.75
G03 X2571.89 Y-1005.60 I6.75 J0.00
G03 X2576.67 Y-1003.63 I-0.00 J6.75
G03 X2577.94 Y-1001.85 I-4.77 J4.77
M08
G40
M51
M93
G00 X2455.49 Y-827.64
M94 F1719
G41 D21
N178 M07
G01 X2459.45 Y-823.68
M50
G03 X2450.33 Y-819.90 I-9.12 J-9.12
G03 X2437.43 Y-832.80 I0.00 J-12.90
G03 X2450.33 Y-845.70 I12.90 J0.00
G03 X2463.23 Y-832.80 I0.00 J12.90
G03 X2459.45 Y-823.68 I-12.90 J-0.00
G03 X2457.77 Y-822.26 I-9.12 J-9.12
M08
G40
M51
M93
G00 X2152.75 Y-827.64
M94 F1719
G41 D21
N179 M07
G01 X2156.71 Y-823.68
M50
G03 X2147.59 Y-819.90 I-9.12 J-9.12
G03 X2134.69 Y-832.80 I0.00 J-12.90
G03 X2147.59 Y-845.70 I12.90 J0.00
G03 X2160.49 Y-832.80 I0.00 J12.90
G03 X2156.71 Y-823.68 I-12.90 J-0.00
G03 X2155.03 Y-822.26 I-9.12 J-9.12
M08
G40
M51
M93
G00 X1850.02 Y-837.96
M94 F1719
G41 D21
N180 M07
G01 X1853.98 Y-841.92
M50
G03 X1857.76 Y-832.80 I-9.12 J9.12
G03 X1844.86 Y-819.90 I-12.90 J-0.00
G03 X1831.96 Y-832.80 I0.00 J-12.90
G03 X1844.86 Y-845.70 I12.90 J0.00
G03 X1853.98 Y-841.92 I0.00 J12.90
G03 X1855.39 Y-840.24 I-9.12 J9.12
M08
G40
M51
M93
G00 X1547.28 Y-827.64
M94 F1719
G41 D21
N181 M07
G01 X1551.24 Y-823.68
M50
G03 X1542.12 Y-819.90 I-9.12 J-9.12
G03 X1529.22 Y-832.80 I0.00 J-12.90
G03 X1542.12 Y-845.70 I12.90 J0.00
G03 X1555.02 Y-832.80 I0.00 J12.90
G03 X1551.24 Y-823.68 I-12.90 J-0.00
G03 X1549.56 Y-822.26 I-9.12 J-9.12
M08
G40
M51
M93
G00 X2624.71 Y-847.54
M94 F1375
G41 D21
N182 M07
G01 X2628.67 Y-843.58
M50
G03 X2623.89 Y-841.60 I-4.77 J-4.77
G03 X2617.14 Y-848.35 I0.00 J-6.75
G03 X2623.89 Y-855.10 I6.75 J0.00
G03 X2630.64 Y-848.35 I0.00 J6.75
G03 X2628.67 Y-843.58 I-6.75 J-0.00
G03 X2626.89 Y-842.30 I-4.77 J-4.77
M08
G40
M51
M93
G00 X2572.71 Y-849.16
M94 F1375
G41 D21
N183 M07
G01 X2576.67 Y-853.12
M50
G03 X2578.64 Y-848.35 I-4.77 J4.77
G03 X2571.89 Y-841.60 I-6.75 J0.00
G03 X2565.14 Y-848.35 I0.00 J-6.75
G03 X2571.89 Y-855.10 I6.75 J0.00
G03 X2576.67 Y-853.12 I-0.00 J6.75
G03 X2577.94 Y-851.35 I-4.77 J4.77
M08
G40
M51
M93
G00 X2565.31 Y-906.71
M94 F1788
G41 D21
N184 M07
G01 X2570.91 Y-906.93
M50
G03 X2568.76 Y-898.74 I-10.61 J1.59
G03 X2551.29 Y-894.39 I-11.11 J-7.36
G03 X2545.75 Y-912.36 I6.64 J-11.88
G03 X2562.84 Y-919.05 I12.14 J5.83
G03 X2569.88 Y-911.96 I-5.27 J12.27
G01 X2570.84 Y-908.65
G01 X2570.91 Y-906.93
G01 X2570.97 Y-905.20
M08
G40
M51
M93
G00 X2262.57 Y-906.71
M94 F1788
G41 D21
N185 M07
G01 X2268.17 Y-906.93
M50
G03 X2266.02 Y-898.74 I-10.61 J1.59
G03 X2248.55 Y-894.39 I-11.11 J-7.36
G03 X2243.01 Y-912.36 I6.64 J-11.88
G03 X2260.10 Y-919.05 I12.14 J5.83
G03 X2267.14 Y-911.96 I-5.27 J12.27
G01 X2268.10 Y-908.65
G01 X2268.17 Y-906.93
G01 X2268.24 Y-905.20
M08
G40
M51
M93
G00 X1959.84 Y-906.71
M94 F1788
G41 D21
N186 M07
G01 X1965.43 Y-906.93
M50
G03 X1963.28 Y-898.74 I-10.61 J1.59
G03 X1945.81 Y-894.39 I-11.11 J-7.36
G03 X1940.27 Y-912.36 I6.64 J-11.88
G03 X1957.36 Y-919.05 I12.14 J5.83
G03 X1964.40 Y-911.96 I-5.27 J12.27
G01 X1965.37 Y-908.65
G01 X1965.43 Y-906.93
G01 X1965.50 Y-905.20
M08
G40
M51
M93
G00 X1657.10 Y-906.71
M94 F1788
G41 D21
N187 M07
G01 X1662.70 Y-906.93
M50
G03 X1660.55 Y-898.74 I-10.61 J1.59
G03 X1643.07 Y-894.39 I-11.11 J-7.36
G03 X1637.53 Y-912.36 I6.64 J-11.88
G03 X1654.63 Y-919.05 I12.14 J5.83
G03 X1661.66 Y-911.96 I-5.27 J12.27
G01 X1662.63 Y-908.65
G01 X1662.70 Y-906.93
G01 X1662.76 Y-905.20
M08
G40
M51
M93
G00 X2572.71 Y-1098.67
M94 F1375
G41 D21
N188 M07
G01 X2576.67 Y-1102.63
M50
G03 X2578.64 Y-1097.85 I-4.77 J4.77
G03 X2571.89 Y-1091.10 I-6.75 J0.00
G03 X2565.14 Y-1097.85 I0.00 J-6.75
G03 X2571.89 Y-1104.60 I6.75 J0.00
G03 X2576.67 Y-1102.63 I-0.00 J6.75
G03 X2577.94 Y-1100.85 I-4.77 J4.77
M08
G40
M51
M93
G00 X2624.71 Y-1098.67
M94 F1375
G41 D21
N189 M07
G01 X2628.67 Y-1102.63
M50
G03 X2630.64 Y-1097.85 I-4.77 J4.77
G03 X2623.89 Y-1091.10 I-6.75 J0.00
G03 X2617.14 Y-1097.85 I0.00 J-6.75
G03 X2623.89 Y-1104.60 I6.75 J0.00
G03 X2628.67 Y-1102.63 I-0.00 J6.75
G03 X2629.94 Y-1100.85 I-4.77 J4.77
M08
G40
M51
M93
G00 X2572.71 Y-1247.54
M94 F1375
G41 D21
N190 M07
G01 X2576.67 Y-1243.58
M50
G03 X2571.89 Y-1241.61 I-4.77 J-4.77
G03 X2565.14 Y-1248.36 I0.00 J-6.75
G03 X2571.89 Y-1255.11 I6.75 J0.00
G03 X2578.64 Y-1248.36 I0.00 J6.75
G03 X2576.67 Y-1243.58 I-6.75 J-0.00
G03 X2574.89 Y-1242.31 I-4.77 J-4.77
M08
G40
M51
M93
G00 X2624.71 Y-1247.54
M94 F1375
G41 D21
N191 M07
G01 X2628.67 Y-1243.58
M50
G03 X2623.89 Y-1241.61 I-4.77 J-4.77
G03 X2617.14 Y-1248.36 I0.00 J-6.75
G03 X2623.89 Y-1255.11 I6.75 J0.00
G03 X2630.64 Y-1248.36 I0.00 J6.75
G03 X2628.67 Y-1243.58 I-6.75 J-0.00
G03 X2626.89 Y-1242.31 I-4.77 J-4.77
M08
G40
M51
M93
G00 X1547.28 Y-1258.75
M94 F1719
G41 D21
N192 M07
G01 X1551.24 Y-1254.79
M50
G03 X1542.12 Y-1251.01 I-9.12 J-9.12
G03 X1529.22 Y-1263.91 I0.00 J-12.90
G03 X1542.12 Y-1276.81 I12.90 J0.00
G03 X1555.02 Y-1263.91 I0.00 J12.90
G03 X1551.24 Y-1254.79 I-12.90 J0.00
G03 X1549.56 Y-1253.37 I-9.12 J-9.12
M08
G40
M51
M93
G00 X1850.02 Y-1269.07
M94 F1719
G41 D21
N193 M07
G01 X1853.98 Y-1273.03
M50
G03 X1857.76 Y-1263.91 I-9.12 J9.12
G03 X1844.86 Y-1251.01 I-12.90 J0.00
G03 X1831.96 Y-1263.91 I0.00 J-12.90
G03 X1844.86 Y-1276.81 I12.90 J0.00
G03 X1853.98 Y-1273.03 I0.00 J12.90
G03 X1855.39 Y-1271.35 I-9.12 J9.12
M08
G40
M51
M93
G00 X2152.75 Y-1269.07
M94 F1719
G41 D21
N194 M07
G01 X2156.71 Y-1273.03
M50
G03 X2160.49 Y-1263.91 I-9.12 J9.12
G03 X2147.59 Y-1251.01 I-12.90 J0.00
G03 X2134.69 Y-1263.91 I0.00 J-12.90
G03 X2147.59 Y-1276.81 I12.90 J0.00
G03 X2156.71 Y-1273.03 I0.00 J12.90
G03 X2158.13 Y-1271.35 I-9.12 J9.12
M08
G40
M51
M93
G00 X2455.49 Y-1258.75
M94 F1719
G41 D21
N195 M07
G01 X2459.45 Y-1254.79
M50
G03 X2450.33 Y-1251.01 I-9.12 J-9.12
G03 X2437.43 Y-1263.91 I0.00 J-12.90
G03 X2450.33 Y-1276.81 I12.90 J0.00
G03 X2463.23 Y-1263.91 I0.00 J12.90
G03 X2459.45 Y-1254.79 I-12.90 J0.00
G03 X2457.77 Y-1253.37 I-9.12 J-9.12
M08
G40
M51
M93
G00 X2171.41 Y-1320.97
M94 F2750
G41 D21
N196 M07
G01 X2171.41 Y-1315.37
G03 X2161.41 Y-1325.37 I0.00 J-10.00
G01 X2161.41 Y-1358.87
G01 X2132.36 Y-1358.87
G03 X2125.63 Y-1344.61 I-21.19 J-1.27
G03 X2109.98 Y-1335.98 I-21.46 J-20.44
G03 X2078.05 Y-1342.57 I-8.91 J-37.52
G03 X2069.48 Y-1356.18 I17.37 J-20.45
G01 X2069.10 Y-1358.87
G01 X2040.05 Y-1358.87
G01 X2040.05 Y-1325.37
G03 X2030.05 Y-1315.37 I-10.00 J0.00
G01 X1707.28 Y-1315.37
G03 X1697.28 Y-1325.37 I0.00 J-10.00
G01 X1697.28 Y-1358.87
G01 X1334.39 Y-1358.87
G01 X1334.39 Y-1304.12
G02 X1335.48 Y-1301.72 I2.70 J0.22
G02 X1338.27 Y-1299.48 I6.11 J-4.74
G02 X1343.43 Y-1296.60 I17.21 J-24.79
G02 X1344.29 Y-1296.16 I153.16 J-297.48
G01 X1461.98 Y-1215.87
G03 X1464.39 Y-1214.63 I-4141.54 J8004.72
G01 X1583.22 Y-1131.05
G03 X1585.48 Y-1129.81 I-47.43 J88.80
G01 X1683.66 Y-1053.82
G03 X1687.80 Y-1050.75 I-19.47 J30.52
G03 X1688.86 Y-1048.18 I-4.52 J3.39
G03 X1687.71 Y-1045.88 I-2.84 J0.02
G03 X1684.78 Y-1043.57 I-6.85 J-5.68
G03 X1683.66 Y-1042.88 I-17.37 J-27.37
G01 X1585.48 Y-966.90
G03 X1583.22 Y-965.65 I-22.23 J-37.68
G01 X1464.39 Y-882.08
G03 X1461.98 Y-880.83 I-50.16 J-93.96
G01 X1344.29 Y-800.55
G02 X1338.18 Y-797.17 I1791.24 J3250.65
G02 X1335.07 Y-794.45 I13.79 J18.91
G02 X1334.39 Y-792.58 I4.01 J2.50
G01 X1334.39 Y-737.83
G01 X1697.28 Y-737.83
G01 X1697.28 Y-771.33
G03 X1707.28 Y-781.33 I10.00 J0.00
G01 X2030.05 Y-781.33
G03 X2040.05 Y-771.33 I0.00 J10.00
G01 X2040.05 Y-737.83
G01 X2069.10 Y-737.83
G03 X2075.83 Y-752.10 I21.19 J1.27
G03 X2091.48 Y-760.72 I21.46 J20.44
G03 X2123.41 Y-754.14 I8.91 J37.52
G03 X2131.98 Y-740.53 I-17.37 J20.45
G01 X2132.36 Y-737.83
G01 X2161.41 Y-737.83
G01 X2161.41 Y-771.33
G03 X2171.41 Y-781.33 I10.00 J0.00
G01 X2494.18 Y-781.33
G03 X2504.18 Y-771.33 I0.00 J10.00
G01 X2504.18 Y-737.83
G01 X2534.18 Y-737.83
G01 X2534.18 Y-771.33
G03 X2544.18 Y-781.33 I10.00 J0.00
G01 X2654.39 Y-781.33
G01 X2654.39 Y-1315.37
G01 X2544.18 Y-1315.37
G03 X2534.18 Y-1325.37 I0.00 J-10.00
G01 X2534.18 Y-1358.87
G01 X2504.18 Y-1358.87
G01 X2504.18 Y-1325.37
G03 X2494.18 Y-1315.37 I-10.00 J0.00
G01 X2172.51 Y-1315.37
M50
G01 X2171.41 Y-1315.37
G03 X2169.41 Y-1317.37 I0.00 J-2.00
M08
G40
M51
M93
G00 X1827.67 Y-423.05
M94 F1581
G41 D21
N197 M07
G01 X1833.27 Y-423.05
M50
G03 X1830.27 Y-420.05 I-3.00 J-0.00
G01 X1774.67 Y-420.05
G03 X1771.67 Y-423.05 I0.00 J-3.00
G03 X1774.67 Y-426.05 I3.00 J0.00
G01 X1830.27 Y-426.05
G03 X1833.27 Y-423.05 I0.00 J3.00
G03 X1832.50 Y-421.04 I-3.00 J-0.00
M08
G40
M51
M93
G00 X1975.51 Y-423.05
M94 F1581
G41 D21
N198 M07
G01 X1981.11 Y-423.05
M50
G03 X1978.11 Y-420.05 I-3.00 J-0.00
G01 X1922.51 Y-420.05
G03 X1919.51 Y-423.05 I0.00 J-3.00
G03 X1922.51 Y-426.05 I3.00 J0.00
G01 X1978.11 Y-426.05
G03 X1981.11 Y-423.05 I0.00 J3.00
G03 X1980.34 Y-421.04 I-3.00 J-0.00
M08
G40
M51
M93
G00 X2123.35 Y-423.05
M94 F1581
G41 D21
N199 M07
G01 X2128.95 Y-423.05
M50
G03 X2125.95 Y-420.05 I-3.00 J0.00
G01 X2070.35 Y-420.05
G03 X2067.35 Y-423.05 I0.00 J-3.00
G03 X2070.35 Y-426.05 I3.00 J0.00
G01 X2125.95 Y-426.05
G03 X2128.95 Y-423.05 I-0.00 J3.00
G03 X2128.18 Y-421.04 I-3.00 J0.00
M08
G40
M51
M93
G00 X2271.19 Y-423.05
M94 F1581
G41 D21
N200 M07
G01 X2276.79 Y-423.05
M50
G03 X2273.79 Y-420.05 I-3.00 J0.00
G01 X2218.19 Y-420.05
G03 X2215.19 Y-423.05 I0.00 J-3.00
G03 X2218.19 Y-426.05 I3.00 J0.00
G01 X2273.79 Y-426.05
G03 X2276.79 Y-423.05 I-0.00 J3.00
G03 X2276.02 Y-421.04 I-3.00 J0.00
M08
G40
M51
M93
G00 X2419.03 Y-423.05
M94 F1581
G41 D21
N201 M07
G01 X2424.63 Y-423.05
M50
G03 X2421.63 Y-420.05 I-3.00 J0.00
G01 X2366.03 Y-420.05
G03 X2363.03 Y-423.05 I0.00 J-3.00
G03 X2366.03 Y-426.05 I3.00 J0.00
G01 X2421.63 Y-426.05
G03 X2424.63 Y-423.05 I0.00 J3.00
G03 X2423.86 Y-421.04 I-3.00 J0.00
M08
G40
M51
M93
G00 X2566.87 Y-423.05
M94 F1581
G41 D21
N202 M07
G01 X2572.47 Y-423.05
M50
G03 X2569.47 Y-420.05 I-3.00 J0.00
G01 X2513.87 Y-420.05
G03 X2510.87 Y-423.05 I0.00 J-3.00
G03 X2513.87 Y-426.05 I3.00 J0.00
G01 X2569.47 Y-426.05
G03 X2572.47 Y-423.05 I0.00 J3.00
G03 X2571.70 Y-421.04 I-3.00 J-0.00
M08
G40
M51
M93
G00 X2640.79 Y-423.05
M94 F1581
G41 D21
N203 M07
G01 X2646.39 Y-423.05
M50
G03 X2643.39 Y-420.05 I-3.00 J0.00
G01 X2587.79 Y-420.05
G03 X2584.79 Y-423.05 I0.00 J-3.00
G03 X2587.79 Y-426.05 I3.00 J0.00
G01 X2643.39 Y-426.05
G03 X2646.39 Y-423.05 I0.00 J3.00
G03 X2645.62 Y-421.04 I-3.00 J0.00
M08
G40
M51
M93
G00 X2492.95 Y-423.05
M94 F1581
G41 D21
N204 M07
G01 X2498.55 Y-423.05
M50
G03 X2495.55 Y-420.05 I-3.00 J0.00
G01 X2439.95 Y-420.05
G03 X2436.95 Y-423.05 I0.00 J-3.00
G03 X2439.95 Y-426.05 I3.00 J0.00
G01 X2495.55 Y-426.05
G03 X2498.55 Y-423.05 I0.00 J3.00
G03 X2497.78 Y-421.04 I-3.00 J0.00
M08
G40
M51
M93
G00 X2345.11 Y-423.05
M94 F1581
G41 D21
N205 M07
G01 X2350.71 Y-423.05
M50
G03 X2347.71 Y-420.05 I-3.00 J0.00
G01 X2292.11 Y-420.05
G03 X2289.11 Y-423.05 I0.00 J-3.00
G03 X2292.11 Y-426.05 I3.00 J0.00
G01 X2347.71 Y-426.05
G03 X2350.71 Y-423.05 I-0.00 J3.00
G03 X2349.94 Y-421.04 I-3.00 J-0.00
M08
G40
M51
M93
G00 X2197.27 Y-423.05
M94 F1581
G41 D21
N206 M07
G01 X2202.87 Y-423.05
M50
G03 X2199.87 Y-420.05 I-3.00 J0.00
G01 X2144.27 Y-420.05
G03 X2141.27 Y-423.05 I0.00 J-3.00
G03 X2144.27 Y-426.05 I3.00 J0.00
G01 X2199.87 Y-426.05
G03 X2202.87 Y-423.05 I-0.00 J3.00
G03 X2202.10 Y-421.04 I-3.00 J0.00
M08
G40
M51
M93
G00 X2049.43 Y-423.05
M94 F1581
G41 D21
N207 M07
G01 X2055.03 Y-423.05
M50
G03 X2052.03 Y-420.05 I-3.00 J0.00
G01 X1996.43 Y-420.05
G03 X1993.43 Y-423.05 I0.00 J-3.00
G03 X1996.43 Y-426.05 I3.00 J0.00
G01 X2052.03 Y-426.05
G03 X2055.03 Y-423.05 I0.00 J3.00
G03 X2054.26 Y-421.04 I-3.00 J0.00
M08
G40
M51
M93
G00 X1901.59 Y-423.05
M94 F1581
G41 D21
N208 M07
G01 X1907.19 Y-423.05
M50
G03 X1904.19 Y-420.05 I-3.00 J-0.00
G01 X1848.59 Y-420.05
G03 X1845.59 Y-423.05 I0.00 J-3.00
G03 X1848.59 Y-426.05 I3.00 J0.00
G01 X1904.19 Y-426.05
G03 X1907.19 Y-423.05 I0.00 J3.00
G03 X1906.42 Y-421.04 I-3.00 J0.00
M08
G40
M51
M93
G00 X1753.75 Y-423.05
M94 F1581
G41 D21
N209 M07
G01 X1759.35 Y-423.05
M50
G03 X1756.35 Y-420.05 I-3.00 J-0.00
G01 X1700.75 Y-420.05
G03 X1697.75 Y-423.05 I0.00 J-3.00
G03 X1700.75 Y-426.05 I3.00 J0.00
G01 X1756.35 Y-426.05
G03 X1759.35 Y-423.05 I0.00 J3.00
G03 X1758.58 Y-421.04 I-3.00 J-0.00
M08
G40
M51
M93
G00 X1657.09 Y-564.43
M94 F1788
G41 D21
N210 M07
G01 X1662.67 Y-564.05
M50
G03 X1659.66 Y-556.15 I-10.69 J0.45
G03 X1639.09 Y-556.49 I-10.15 J-8.43
G03 X1643.45 Y-577.22 I11.05 J-8.50
G03 X1662.19 Y-569.17 I6.16 J11.50
G01 X1662.79 Y-565.77
G01 X1662.67 Y-564.05
G01 X1662.55 Y-562.33
M08
G40
M51
M93
G00 X1959.82 Y-564.43
M94 F1788
G41 D21
N211 M07
G01 X1965.41 Y-564.05
M50
G03 X1962.40 Y-556.15 I-10.69 J0.45
G03 X1941.83 Y-556.49 I-10.15 J-8.43
G03 X1946.18 Y-577.22 I11.05 J-8.50
G03 X1964.92 Y-569.17 I6.16 J11.50
G01 X1965.53 Y-565.77
G01 X1965.41 Y-564.05
G01 X1965.29 Y-562.33
M08
G40
M51
M93
G00 X2262.56 Y-564.43
M94 F1788
G41 D21
N212 M07
G01 X2268.15 Y-564.05
M50
G03 X2265.14 Y-556.15 I-10.69 J0.45
G03 X2244.57 Y-556.49 I-10.15 J-8.43
G03 X2248.92 Y-577.22 I11.05 J-8.50
G03 X2267.66 Y-569.17 I6.16 J11.50
G01 X2268.26 Y-565.77
G01 X2268.15 Y-564.05
G01 X2268.03 Y-562.33
M08
G40
M51
M93
G00 X2565.30 Y-564.43
M94 F1788
G41 D21
N213 M07
G01 X2570.88 Y-564.05
M50
G03 X2567.87 Y-556.15 I-10.69 J0.45
G03 X2547.31 Y-556.49 I-10.15 J-8.43
G03 X2551.66 Y-577.22 I11.05 J-8.50
G03 X2570.40 Y-569.17 I6.16 J11.50
G01 X2571.00 Y-565.77
G01 X2570.88 Y-564.05
G01 X2570.76 Y-562.33
M08
G40
M51
M93
G00 X2624.71 Y-372.74
M94 F1375
G41 D21
N214 M07
G01 X2628.67 Y-368.78
M50
G03 X2623.89 Y-366.80 I-4.77 J-4.77
G03 X2617.14 Y-373.55 I0.00 J-6.75
G03 X2623.89 Y-380.30 I6.75 J0.00
G03 X2630.64 Y-373.55 I0.00 J6.75
G03 X2628.67 Y-368.78 I-6.75 J-0.00
G03 X2626.89 Y-367.50 I-4.77 J-4.77
M08
G40
M51
M93
G00 X2572.71 Y-374.37
M94 F1375
G41 D21
N215 M07
G01 X2576.67 Y-378.33
M50
G03 X2578.64 Y-373.55 I-4.77 J4.77
G03 X2571.89 Y-366.80 I-6.75 J0.00
G03 X2565.14 Y-373.55 I0.00 J-6.75
G03 X2571.89 Y-380.30 I6.75 J0.00
G03 X2576.67 Y-378.33 I-0.00 J6.75
G03 X2577.94 Y-376.55 I-4.77 J4.77
M08
G40
M51
M93
G00 X2455.49 Y-202.34
M94 F1719
G41 D21
N216 M07
G01 X2459.45 Y-198.38
M50
G03 X2450.33 Y-194.60 I-9.12 J-9.12
G03 X2437.43 Y-207.50 I0.00 J-12.90
G03 X2450.33 Y-220.40 I12.90 J0.00
G03 X2463.23 Y-207.50 I0.00 J12.90
G03 X2459.45 Y-198.38 I-12.90 J-0.00
G03 X2457.77 Y-196.96 I-9.12 J-9.12
M08
G40
M51
M93
G00 X2152.75 Y-202.34
M94 F1719
G41 D21
N217 M07
G01 X2156.71 Y-198.38
M50
G03 X2147.59 Y-194.60 I-9.12 J-9.12
G03 X2134.69 Y-207.50 I0.00 J-12.90
G03 X2147.59 Y-220.40 I12.90 J0.00
G03 X2160.49 Y-207.50 I0.00 J12.90
G03 X2156.71 Y-198.38 I-12.90 J-0.00
G03 X2155.03 Y-196.96 I-9.12 J-9.12
M08
G40
M51
M93
G00 X1850.02 Y-212.66
M94 F1719
G41 D21
N218 M07
G01 X1853.98 Y-216.62
M50
G03 X1857.76 Y-207.50 I-9.12 J9.12
G03 X1844.86 Y-194.60 I-12.90 J-0.00
G03 X1831.96 Y-207.50 I0.00 J-12.90
G03 X1844.86 Y-220.40 I12.90 J0.00
G03 X1853.98 Y-216.62 I0.00 J12.90
G03 X1855.39 Y-214.94 I-9.12 J9.12
M08
G40
M51
M93
G00 X1547.28 Y-202.34
M94 F1719
G41 D21
N219 M07
G01 X1551.24 Y-198.38
M50
G03 X1542.12 Y-194.60 I-9.12 J-9.12
G03 X1529.22 Y-207.50 I0.00 J-12.90
G03 X1542.12 Y-220.40 I12.90 J0.00
G03 X1555.02 Y-207.50 I0.00 J12.90
G03 X1551.24 Y-198.38 I-12.90 J-0.00
G03 X1549.56 Y-196.96 I-9.12 J-9.12
M08
G40
M51
M93
G00 X2624.71 Y-222.24
M94 F1375
G41 D21
N220 M07
G01 X2628.67 Y-218.28
M50
G03 X2623.89 Y-216.30 I-4.77 J-4.77
G03 X2617.14 Y-223.05 I0.00 J-6.75
G03 X2623.89 Y-229.80 I6.75 J0.00
G03 X2630.64 Y-223.05 I0.00 J6.75
G03 X2628.67 Y-218.28 I-6.75 J-0.00
G03 X2626.89 Y-217.00 I-4.77 J-4.77
M08
G40
M51
M93
G00 X2572.71 Y-223.86
M94 F1375
G41 D21
N221 M07
G01 X2576.67 Y-227.82
M50
G03 X2578.64 Y-223.05 I-4.77 J4.77
G03 X2571.89 Y-216.30 I-6.75 J0.00
G03 X2565.14 Y-223.05 I0.00 J-6.75
G03 X2571.89 Y-229.80 I6.75 J0.00
G03 X2576.67 Y-227.82 I-0.00 J6.75
G03 X2577.94 Y-226.04 I-4.77 J4.77
M08
G40
M51
M93
G00 X2565.31 Y-281.41
M94 F1788
G41 D21
N222 M07
G01 X2570.91 Y-281.63
M50
G03 X2568.76 Y-273.44 I-10.61 J1.59
G03 X2551.29 Y-269.09 I-11.11 J-7.36
G03 X2545.75 Y-287.06 I6.64 J-11.88
G03 X2562.84 Y-293.75 I12.14 J5.83
G03 X2569.88 Y-286.66 I-5.27 J12.27
G01 X2570.84 Y-283.35
G01 X2570.91 Y-281.63
G01 X2570.97 Y-279.90
M08
G40
M51
M93
G00 X2262.57 Y-281.41
M94 F1788
G41 D21
N223 M07
G01 X2268.17 Y-281.63
M50
G03 X2266.02 Y-273.44 I-10.61 J1.59
G03 X2248.55 Y-269.09 I-11.11 J-7.36
G03 X2243.01 Y-287.06 I6.64 J-11.88
G03 X2260.10 Y-293.75 I12.14 J5.83
G03 X2267.14 Y-286.66 I-5.27 J12.27
G01 X2268.10 Y-283.35
G01 X2268.17 Y-281.63
G01 X2268.24 Y-279.90
M08
G40
M51
M93
G00 X1959.84 Y-281.41
M94 F1788
G41 D21
N224 M07
G01 X1965.43 Y-281.63
M50
G03 X1963.28 Y-273.44 I-10.61 J1.59
G03 X1945.81 Y-269.09 I-11.11 J-7.36
G03 X1940.27 Y-287.06 I6.64 J-11.88
G03 X1957.36 Y-293.75 I12.14 J5.83
G03 X1964.40 Y-286.66 I-5.27 J12.27
G01 X1965.37 Y-283.35
G01 X1965.43 Y-281.63
G01 X1965.50 Y-279.90
M08
G40
M51
M93
G00 X1657.10 Y-281.41
M94 F1788
G41 D21
N225 M07
G01 X1662.70 Y-281.63
M50
G03 X1660.55 Y-273.44 I-10.61 J1.59
G03 X1643.07 Y-269.09 I-11.11 J-7.36
G03 X1637.53 Y-287.06 I6.64 J-11.88
G03 X1654.63 Y-293.75 I12.14 J5.83
G03 X1661.66 Y-286.66 I-5.27 J12.27
G01 X1662.63 Y-283.35
G01 X1662.70 Y-281.63
G01 X1662.76 Y-279.90
M08
G40
M51
M93
G00 X2572.71 Y-473.37
M94 F1375
G41 D21
N226 M07
G01 X2576.67 Y-477.33
M50
G03 X2578.64 Y-472.55 I-4.77 J4.77
G03 X2571.89 Y-465.80 I-6.75 J0.00
G03 X2565.14 Y-472.55 I0.00 J-6.75
G03 X2571.89 Y-479.30 I6.75 J0.00
G03 X2576.67 Y-477.33 I-0.00 J6.75
G03 X2577.94 Y-475.55 I-4.77 J4.77
M08
G40
M51
M93
G00 X2624.71 Y-473.37
M94 F1375
G41 D21
N227 M07
G01 X2628.67 Y-477.33
M50
G03 X2630.64 Y-472.55 I-4.77 J4.77
G03 X2623.89 Y-465.80 I-6.75 J0.00
G03 X2617.14 Y-472.55 I0.00 J-6.75
G03 X2623.89 Y-479.30 I6.75 J0.00
G03 X2628.67 Y-477.33 I-0.00 J6.75
G03 X2629.94 Y-475.55 I-4.77 J4.77
M08
G40
M51
M93
G00 X2572.71 Y-622.24
M94 F1375
G41 D21
N228 M07
G01 X2576.67 Y-618.28
M50
G03 X2571.89 Y-616.30 I-4.77 J-4.77
G03 X2565.14 Y-623.05 I0.00 J-6.75
G03 X2571.89 Y-629.80 I6.75 J0.00
G03 X2578.64 Y-623.05 I0.00 J6.75
G03 X2576.67 Y-618.28 I-6.75 J-0.00
G03 X2574.89 Y-617.00 I-4.77 J-4.77
M08
G40
M51
M93
G00 X2624.71 Y-622.24
M94 F1375
G41 D21
N229 M07
G01 X2628.67 Y-618.28
M50
G03 X2623.89 Y-616.30 I-4.77 J-4.77
G03 X2617.14 Y-623.05 I0.00 J-6.75
G03 X2623.89 Y-629.80 I6.75 J0.00
G03 X2630.64 Y-623.05 I0.00 J6.75
G03 X2628.67 Y-618.28 I-6.75 J-0.00
G03 X2626.89 Y-617.00 I-4.77 J-4.77
M08
G40
M51
M93
G00 X1547.28 Y-633.45
M94 F1719
G41 D21
N230 M07
G01 X1551.24 Y-629.49
M50
G03 X1542.12 Y-625.71 I-9.12 J-9.12
G03 X1529.22 Y-638.61 I0.00 J-12.90
G03 X1542.12 Y-651.51 I12.90 J0.00
G03 X1555.02 Y-638.61 I0.00 J12.90
G03 X1551.24 Y-629.49 I-12.90 J-0.00
G03 X1549.56 Y-628.07 I-9.12 J-9.12
M08
G40
M51
M93
G00 X1850.02 Y-643.77
M94 F1719
G41 D21
N231 M07
G01 X1853.98 Y-647.73
M50
G03 X1857.76 Y-638.61 I-9.12 J9.12
G03 X1844.86 Y-625.71 I-12.90 J-0.00
G03 X1831.96 Y-638.61 I0.00 J-12.90
G03 X1844.86 Y-651.51 I12.90 J0.00
G03 X1853.98 Y-647.73 I0.00 J12.90
G03 X1855.39 Y-646.05 I-9.12 J9.12
M08
G40
M51
M93
G00 X2152.75 Y-643.77
M94 F1719
G41 D21
N232 M07
G01 X2156.71 Y-647.73
M50
G03 X2160.49 Y-638.61 I-9.12 J9.12
G03 X2147.59 Y-625.71 I-12.90 J-0.00
G03 X2134.69 Y-638.61 I0.00 J-12.90
G03 X2147.59 Y-651.51 I12.90 J0.00
G03 X2156.71 Y-647.73 I0.00 J12.90
G03 X2158.13 Y-646.05 I-9.12 J9.12
M08
G40
M51
M93
G00 X2455.49 Y-633.45
M94 F1719
G41 D21
N233 M07
G01 X2459.45 Y-629.49
M50
G03 X2450.33 Y-625.71 I-9.12 J-9.12
G03 X2437.43 Y-638.61 I0.00 J-12.90
G03 X2450.33 Y-651.51 I12.90 J0.00
G03 X2463.23 Y-638.61 I0.00 J12.90
G03 X2459.45 Y-629.49 I-12.90 J-0.00
G03 X2457.77 Y-628.07 I-9.12 J-9.12
M08
G40
M51
M93
G00 X2171.41 Y-695.67
M94 F2750
G41 D21
N234 M07
G01 X2171.41 Y-690.07
G03 X2161.41 Y-700.07 I0.00 J-10.00
G01 X2161.41 Y-733.57
G01 X2132.36 Y-733.57
G03 X2125.63 Y-719.30 I-21.19 J-1.27
G03 X2109.98 Y-710.68 I-21.46 J-20.44
G03 X2078.05 Y-717.27 I-8.91 J-37.52
G03 X2069.48 Y-730.88 I17.37 J-20.45
G01 X2069.10 Y-733.57
G01 X2040.05 Y-733.57
G01 X2040.05 Y-700.07
G03 X2030.05 Y-690.07 I-10.00 J0.00
G01 X1707.28 Y-690.07
G03 X1697.28 Y-700.07 I0.00 J-10.00
G01 X1697.28 Y-733.57
G01 X1334.39 Y-733.57
G01 X1334.39 Y-678.82
G02 X1335.48 Y-676.42 I2.70 J0.22
G02 X1338.27 Y-674.18 I6.11 J-4.74
G02 X1343.43 Y-671.30 I17.21 J-24.79
G02 X1344.29 Y-670.86 I153.16 J-297.48
G01 X1461.98 Y-590.57
G03 X1464.39 Y-589.33 I-4141.54 J8004.72
G01 X1583.22 Y-505.75
G03 X1585.48 Y-504.51 I-47.43 J88.80
G01 X1683.66 Y-428.52
G03 X1687.80 Y-425.45 I-19.47 J30.52
G03 X1688.86 Y-422.88 I-4.52 J3.39
G03 X1687.71 Y-420.57 I-2.84 J0.02
G03 X1684.78 Y-418.27 I-6.85 J-5.68
G03 X1683.66 Y-417.58 I-17.37 J-27.37
G01 X1585.48 Y-341.60
G03 X1583.22 Y-340.35 I-22.23 J-37.68
G01 X1464.39 Y-256.78
G03 X1461.98 Y-255.53 I-50.16 J-93.96
G01 X1344.29 Y-175.25
G02 X1338.18 Y-171.87 I1791.24 J3250.65
G02 X1335.07 Y-169.15 I13.79 J18.91
G02 X1334.39 Y-167.28 I4.01 J2.50
G01 X1334.39 Y-112.53
G01 X1697.28 Y-112.53
G01 X1697.28 Y-146.03
G03 X1707.28 Y-156.03 I10.00 J0.00
G01 X2030.05 Y-156.03
G03 X2040.05 Y-146.03 I0.00 J10.00
G01 X2040.05 Y-112.53
G01 X2069.10 Y-112.53
G03 X2075.83 Y-126.80 I21.19 J1.27
G03 X2091.48 Y-135.42 I21.46 J20.44
G03 X2123.41 Y-128.84 I8.91 J37.52
G03 X2131.98 Y-115.23 I-17.37 J20.45
G01 X2132.36 Y-112.53
G01 X2161.41 Y-112.53
G01 X2161.41 Y-146.03
G03 X2171.41 Y-156.03 I10.00 J0.00
G01 X2494.18 Y-156.03
G03 X2504.18 Y-146.03 I0.00 J10.00
G01 X2504.18 Y-112.53
G01 X2534.18 Y-112.53
G01 X2534.18 Y-146.03
G03 X2544.18 Y-156.03 I10.00 J0.00
G01 X2654.39 Y-156.03
G01 X2654.39 Y-690.07
G01 X2544.18 Y-690.07
G03 X2534.18 Y-700.07 I0.00 J-10.00
G01 X2534.18 Y-733.57
G01 X2504.18 Y-733.57
G01 X2504.18 Y-700.07
G03 X2494.18 Y-690.07 I-10.00 J0.00
G01 X2172.51 Y-690.07
M50
G01 X2171.41 Y-690.07
G03 X2169.41 Y-692.07 I0.00 J-2.00
M08
G40
M51
M93
(PlanFooterCommand)
M64
T0
M65
#CS OFF
M30
