(PP_NAME=	  PP_Din)
(PP_VERSION=	  4.0)
(PP_INI_NAME=	  GC_PLASMA_4.5.ini)
(PP_INI_VERSION=  2014-02-26)
(PLANNAME=        vange 3)
(MACHINE= 	  PowerMAX105_MS_45)
(MATERIAL= 	  S235JR)
(THICKNESS= 	  3)
#CONTOUR MODE [DEV PATH_DEV=0.2 RELEVANT_PATH=0.1]
#TRC [CONV_CIR_TO_LIN=1]
G71
G90
#CS ON [V.A.ABS.X, V.A.ABS.Y, 0, 0, 0, V.E.ROTATION]
M190
G162
G141
G237
G00 X946.51 Y-479.67
M64
T21
M65
M94 F1581
G41 D21
N1 M07
G01 X948.82 Y-479.67
M50
G01 X948.82 Y-451.87
G03 X945.82 Y-448.87 I-3.00 J0.00
G03 X942.82 Y-451.87 I0.00 J-3.00
G01 X942.82 Y-507.47
G03 X945.82 Y-510.47 I3.00 J0.00
G03 X948.82 Y-507.47 I0.00 J3.00
G01 X948.82 Y-479.67
G01 X948.82 Y-477.47
M08
G40
M51
M93
G00 X946.51 Y-627.51
M94 F1581
G41 D21
N2 M07
G01 X948.82 Y-627.51
M50
G01 X948.82 Y-599.71
G03 X945.82 Y-596.71 I-3.00 J0.00
G03 X942.82 Y-599.71 I0.00 J-3.00
G01 X942.82 Y-655.31
G03 X945.82 Y-658.31 I3.00 J0.00
G03 X948.82 Y-655.31 I0.00 J3.00
G01 X948.82 Y-627.51
G01 X948.82 Y-625.31
M08
G40
M51
M93
G00 X946.51 Y-775.35
M94 F1581
G41 D21
N3 M07
G01 X948.82 Y-775.35
M50
G01 X948.82 Y-747.55
G03 X945.82 Y-744.55 I-3.00 J0.00
G03 X942.82 Y-747.55 I0.00 J-3.00
G01 X942.82 Y-803.15
G03 X945.82 Y-806.15 I3.00 J0.00
G03 X948.82 Y-803.15 I0.00 J3.00
G01 X948.82 Y-775.35
G01 X948.82 Y-773.15
M08
G40
M51
M93
G00 X946.51 Y-923.19
M94 F1581
G41 D21
N4 M07
G01 X948.82 Y-923.19
M50
G01 X948.82 Y-895.39
G03 X945.82 Y-892.39 I-3.00 J0.00
G03 X942.82 Y-895.39 I0.00 J-3.00
G01 X942.82 Y-950.99
G03 X945.82 Y-953.99 I3.00 J0.00
G03 X948.82 Y-950.99 I0.00 J3.00
G01 X948.82 Y-923.19
G01 X948.82 Y-920.99
M08
G40
M51
M93
G00 X946.51 Y-1071.03
M94 F1581
G41 D21
N5 M07
G01 X948.82 Y-1071.03
M50
G01 X948.82 Y-1043.23
G03 X945.82 Y-1040.23 I-3.00 J0.00
G03 X942.82 Y-1043.23 I0.00 J-3.00
G01 X942.82 Y-1098.83
G03 X945.82 Y-1101.83 I3.00 J0.00
G03 X948.82 Y-1098.83 I0.00 J3.00
G01 X948.82 Y-1071.03
G01 X948.82 Y-1068.83
M08
G40
M51
M93
G00 X946.51 Y-1218.87
M94 F1581
G41 D21
N6 M07
G01 X948.82 Y-1218.87
M50
G01 X948.82 Y-1191.07
G03 X945.82 Y-1188.07 I-3.00 J0.00
G03 X942.82 Y-1191.07 I0.00 J-3.00
G01 X942.82 Y-1246.67
G03 X945.82 Y-1249.67 I3.00 J0.00
G03 X948.82 Y-1246.67 I0.00 J3.00
G01 X948.82 Y-1218.87
G01 X948.82 Y-1216.67
M08
G40
M51
M93
G00 X946.51 Y-1292.79
M94 F1581
G41 D21
N7 M07
G01 X948.82 Y-1292.79
M50
G01 X948.82 Y-1264.99
G03 X945.82 Y-1261.99 I-3.00 J0.00
G03 X942.82 Y-1264.99 I0.00 J-3.00
G01 X942.82 Y-1320.59
G03 X945.82 Y-1323.59 I3.00 J0.00
G03 X948.82 Y-1320.59 I0.00 J3.00
G01 X948.82 Y-1292.79
G01 X948.82 Y-1290.59
M08
G40
M51
M93
G00 X946.51 Y-1144.95
M94 F1581
G41 D21
N8 M07
G01 X948.82 Y-1144.95
M50
G01 X948.82 Y-1117.15
G03 X945.82 Y-1114.15 I-3.00 J0.00
G03 X942.82 Y-1117.15 I0.00 J-3.00
G01 X942.82 Y-1172.75
G03 X945.82 Y-1175.75 I3.00 J0.00
G03 X948.82 Y-1172.75 I0.00 J3.00
G01 X948.82 Y-1144.95
G01 X948.82 Y-1142.75
M08
G40
M51
M93
G00 X946.51 Y-997.11
M94 F1581
G41 D21
N9 M07
G01 X948.82 Y-997.11
M50
G01 X948.82 Y-969.31
G03 X945.82 Y-966.31 I-3.00 J0.00
G03 X942.82 Y-969.31 I0.00 J-3.00
G01 X942.82 Y-1024.91
G03 X945.82 Y-1027.91 I3.00 J-0.00
G03 X948.82 Y-1024.91 I0.00 J3.00
G01 X948.82 Y-997.11
G01 X948.82 Y-994.91
M08
G40
M51
M93
G00 X946.51 Y-849.27
M94 F1581
G41 D21
N10 M07
G01 X948.82 Y-849.27
M50
G01 X948.82 Y-821.47
G03 X945.82 Y-818.47 I-3.00 J0.00
G03 X942.82 Y-821.47 I0.00 J-3.00
G01 X942.82 Y-877.07
G03 X945.82 Y-880.07 I3.00 J0.00
G03 X948.82 Y-877.07 I0.00 J3.00
G01 X948.82 Y-849.27
G01 X948.82 Y-847.07
M08
G40
M51
M93
G00 X946.51 Y-701.43
M94 F1581
G41 D21
N11 M07
G01 X948.82 Y-701.43
M50
G01 X948.82 Y-673.63
G03 X945.82 Y-670.63 I-3.00 J0.00
G03 X942.82 Y-673.63 I0.00 J-3.00
G01 X942.82 Y-729.23
G03 X945.82 Y-732.23 I3.00 J0.00
G03 X948.82 Y-729.23 I0.00 J3.00
G01 X948.82 Y-701.43
G01 X948.82 Y-699.23
M08
G40
M51
M93
G00 X946.51 Y-553.59
M94 F1581
G41 D21
N12 M07
G01 X948.82 Y-553.59
M50
G01 X948.82 Y-525.79
G03 X945.82 Y-522.79 I-3.00 J0.00
G03 X942.82 Y-525.79 I0.00 J-3.00
G01 X942.82 Y-581.39
G03 X945.82 Y-584.39 I3.00 J0.00
G03 X948.82 Y-581.39 I0.00 J3.00
G01 X948.82 Y-553.59
G01 X948.82 Y-551.39
M08
G40
M51
M93
G00 X946.51 Y-405.75
M94 F1581
G41 D21
N13 M07
G01 X948.82 Y-405.75
M50
G01 X948.82 Y-377.95
G03 X945.82 Y-374.95 I-3.00 J0.00
G03 X942.82 Y-377.95 I0.00 J-3.00
G01 X942.82 Y-433.55
G03 X945.82 Y-436.55 I3.00 J0.00
G03 X948.82 Y-433.55 I0.00 J3.00
G01 X948.82 Y-405.75
G01 X948.82 Y-403.55
M08
G40
M51
M93
G00 X811.86 Y-326.59
M94 F1788
G41 D21
N14 M07
G01 X817.46 Y-326.50
M50
G03 X814.80 Y-318.69 I-9.82 J1.01
G03 X796.21 Y-315.67 I-10.90 J-8.39
G03 X791.86 Y-333.15 I7.36 J-11.11
G03 X809.82 Y-338.69 I11.88 J6.64
G03 X816.68 Y-331.44 I-5.77 J12.32
G01 X817.49 Y-328.18
G01 X817.46 Y-326.50
G01 X817.43 Y-324.83
M08
G40
M51
M93
G00 X811.86 Y-629.33
M94 F1788
G41 D21
N15 M07
G01 X817.46 Y-629.24
M50
G03 X814.80 Y-621.43 I-9.82 J1.01
G03 X796.21 Y-618.41 I-10.90 J-8.39
G03 X791.86 Y-635.89 I7.36 J-11.11
G03 X809.82 Y-641.42 I11.88 J6.64
G03 X816.68 Y-634.17 I-5.77 J12.32
G01 X817.49 Y-630.92
G01 X817.46 Y-629.24
G01 X817.43 Y-627.56
M08
G40
M51
M93
G00 X811.86 Y-932.07
M94 F1788
G41 D21
N16 M07
G01 X817.46 Y-931.98
M50
G03 X814.80 Y-924.17 I-9.82 J1.01
G03 X796.21 Y-921.15 I-10.90 J-8.39
G03 X791.86 Y-938.62 I7.36 J-11.11
G03 X809.82 Y-944.16 I11.88 J6.64
G03 X816.68 Y-936.91 I-5.77 J12.32
G01 X817.49 Y-933.65
G01 X817.46 Y-931.98
G01 X817.43 Y-930.30
M08
G40
M51
M93
G00 X811.86 Y-1234.81
M94 F1788
G41 D21
N17 M07
G01 X817.46 Y-1234.71
M50
G03 X814.80 Y-1226.90 I-9.82 J1.01
G03 X796.21 Y-1223.89 I-10.90 J-8.39
G03 X791.86 Y-1241.36 I7.36 J-11.11
G03 X809.82 Y-1246.90 I11.88 J6.64
G03 X816.68 Y-1239.65 I-5.77 J12.32
G01 X817.49 Y-1236.39
G01 X817.46 Y-1234.71
G01 X817.43 Y-1233.04
M08
G40
M51
M93
G00 X996.13 Y-1301.91
M94 F1375
G41 D21
N18 M07
G01 X1000.09 Y-1305.87
M50
G03 X1002.07 Y-1301.09 I-4.77 J4.77
G03 X995.32 Y-1294.34 I-6.75 J0.00
G03 X988.57 Y-1301.09 I0.00 J-6.75
G03 X995.32 Y-1307.84 I6.75 J0.00
G03 X1000.09 Y-1305.87 I-0.00 J6.75
G03 X1001.37 Y-1304.09 I-4.77 J4.77
M08
G40
M51
M93
G00 X996.13 Y-1249.91
M94 F1375
G41 D21
N19 M07
G01 X1000.09 Y-1253.87
M50
G03 X1002.07 Y-1249.09 I-4.77 J4.77
G03 X995.32 Y-1242.34 I-6.75 J0.00
G03 X988.57 Y-1249.09 I0.00 J-6.75
G03 X995.32 Y-1255.84 I6.75 J0.00
G03 X1000.09 Y-1253.87 I-0.00 J6.75
G03 X1001.37 Y-1252.09 I-4.77 J4.77
M08
G40
M51
M93
G00 X1166.54 Y-1132.69
M94 F1719
G41 D21
N20 M07
G01 X1170.50 Y-1136.65
M50
G03 X1174.28 Y-1127.53 I-9.12 J9.12
G03 X1161.38 Y-1114.63 I-12.90 J0.00
G03 X1148.48 Y-1127.53 I0.00 J-12.90
G03 X1161.38 Y-1140.43 I12.90 J0.00
G03 X1170.50 Y-1136.65 I0.00 J12.90
G03 X1171.91 Y-1134.97 I-9.12 J9.12
M08
G40
M51
M93
G00 X1166.54 Y-829.95
M94 F1719
G41 D21
N21 M07
G01 X1170.50 Y-833.91
M50
G03 X1174.28 Y-824.79 I-9.12 J9.12
G03 X1161.38 Y-811.89 I-12.90 J-0.00
G03 X1148.48 Y-824.79 I0.00 J-12.90
G03 X1161.38 Y-837.69 I12.90 J0.00
G03 X1170.50 Y-833.91 I0.00 J12.90
G03 X1171.91 Y-832.23 I-9.12 J9.12
M08
G40
M51
M93
G00 X1166.54 Y-527.22
M94 F1719
G41 D21
N22 M07
G01 X1170.50 Y-531.18
M50
G03 X1174.28 Y-522.06 I-9.12 J9.12
G03 X1161.38 Y-509.16 I-12.90 J-0.00
G03 X1148.48 Y-522.06 I0.00 J-12.90
G03 X1161.38 Y-534.96 I12.90 J0.00
G03 X1170.50 Y-531.18 I0.00 J12.90
G03 X1171.91 Y-529.50 I-9.12 J9.12
M08
G40
M51
M93
G00 X1166.54 Y-214.16
M94 F1719
G41 D21
N23 M07
G01 X1170.50 Y-210.20
M50
G03 X1161.38 Y-206.42 I-9.12 J-9.12
G03 X1148.48 Y-219.32 I0.00 J-12.90
G03 X1161.38 Y-232.22 I12.90 J0.00
G03 X1174.28 Y-219.32 I0.00 J12.90
G03 X1170.50 Y-210.20 I-12.90 J-0.00
G03 X1168.82 Y-208.78 I-9.12 J-9.12
M08
G40
M51
M93
G00 X1146.64 Y-1301.91
M94 F1375
G41 D21
N24 M07
G01 X1150.60 Y-1305.87
M50
G03 X1152.57 Y-1301.09 I-4.77 J4.77
G03 X1145.82 Y-1294.34 I-6.75 J0.00
G03 X1139.07 Y-1301.09 I0.00 J-6.75
G03 X1145.82 Y-1307.84 I6.75 J0.00
G03 X1150.60 Y-1305.87 I-0.00 J6.75
G03 X1151.87 Y-1304.09 I-4.77 J4.77
M08
G40
M51
M93
G00 X1146.64 Y-1249.91
M94 F1375
G41 D21
N25 M07
G01 X1150.60 Y-1253.87
M50
G03 X1152.57 Y-1249.09 I-4.77 J4.77
G03 X1145.82 Y-1242.34 I-6.75 J0.00
G03 X1139.07 Y-1249.09 I0.00 J-6.75
G03 X1145.82 Y-1255.84 I6.75 J0.00
G03 X1150.60 Y-1253.87 I-0.00 J6.75
G03 X1151.87 Y-1252.09 I-4.77 J4.77
M08
G40
M51
M93
G00 X1095.76 Y-1235.74
M94 F1788
G41 D21
N26 M07
G01 X1101.33 Y-1236.38
M50
G03 X1099.78 Y-1228.49 I-9.81 J2.18
G03 X1081.82 Y-1222.95 I-11.88 J-6.64
G03 X1075.12 Y-1240.04 I5.83 J-12.14
G03 X1092.35 Y-1247.46 I12.46 J5.21
G03 X1099.99 Y-1240.99 I-4.45 J12.99
G01 X1101.16 Y-1237.84
G01 X1101.33 Y-1236.38
G01 X1101.49 Y-1234.92
M08
G40
M51
M93
G00 X1095.76 Y-933.01
M94 F1788
G41 D21
N27 M07
G01 X1101.33 Y-933.64
M50
G03 X1099.78 Y-925.75 I-9.81 J2.18
G03 X1081.82 Y-920.21 I-11.88 J-6.64
G03 X1075.12 Y-937.30 I5.83 J-12.14
G03 X1092.35 Y-944.73 I12.46 J5.21
G03 X1099.99 Y-938.25 I-4.45 J12.99
G01 X1101.16 Y-935.10
G01 X1101.33 Y-933.64
G01 X1101.49 Y-932.19
M08
G40
M51
M93
G00 X1095.76 Y-630.27
M94 F1788
G41 D21
N28 M07
G01 X1101.33 Y-630.91
M50
G03 X1099.78 Y-623.01 I-9.81 J2.18
G03 X1081.82 Y-617.47 I-11.88 J-6.64
G03 X1075.12 Y-634.56 I5.83 J-12.14
G03 X1092.35 Y-641.99 I12.46 J5.21
G03 X1099.99 Y-635.51 I-4.45 J12.99
G01 X1101.16 Y-632.36
G01 X1101.33 Y-630.91
G01 X1101.49 Y-629.45
M08
G40
M51
M93
G00 X1095.76 Y-327.53
M94 F1788
G41 D21
N29 M07
G01 X1101.33 Y-328.17
M50
G03 X1099.78 Y-320.27 I-9.81 J2.18
G03 X1081.82 Y-314.73 I-11.88 J-6.64
G03 X1075.12 Y-331.83 I5.83 J-12.14
G03 X1092.35 Y-339.25 I12.46 J5.21
G03 X1099.99 Y-332.78 I-4.45 J12.99
G01 X1101.16 Y-329.63
G01 X1101.33 Y-328.17
G01 X1101.49 Y-326.71
M08
G40
M51
M93
G00 X897.13 Y-1249.91
M94 F1375
G41 D21
N30 M07
G01 X901.09 Y-1253.87
M50
G03 X903.07 Y-1249.09 I-4.77 J4.77
G03 X896.32 Y-1242.34 I-6.75 J0.00
G03 X889.57 Y-1249.09 I0.00 J-6.75
G03 X896.32 Y-1255.84 I6.75 J0.00
G03 X901.09 Y-1253.87 I-0.00 J6.75
G03 X902.37 Y-1252.09 I-4.77 J4.77
M08
G40
M51
M93
G00 X897.13 Y-1301.91
M94 F1375
G41 D21
N31 M07
G01 X901.09 Y-1305.87
M50
G03 X903.07 Y-1301.09 I-4.77 J4.77
G03 X896.32 Y-1294.34 I-6.75 J0.00
G03 X889.57 Y-1301.09 I0.00 J-6.75
G03 X896.32 Y-1307.84 I6.75 J0.00
G03 X901.09 Y-1305.87 I-0.00 J6.75
G03 X902.37 Y-1304.09 I-4.77 J4.77
M08
G40
M51
M93
G00 X746.63 Y-1249.91
M94 F1375
G41 D21
N32 M07
G01 X750.59 Y-1253.87
M50
G03 X752.57 Y-1249.09 I-4.77 J4.77
G03 X745.82 Y-1242.34 I-6.75 J0.00
G03 X739.07 Y-1249.09 I0.00 J-6.75
G03 X745.82 Y-1255.84 I6.75 J0.00
G03 X750.59 Y-1253.87 I-0.00 J6.75
G03 X751.87 Y-1252.09 I-4.77 J4.77
M08
G40
M51
M93
G00 X746.63 Y-1301.91
M94 F1375
G41 D21
N33 M07
G01 X750.59 Y-1305.87
M50
G03 X752.57 Y-1301.09 I-4.77 J4.77
G03 X745.82 Y-1294.34 I-6.75 J0.00
G03 X739.07 Y-1301.09 I0.00 J-6.75
G03 X745.82 Y-1307.84 I6.75 J0.00
G03 X750.59 Y-1305.87 I-0.00 J6.75
G03 X751.87 Y-1304.09 I-4.77 J4.77
M08
G40
M51
M93
G00 X735.43 Y-224.48
M94 F1719
G41 D21
N34 M07
G01 X739.39 Y-228.44
M50
G03 X743.17 Y-219.32 I-9.12 J9.12
G03 X730.27 Y-206.42 I-12.90 J0.00
G03 X717.37 Y-219.32 I0.00 J-12.90
G03 X730.27 Y-232.22 I12.90 J0.00
G03 X739.39 Y-228.44 I0.00 J12.90
G03 X740.80 Y-226.76 I-9.12 J9.12
M08
G40
M51
M93
G00 X735.43 Y-527.22
M94 F1719
G41 D21
N35 M07
G01 X739.39 Y-531.18
M50
G03 X743.17 Y-522.06 I-9.12 J9.12
G03 X730.27 Y-509.16 I-12.90 J-0.00
G03 X717.37 Y-522.06 I0.00 J-12.90
G03 X730.27 Y-534.96 I12.90 J0.00
G03 X739.39 Y-531.18 I0.00 J12.90
G03 X740.80 Y-529.50 I-9.12 J9.12
M08
G40
M51
M93
G00 X735.43 Y-829.95
M94 F1719
G41 D21
N36 M07
G01 X739.39 Y-833.91
M50
G03 X743.17 Y-824.79 I-9.12 J9.12
G03 X730.27 Y-811.89 I-12.90 J-0.00
G03 X717.37 Y-824.79 I0.00 J-12.90
G03 X730.27 Y-837.69 I12.90 J0.00
G03 X739.39 Y-833.91 I0.00 J12.90
G03 X740.80 Y-832.23 I-9.12 J9.12
M08
G40
M51
M93
G00 X735.43 Y-1132.69
M94 F1719
G41 D21
N37 M07
G01 X739.39 Y-1136.65
M50
G03 X743.17 Y-1127.53 I-9.12 J9.12
G03 X730.27 Y-1114.63 I-12.90 J0.00
G03 X717.37 Y-1127.53 I0.00 J-12.90
G03 X730.27 Y-1140.43 I12.90 J0.00
G03 X739.39 Y-1136.65 I0.00 J12.90
G03 X740.80 Y-1134.97 I-9.12 J9.12
M08
G40
M51
M93
G00 X1218.44 Y-848.61
M94 F2750
G41 D21
N38 M07
G01 X1212.84 Y-848.61
G01 X1212.84 Y-1171.38
G03 X1222.84 Y-1181.38 I10.00 J0.00
G01 X1256.34 Y-1181.38
G01 X1256.34 Y-1211.38
G01 X1222.84 Y-1211.38
G03 X1212.84 Y-1221.38 I0.00 J-10.00
G01 X1212.84 Y-1331.59
G01 X678.80 Y-1331.59
G01 X678.80 Y-1221.38
G03 X668.80 Y-1211.38 I-10.00 J0.00
G01 X635.30 Y-1211.38
G01 X635.30 Y-1181.38
G01 X668.80 Y-1181.38
G03 X678.80 Y-1171.38 I0.00 J10.00
G01 X678.80 Y-848.61
G03 X668.80 Y-838.61 I-10.00 J0.00
G01 X635.30 Y-838.61
G01 X635.30 Y-809.56
G03 X649.57 Y-802.83 I-1.27 J21.19
G03 X658.19 Y-787.18 I-20.44 J21.46
G03 X651.61 Y-755.25 I-37.52 J8.91
G03 X637.99 Y-746.68 I-20.45 J-17.37
G01 X635.30 Y-746.30
G01 X635.30 Y-717.25
G01 X668.80 Y-717.25
G03 X678.80 Y-707.25 I0.00 J10.00
G01 X678.80 Y-384.48
G03 X668.80 Y-374.48 I-10.00 J0.00
G01 X635.30 Y-374.48
G01 X635.30 Y-11.59
G01 X690.05 Y-11.59
G02 X692.45 Y-12.68 I0.22 J-2.70
G02 X694.69 Y-15.47 I-4.74 J-6.11
G02 X697.57 Y-20.63 I-24.79 J-17.21
G02 X698.01 Y-21.49 I-297.48 J-153.16
G01 X778.30 Y-139.18
G03 X779.55 Y-141.59 I8004.72 J4141.54
G01 X863.12 Y-260.42
G03 X864.37 Y-262.68 I88.80 J47.43
G01 X940.35 Y-360.86
G03 X943.43 Y-365.00 I30.52 J19.47
G03 X945.99 Y-366.06 I3.39 J4.52
G03 X948.30 Y-364.91 I0.02 J2.84
G03 X950.61 Y-361.98 I-5.68 J6.85
G03 X951.29 Y-360.86 I-27.37 J17.37
G01 X1027.27 Y-262.68
G03 X1028.52 Y-260.42 I-37.68 J22.23
G01 X1112.09 Y-141.59
G03 X1113.34 Y-139.18 I-93.96 J50.16
G01 X1193.63 Y-21.49
G02 X1197.00 Y-15.38 I3250.65 J-1791.24
G02 X1199.72 Y-12.27 I18.91 J-13.79
G02 X1201.59 Y-11.59 I2.50 J-4.01
G01 X1256.34 Y-11.59
G01 X1256.34 Y-374.48
G01 X1222.84 Y-374.48
G03 X1212.84 Y-384.48 I0.00 J-10.00
G01 X1212.84 Y-707.25
G03 X1222.84 Y-717.25 I10.00 J0.00
G01 X1256.34 Y-717.25
G01 X1256.34 Y-746.30
G03 X1242.07 Y-753.03 I1.27 J-21.19
G03 X1233.45 Y-768.68 I20.44 J-21.46
G03 X1240.03 Y-800.61 I37.52 J-8.91
G03 X1253.65 Y-809.18 I20.45 J17.37
G01 X1256.34 Y-809.56
G01 X1256.34 Y-838.61
G01 X1222.84 Y-838.61
G03 X1212.90 Y-847.52 I0.00 J-10.00
M50
G03 X1212.84 Y-848.61 I9.94 J-1.10
G03 X1214.84 Y-850.61 I2.00 J0.00
M08
G40
M51
M93
G00 X321.21 Y-863.51
M94 F1581
G41 D21
N39 M07
G01 X323.52 Y-863.51
M50
G01 X323.52 Y-835.71
G03 X320.52 Y-832.71 I-3.00 J0.00
G03 X317.52 Y-835.71 I0.00 J-3.00
G01 X317.52 Y-891.31
G03 X320.52 Y-894.31 I3.00 J0.00
G03 X323.52 Y-891.31 I0.00 J3.00
G01 X323.52 Y-863.51
G01 X323.52 Y-861.31
M08
G40
M51
M93
G00 X321.21 Y-715.67
M94 F1581
G41 D21
N40 M07
G01 X323.52 Y-715.67
M50
G01 X323.52 Y-687.87
G03 X320.52 Y-684.87 I-3.00 J0.00
G03 X317.52 Y-687.87 I0.00 J-3.00
G01 X317.52 Y-743.47
G03 X320.52 Y-746.47 I3.00 J0.00
G03 X323.52 Y-743.47 I0.00 J3.00
G01 X323.52 Y-715.67
G01 X323.52 Y-713.47
M08
G40
M51
M93
G00 X321.21 Y-567.83
M94 F1581
G41 D21
N41 M07
G01 X323.52 Y-567.83
M50
G01 X323.52 Y-540.03
G03 X320.52 Y-537.03 I-3.00 J0.00
G03 X317.52 Y-540.03 I0.00 J-3.00
G01 X317.52 Y-595.63
G03 X320.52 Y-598.63 I3.00 J0.00
G03 X323.52 Y-595.63 I0.00 J3.00
G01 X323.52 Y-567.83
G01 X323.52 Y-565.63
M08
G40
M51
M93
G00 X321.21 Y-419.99
M94 F1581
G41 D21
N42 M07
G01 X323.52 Y-419.99
M50
G01 X323.52 Y-392.19
G03 X320.52 Y-389.19 I-3.00 J0.00
G03 X317.52 Y-392.19 I0.00 J-3.00
G01 X317.52 Y-447.79
G03 X320.52 Y-450.79 I3.00 J0.00
G03 X323.52 Y-447.79 I0.00 J3.00
G01 X323.52 Y-419.99
G01 X323.52 Y-417.79
M08
G40
M51
M93
G00 X321.21 Y-272.15
M94 F1581
G41 D21
N43 M07
G01 X323.52 Y-272.15
M50
G01 X323.52 Y-244.35
G03 X320.52 Y-241.35 I-3.00 J0.00
G03 X317.52 Y-244.35 I0.00 J-3.00
G01 X317.52 Y-299.95
G03 X320.52 Y-302.95 I3.00 J0.00
G03 X323.52 Y-299.95 I0.00 J3.00
G01 X323.52 Y-272.15
G01 X323.52 Y-269.95
M08
G40
M51
M93
G00 X321.21 Y-124.31
M94 F1581
G41 D21
N44 M07
G01 X323.52 Y-124.31
M50
G01 X323.52 Y-96.51
G03 X320.52 Y-93.51 I-3.00 J0.00
G03 X317.52 Y-96.51 I0.00 J-3.00
G01 X317.52 Y-152.11
G03 X320.52 Y-155.11 I3.00 J0.00
G03 X323.52 Y-152.11 I0.00 J3.00
G01 X323.52 Y-124.31
G01 X323.52 Y-122.11
M08
G40
M51
M93
G00 X321.21 Y-50.39
M94 F1581
G41 D21
N45 M07
G01 X323.52 Y-50.39
M50
G01 X323.52 Y-22.59
G03 X320.52 Y-19.59 I-3.00 J0.00
G03 X317.52 Y-22.59 I0.00 J-3.00
G01 X317.52 Y-78.19
G03 X320.52 Y-81.19 I3.00 J0.00
G03 X323.52 Y-78.19 I0.00 J3.00
G01 X323.52 Y-50.39
G01 X323.52 Y-48.19
M08
G40
M51
M93
G00 X321.21 Y-198.23
M94 F1581
G41 D21
N46 M07
G01 X323.52 Y-198.23
M50
G01 X323.52 Y-170.43
G03 X320.52 Y-167.43 I-3.00 J0.00
G03 X317.52 Y-170.43 I0.00 J-3.00
G01 X317.52 Y-226.03
G03 X320.52 Y-229.03 I3.00 J0.00
G03 X323.52 Y-226.03 I0.00 J3.00
G01 X323.52 Y-198.23
G01 X323.52 Y-196.03
M08
G40
M51
M93
G00 X321.21 Y-346.07
M94 F1581
G41 D21
N47 M07
G01 X323.52 Y-346.07
M50
G01 X323.52 Y-318.27
G03 X320.52 Y-315.27 I-3.00 J0.00
G03 X317.52 Y-318.27 I0.00 J-3.00
G01 X317.52 Y-373.87
G03 X320.52 Y-376.87 I3.00 J0.00
G03 X323.52 Y-373.87 I0.00 J3.00
G01 X323.52 Y-346.07
G01 X323.52 Y-343.87
M08
G40
M51
M93
G00 X321.21 Y-493.91
M94 F1581
G41 D21
N48 M07
G01 X323.52 Y-493.91
M50
G01 X323.52 Y-466.11
G03 X320.52 Y-463.11 I-3.00 J0.00
G03 X317.52 Y-466.11 I0.00 J-3.00
G01 X317.52 Y-521.71
G03 X320.52 Y-524.71 I3.00 J0.00
G03 X323.52 Y-521.71 I0.00 J3.00
G01 X323.52 Y-493.91
G01 X323.52 Y-491.71
M08
G40
M51
M93
G00 X321.21 Y-641.75
M94 F1581
G41 D21
N49 M07
G01 X323.52 Y-641.75
M50
G01 X323.52 Y-613.95
G03 X320.52 Y-610.95 I-3.00 J0.00
G03 X317.52 Y-613.95 I0.00 J-3.00
G01 X317.52 Y-669.55
G03 X320.52 Y-672.55 I3.00 J0.00
G03 X323.52 Y-669.55 I0.00 J3.00
G01 X323.52 Y-641.75
G01 X323.52 Y-639.55
M08
G40
M51
M93
G00 X321.21 Y-789.59
M94 F1581
G41 D21
N50 M07
G01 X323.52 Y-789.59
M50
G01 X323.52 Y-761.79
G03 X320.52 Y-758.79 I-3.00 J0.00
G03 X317.52 Y-761.79 I0.00 J-3.00
G01 X317.52 Y-817.39
G03 X320.52 Y-820.39 I3.00 J0.00
G03 X323.52 Y-817.39 I0.00 J3.00
G01 X323.52 Y-789.59
G01 X323.52 Y-787.39
M08
G40
M51
M93
G00 X321.21 Y-937.43
M94 F1581
G41 D21
N51 M07
G01 X323.52 Y-937.43
M50
G01 X323.52 Y-909.63
G03 X320.52 Y-906.63 I-3.00 J0.00
G03 X317.52 Y-909.63 I0.00 J-3.00
G01 X317.52 Y-965.23
G03 X320.52 Y-968.23 I3.00 J0.00
G03 X323.52 Y-965.23 I0.00 J3.00
G01 X323.52 Y-937.43
G01 X323.52 Y-935.23
M08
G40
M51
M93
G00 X470.46 Y-1017.30
M94 F1788
G41 D21
N52 M07
G01 X476.03 Y-1017.94
M50
G03 X474.48 Y-1010.04 I-9.81 J2.18
G03 X456.52 Y-1004.50 I-11.88 J-6.64
G03 X449.82 Y-1021.59 I5.83 J-12.14
G03 X467.05 Y-1029.02 I12.46 J5.21
G03 X474.69 Y-1022.54 I-4.45 J12.99
G01 X475.86 Y-1019.39
G01 X476.03 Y-1017.94
G01 X476.19 Y-1016.48
M08
G40
M51
M93
G00 X470.46 Y-714.56
M94 F1788
G41 D21
N53 M07
G01 X476.03 Y-715.20
M50
G03 X474.48 Y-707.30 I-9.81 J2.18
G03 X456.52 Y-701.76 I-11.88 J-6.64
G03 X449.82 Y-718.85 I5.83 J-12.14
G03 X467.05 Y-726.28 I12.46 J5.21
G03 X474.69 Y-719.81 I-4.45 J12.99
G01 X475.86 Y-716.66
G01 X476.03 Y-715.20
G01 X476.19 Y-713.74
M08
G40
M51
M93
G00 X470.46 Y-411.82
M94 F1788
G41 D21
N54 M07
G01 X476.03 Y-412.46
M50
G03 X474.48 Y-404.57 I-9.81 J2.18
G03 X456.52 Y-399.03 I-11.88 J-6.64
G03 X449.82 Y-416.12 I5.83 J-12.14
G03 X467.05 Y-423.54 I12.46 J5.21
G03 X474.69 Y-417.07 I-4.45 J12.99
G01 X475.86 Y-413.92
G01 X476.03 Y-412.46
G01 X476.19 Y-411.00
M08
G40
M51
M93
G00 X470.46 Y-109.09
M94 F1788
G41 D21
N55 M07
G01 X476.03 Y-109.72
M50
G03 X474.48 Y-101.83 I-9.81 J2.18
G03 X456.52 Y-96.29 I-11.88 J-6.64
G03 X449.82 Y-113.38 I5.83 J-12.14
G03 X467.05 Y-120.81 I12.46 J5.21
G03 X474.69 Y-114.33 I-4.45 J12.99
G01 X475.86 Y-111.18
G01 X476.03 Y-109.72
G01 X476.19 Y-108.27
M08
G40
M51
M93
G00 X271.83 Y-42.91
M94 F1375
G41 D21
N56 M07
G01 X275.79 Y-46.87
M50
G03 X277.77 Y-42.09 I-4.77 J4.77
G03 X271.02 Y-35.34 I-6.75 J0.00
G03 X264.27 Y-42.09 I0.00 J-6.75
G03 X271.02 Y-48.84 I6.75 J0.00
G03 X275.79 Y-46.87 I0.00 J6.75
G03 X277.07 Y-45.09 I-4.77 J4.77
M08
G40
M51
M93
G00 X271.83 Y-94.91
M94 F1375
G41 D21
N57 M07
G01 X275.79 Y-98.87
M50
G03 X277.77 Y-94.09 I-4.77 J4.77
G03 X271.02 Y-87.34 I-6.75 J0.00
G03 X264.27 Y-94.09 I0.00 J-6.75
G03 X271.02 Y-100.84 I6.75 J0.00
G03 X275.79 Y-98.87 I0.00 J6.75
G03 X277.07 Y-97.09 I-4.77 J4.77
M08
G40
M51
M93
G00 X110.13 Y-220.82
M94 F1719
G41 D21
N58 M07
G01 X114.09 Y-224.78
M50
G03 X117.87 Y-215.66 I-9.12 J9.12
G03 X104.97 Y-202.76 I-12.90 J0.00
G03 X92.07 Y-215.66 I0.00 J-12.90
G03 X104.97 Y-228.56 I12.90 J-0.00
G03 X114.09 Y-224.78 I0.00 J12.90
G03 X115.50 Y-223.10 I-9.12 J9.12
M08
G40
M51
M93
G00 X110.13 Y-523.56
M94 F1719
G41 D21
N59 M07
G01 X114.09 Y-527.52
M50
G03 X117.87 Y-518.40 I-9.12 J9.12
G03 X104.97 Y-505.50 I-12.90 J0.00
G03 X92.07 Y-518.40 I-0.00 J-12.90
G03 X104.97 Y-531.30 I12.90 J0.00
G03 X114.09 Y-527.52 I0.00 J12.90
G03 X115.50 Y-525.84 I-9.12 J9.12
M08
G40
M51
M93
G00 X110.13 Y-815.97
M94 F1719
G41 D21
N60 M07
G01 X114.09 Y-812.01
M50
G03 X104.97 Y-808.23 I-9.12 J-9.12
G03 X92.07 Y-821.13 I-0.00 J-12.90
G03 X104.97 Y-834.03 I12.90 J0.00
G03 X117.87 Y-821.13 I0.00 J12.90
G03 X114.09 Y-812.01 I-12.90 J0.00
G03 X112.41 Y-810.60 I-9.12 J-9.12
M08
G40
M51
M93
G00 X110.13 Y-1118.71
M94 F1719
G41 D21
N61 M07
G01 X114.09 Y-1114.75
M50
G03 X104.97 Y-1110.97 I-9.12 J-9.12
G03 X92.07 Y-1123.87 I0.00 J-12.90
G03 X104.97 Y-1136.77 I12.90 J0.00
G03 X117.87 Y-1123.87 I-0.00 J12.90
G03 X114.09 Y-1114.75 I-12.90 J0.00
G03 X112.41 Y-1113.33 I-9.12 J-9.12
M08
G40
M51
M93
G00 X121.33 Y-42.91
M94 F1375
G41 D21
N62 M07
G01 X125.29 Y-46.87
M50
G03 X127.27 Y-42.09 I-4.77 J4.77
G03 X120.52 Y-35.34 I-6.75 J0.00
G03 X113.77 Y-42.09 I0.00 J-6.75
G03 X120.52 Y-48.84 I6.75 J0.00
G03 X125.29 Y-46.87 I0.00 J6.75
G03 X126.57 Y-45.09 I-4.77 J4.77
M08
G40
M51
M93
G00 X121.33 Y-94.91
M94 F1375
G41 D21
N63 M07
G01 X125.29 Y-98.87
M50
G03 X127.27 Y-94.09 I-4.77 J4.77
G03 X120.52 Y-87.34 I-6.75 J0.00
G03 X113.77 Y-94.09 I0.00 J-6.75
G03 X120.52 Y-100.84 I6.75 J0.00
G03 X125.29 Y-98.87 I0.00 J6.75
G03 X126.57 Y-97.09 I-4.77 J4.77
M08
G40
M51
M93
G00 X186.56 Y-108.15
M94 F1788
G41 D21
N64 M07
G01 X192.16 Y-108.06
M50
G03 X189.50 Y-100.25 I-9.82 J1.01
G03 X170.91 Y-97.23 I-10.90 J-8.39
G03 X166.56 Y-114.70 I7.36 J-11.11
G03 X184.52 Y-120.24 I11.88 J6.64
G03 X191.38 Y-112.99 I-5.77 J12.32
G01 X192.19 Y-109.73
G01 X192.16 Y-108.06
G01 X192.13 Y-106.38
M08
G40
M51
M93
G00 X186.56 Y-410.89
M94 F1788
G41 D21
N65 M07
G01 X192.16 Y-410.79
M50
G03 X189.50 Y-402.98 I-9.82 J1.01
G03 X170.91 Y-399.97 I-10.90 J-8.39
G03 X166.56 Y-417.44 I7.36 J-11.11
G03 X184.52 Y-422.98 I11.88 J6.64
G03 X191.38 Y-415.73 I-5.77 J12.32
G01 X192.19 Y-412.47
G01 X192.16 Y-410.79
G01 X192.13 Y-409.12
M08
G40
M51
M93
G00 X186.56 Y-713.62
M94 F1788
G41 D21
N66 M07
G01 X192.16 Y-713.53
M50
G03 X189.50 Y-705.72 I-9.82 J1.01
G03 X170.91 Y-702.70 I-10.90 J-8.39
G03 X166.56 Y-720.18 I7.36 J-11.11
G03 X184.52 Y-725.72 I11.88 J6.64
G03 X191.38 Y-718.46 I-5.77 J12.32
G01 X192.19 Y-715.21
G01 X192.16 Y-713.53
G01 X192.13 Y-711.86
M08
G40
M51
M93
G00 X186.56 Y-1016.36
M94 F1788
G41 D21
N67 M07
G01 X192.16 Y-1016.27
M50
G03 X189.50 Y-1008.46 I-9.82 J1.01
G03 X170.91 Y-1005.44 I-10.90 J-8.39
G03 X166.56 Y-1022.91 I7.36 J-11.11
G03 X184.52 Y-1028.45 I11.88 J6.64
G03 X191.38 Y-1021.20 I-5.77 J12.32
G01 X192.19 Y-1017.94
G01 X192.16 Y-1016.27
G01 X192.13 Y-1014.59
M08
G40
M51
M93
G00 X370.83 Y-93.28
M94 F1375
G41 D21
N68 M07
G01 X374.79 Y-89.32
M50
G03 X370.02 Y-87.34 I-4.77 J-4.77
G03 X363.27 Y-94.09 I0.00 J-6.75
G03 X370.02 Y-100.84 I6.75 J0.00
G03 X376.77 Y-94.09 I0.00 J6.75
G03 X374.79 Y-89.32 I-6.75 J0.00
G03 X373.01 Y-88.04 I-4.77 J-4.77
M08
G40
M51
M93
G00 X370.83 Y-41.28
M94 F1375
G41 D21
N69 M07
G01 X374.79 Y-37.32
M50
G03 X370.02 Y-35.34 I-4.77 J-4.77
G03 X363.27 Y-42.09 I0.00 J-6.75
G03 X370.02 Y-48.84 I6.75 J0.00
G03 X376.77 Y-42.09 I0.00 J6.75
G03 X374.79 Y-37.32 I-6.75 J0.00
G03 X373.01 Y-36.04 I-4.77 J-4.77
M08
G40
M51
M93
G00 X521.34 Y-94.91
M94 F1375
G41 D21
N70 M07
G01 X525.29 Y-98.87
M50
G03 X527.27 Y-94.09 I-4.77 J4.77
G03 X520.52 Y-87.34 I-6.75 J0.00
G03 X513.77 Y-94.09 I0.00 J-6.75
G03 X520.52 Y-100.84 I6.75 J0.00
G03 X525.29 Y-98.87 I0.00 J6.75
G03 X526.57 Y-97.09 I-4.77 J4.77
M08
G40
M51
M93
G00 X521.34 Y-42.91
M94 F1375
G41 D21
N71 M07
G01 X525.29 Y-46.87
M50
G03 X527.27 Y-42.09 I-4.77 J4.77
G03 X520.52 Y-35.34 I-6.75 J0.00
G03 X513.77 Y-42.09 I0.00 J-6.75
G03 X520.52 Y-48.84 I6.75 J0.00
G03 X525.29 Y-46.87 I0.00 J6.75
G03 X526.57 Y-45.09 I-4.77 J4.77
M08
G40
M51
M93
G00 X541.24 Y-1129.03
M94 F1719
G41 D21
N72 M07
G01 X545.20 Y-1132.99
M50
G03 X548.98 Y-1123.87 I-9.12 J9.12
G03 X536.08 Y-1110.97 I-12.90 J0.00
G03 X523.18 Y-1123.87 I0.00 J-12.90
G03 X536.08 Y-1136.77 I12.90 J0.00
G03 X545.20 Y-1132.99 I-0.00 J12.90
G03 X546.61 Y-1131.31 I-9.12 J9.12
M08
G40
M51
M93
G00 X541.24 Y-815.97
M94 F1719
G41 D21
N73 M07
G01 X545.20 Y-812.01
M50
G03 X536.08 Y-808.23 I-9.12 J-9.12
G03 X523.18 Y-821.13 I0.00 J-12.90
G03 X536.08 Y-834.03 I12.90 J0.00
G03 X548.98 Y-821.13 I-0.00 J12.90
G03 X545.20 Y-812.01 I-12.90 J0.00
G03 X543.52 Y-810.60 I-9.12 J-9.12
M08
G40
M51
M93
G00 X541.24 Y-513.23
M94 F1719
G41 D21
N74 M07
G01 X545.20 Y-509.27
M50
G03 X536.08 Y-505.50 I-9.12 J-9.12
G03 X523.18 Y-518.40 I0.00 J-12.90
G03 X536.08 Y-531.30 I12.90 J0.00
G03 X548.98 Y-518.40 I-0.00 J12.90
G03 X545.20 Y-509.27 I-12.90 J0.00
G03 X543.52 Y-507.86 I-9.12 J-9.12
M08
G40
M51
M93
G00 X541.24 Y-220.82
M94 F1719
G41 D21
N75 M07
G01 X545.20 Y-224.78
M50
G03 X548.98 Y-215.66 I-9.12 J9.12
G03 X536.08 Y-202.76 I-12.90 J0.00
G03 X523.18 Y-215.66 I0.00 J-12.90
G03 X536.08 Y-228.56 I12.90 J-0.00
G03 X545.20 Y-224.78 I-0.00 J12.90
G03 X546.61 Y-223.10 I-9.12 J9.12
M08
G40
M51
M93
G00 X631.04 Y-963.11
M94 F2750
G41 D21
N76 M07
G01 X631.04 Y-968.71
G01 X631.04 Y-1331.59
G01 X576.29 Y-1331.59
G02 X573.89 Y-1330.50 I-0.22 J2.70
G02 X571.65 Y-1327.72 I4.74 J6.11
G02 X568.77 Y-1322.56 I24.79 J17.21
G02 X568.33 Y-1321.70 I297.48 J153.16
G01 X488.04 Y-1204.00
G03 X486.79 Y-1201.59 I-8004.72 J-4141.54
G01 X403.22 Y-1082.77
G03 X401.97 Y-1080.50 I-88.80 J-47.43
G01 X325.99 Y-982.33
G03 X322.91 Y-978.19 I-30.52 J-19.47
G03 X320.35 Y-977.12 I-3.39 J-4.52
G03 X318.04 Y-978.27 I-0.02 J-2.84
G03 X315.73 Y-981.20 I5.68 J-6.85
G03 X315.05 Y-982.33 I27.37 J-17.37
G01 X239.07 Y-1080.50
G03 X237.82 Y-1082.77 I37.68 J-22.23
G01 X154.25 Y-1201.59
G03 X153.00 Y-1204.00 I93.96 J-50.16
G01 X72.71 Y-1321.70
G02 X69.34 Y-1327.81 I-3250.65 J1791.24
G02 X66.62 Y-1330.92 I-18.91 J13.79
G02 X64.75 Y-1331.59 I-2.50 J4.01
G01 X10.00 Y-1331.59
G01 X10.00 Y-968.71
G01 X43.50 Y-968.71
G03 X53.50 Y-958.71 I0.00 J10.00
G01 X53.50 Y-635.94
G03 X43.50 Y-625.94 I-10.00 J0.00
G01 X10.00 Y-625.94
G01 X10.00 Y-596.89
G03 X24.27 Y-590.16 I-1.27 J21.19
G03 X32.89 Y-574.51 I-20.44 J21.46
G03 X26.31 Y-542.58 I-37.52 J8.91
G03 X12.69 Y-534.01 I-20.45 J-17.37
G01 X10.00 Y-533.63
G01 X10.00 Y-504.58
G01 X43.50 Y-504.58
G03 X53.50 Y-494.58 I0.00 J10.00
G01 X53.50 Y-171.81
G03 X43.50 Y-161.81 I-10.00 J0.00
G01 X10.00 Y-161.81
G01 X10.00 Y-131.81
G01 X43.50 Y-131.81
G03 X53.50 Y-121.81 I0.00 J10.00
G01 X53.50 Y-11.59
G01 X587.54 Y-11.59
G01 X587.54 Y-121.81
G03 X597.54 Y-131.81 I10.00 J-0.00
G01 X631.04 Y-131.81
G01 X631.04 Y-161.81
G01 X597.54 Y-161.81
G03 X587.54 Y-171.81 I0.00 J-10.00
G01 X587.54 Y-494.58
G03 X597.54 Y-504.58 I10.00 J0.00
G01 X631.04 Y-504.58
G01 X631.04 Y-533.63
G03 X616.77 Y-540.36 I1.27 J-21.19
G03 X608.15 Y-556.01 I20.44 J-21.46
G03 X614.73 Y-587.94 I37.52 J-8.91
G03 X628.35 Y-596.51 I20.45 J17.37
G01 X631.04 Y-596.89
G01 X631.04 Y-625.94
G01 X597.54 Y-625.94
G03 X587.54 Y-635.94 I0.00 J-10.00
G01 X587.54 Y-958.71
G03 X597.54 Y-968.71 I10.00 J0.00
G01 X629.94 Y-968.71
M50
G01 X631.04 Y-968.71
G03 X633.04 Y-966.71 I0.00 J2.00
M08
G40
M51
M93
G00 X1571.81 Y-863.51
M94 F1581
G41 D21
N77 M07
G01 X1574.12 Y-863.51
M50
G01 X1574.12 Y-835.71
G03 X1571.12 Y-832.71 I-3.00 J0.00
G03 X1568.12 Y-835.71 I0.00 J-3.00
G01 X1568.12 Y-891.31
G03 X1571.12 Y-894.31 I3.00 J0.00
G03 X1574.12 Y-891.31 I0.00 J3.00
G01 X1574.12 Y-863.51
G01 X1574.12 Y-861.31
M08
G40
M51
M93
G00 X1571.81 Y-715.67
M94 F1581
G41 D21
N78 M07
G01 X1574.12 Y-715.67
M50
G01 X1574.12 Y-687.87
G03 X1571.12 Y-684.87 I-3.00 J0.00
G03 X1568.12 Y-687.87 I0.00 J-3.00
G01 X1568.12 Y-743.47
G03 X1571.12 Y-746.47 I3.00 J0.00
G03 X1574.12 Y-743.47 I0.00 J3.00
G01 X1574.12 Y-715.67
G01 X1574.12 Y-713.47
M08
G40
M51
M93
G00 X1571.81 Y-567.83
M94 F1581
G41 D21
N79 M07
G01 X1574.12 Y-567.83
M50
G01 X1574.12 Y-540.03
G03 X1571.12 Y-537.03 I-3.00 J0.00
G03 X1568.12 Y-540.03 I0.00 J-3.00
G01 X1568.12 Y-595.63
G03 X1571.12 Y-598.63 I3.00 J0.00
G03 X1574.12 Y-595.63 I0.00 J3.00
G01 X1574.12 Y-567.83
G01 X1574.12 Y-565.63
M08
G40
M51
M93
G00 X1571.81 Y-419.99
M94 F1581
G41 D21
N80 M07
G01 X1574.12 Y-419.99
M50
G01 X1574.12 Y-392.19
G03 X1571.12 Y-389.19 I-3.00 J0.00
G03 X1568.12 Y-392.19 I0.00 J-3.00
G01 X1568.12 Y-447.79
G03 X1571.12 Y-450.79 I3.00 J0.00
G03 X1574.12 Y-447.79 I0.00 J3.00
G01 X1574.12 Y-419.99
G01 X1574.12 Y-417.79
M08
G40
M51
M93
G00 X1571.81 Y-272.15
M94 F1581
G41 D21
N81 M07
G01 X1574.12 Y-272.15
M50
G01 X1574.12 Y-244.35
G03 X1571.12 Y-241.35 I-3.00 J0.00
G03 X1568.12 Y-244.35 I0.00 J-3.00
G01 X1568.12 Y-299.95
G03 X1571.12 Y-302.95 I3.00 J0.00
G03 X1574.12 Y-299.95 I0.00 J3.00
G01 X1574.12 Y-272.15
G01 X1574.12 Y-269.95
M08
G40
M51
M93
G00 X1571.81 Y-124.31
M94 F1581
G41 D21
N82 M07
G01 X1574.12 Y-124.31
M50
G01 X1574.12 Y-96.51
G03 X1571.12 Y-93.51 I-3.00 J0.00
G03 X1568.12 Y-96.51 I0.00 J-3.00
G01 X1568.12 Y-152.11
G03 X1571.12 Y-155.11 I3.00 J0.00
G03 X1574.12 Y-152.11 I0.00 J3.00
G01 X1574.12 Y-124.31
G01 X1574.12 Y-122.11
M08
G40
M51
M93
G00 X1571.81 Y-50.39
M94 F1581
G41 D21
N83 M07
G01 X1574.12 Y-50.39
M50
G01 X1574.12 Y-22.59
G03 X1571.12 Y-19.59 I-3.00 J0.00
G03 X1568.12 Y-22.59 I0.00 J-3.00
G01 X1568.12 Y-78.19
G03 X1571.12 Y-81.19 I3.00 J0.00
G03 X1574.12 Y-78.19 I0.00 J3.00
G01 X1574.12 Y-50.39
G01 X1574.12 Y-48.19
M08
G40
M51
M93
G00 X1571.81 Y-198.23
M94 F1581
G41 D21
N84 M07
G01 X1574.12 Y-198.23
M50
G01 X1574.12 Y-170.43
G03 X1571.12 Y-167.43 I-3.00 J0.00
G03 X1568.12 Y-170.43 I0.00 J-3.00
G01 X1568.12 Y-226.03
G03 X1571.12 Y-229.03 I3.00 J0.00
G03 X1574.12 Y-226.03 I0.00 J3.00
G01 X1574.12 Y-198.23
G01 X1574.12 Y-196.03
M08
G40
M51
M93
G00 X1571.81 Y-346.07
M94 F1581
G41 D21
N85 M07
G01 X1574.12 Y-346.07
M50
G01 X1574.12 Y-318.27
G03 X1571.12 Y-315.27 I-3.00 J0.00
G03 X1568.12 Y-318.27 I0.00 J-3.00
G01 X1568.12 Y-373.87
G03 X1571.12 Y-376.87 I3.00 J0.00
G03 X1574.12 Y-373.87 I0.00 J3.00
G01 X1574.12 Y-346.07
G01 X1574.12 Y-343.87
M08
G40
M51
M93
G00 X1571.81 Y-493.91
M94 F1581
G41 D21
N86 M07
G01 X1574.12 Y-493.91
M50
G01 X1574.12 Y-466.11
G03 X1571.12 Y-463.11 I-3.00 J0.00
G03 X1568.12 Y-466.11 I0.00 J-3.00
G01 X1568.12 Y-521.71
G03 X1571.12 Y-524.71 I3.00 J0.00
G03 X1574.12 Y-521.71 I0.00 J3.00
G01 X1574.12 Y-493.91
G01 X1574.12 Y-491.71
M08
G40
M51
M93
G00 X1571.81 Y-641.75
M94 F1581
G41 D21
N87 M07
G01 X1574.12 Y-641.75
M50
G01 X1574.12 Y-613.95
G03 X1571.12 Y-610.95 I-3.00 J0.00
G03 X1568.12 Y-613.95 I0.00 J-3.00
G01 X1568.12 Y-669.55
G03 X1571.12 Y-672.55 I3.00 J0.00
G03 X1574.12 Y-669.55 I0.00 J3.00
G01 X1574.12 Y-641.75
G01 X1574.12 Y-639.55
M08
G40
M51
M93
G00 X1571.81 Y-789.59
M94 F1581
G41 D21
N88 M07
G01 X1574.12 Y-789.59
M50
G01 X1574.12 Y-761.79
G03 X1571.12 Y-758.79 I-3.00 J0.00
G03 X1568.12 Y-761.79 I0.00 J-3.00
G01 X1568.12 Y-817.39
G03 X1571.12 Y-820.39 I3.00 J0.00
G03 X1574.12 Y-817.39 I0.00 J3.00
G01 X1574.12 Y-789.59
G01 X1574.12 Y-787.39
M08
G40
M51
M93
G00 X1571.81 Y-937.43
M94 F1581
G41 D21
N89 M07
G01 X1574.12 Y-937.43
M50
G01 X1574.12 Y-909.63
G03 X1571.12 Y-906.63 I-3.00 J0.00
G03 X1568.12 Y-909.63 I0.00 J-3.00
G01 X1568.12 Y-965.23
G03 X1571.12 Y-968.23 I3.00 J0.00
G03 X1574.12 Y-965.23 I0.00 J3.00
G01 X1574.12 Y-937.43
G01 X1574.12 Y-935.23
M08
G40
M51
M93
G00 X1721.06 Y-1017.30
M94 F1788
G41 D21
N90 M07
G01 X1726.63 Y-1017.94
M50
G03 X1725.08 Y-1010.04 I-9.81 J2.18
G03 X1707.12 Y-1004.50 I-11.88 J-6.64
G03 X1700.42 Y-1021.59 I5.83 J-12.14
G03 X1717.65 Y-1029.02 I12.46 J5.21
G03 X1725.29 Y-1022.54 I-4.45 J12.99
G01 X1726.46 Y-1019.39
G01 X1726.63 Y-1017.94
G01 X1726.80 Y-1016.48
M08
G40
M51
M93
G00 X1721.06 Y-714.56
M94 F1788
G41 D21
N91 M07
G01 X1726.63 Y-715.20
M50
G03 X1725.08 Y-707.30 I-9.81 J2.18
G03 X1707.12 Y-701.76 I-11.88 J-6.64
G03 X1700.42 Y-718.85 I5.83 J-12.14
G03 X1717.65 Y-726.28 I12.46 J5.21
G03 X1725.29 Y-719.81 I-4.45 J12.99
G01 X1726.46 Y-716.66
G01 X1726.63 Y-715.20
G01 X1726.80 Y-713.74
M08
G40
M51
M93
G00 X1721.06 Y-411.82
M94 F1788
G41 D21
N92 M07
G01 X1726.63 Y-412.46
M50
G03 X1725.08 Y-404.57 I-9.81 J2.18
G03 X1707.12 Y-399.03 I-11.88 J-6.64
G03 X1700.42 Y-416.12 I5.83 J-12.14
G03 X1717.65 Y-423.54 I12.46 J5.21
G03 X1725.29 Y-417.07 I-4.45 J12.99
G01 X1726.46 Y-413.92
G01 X1726.63 Y-412.46
G01 X1726.80 Y-411.00
M08
G40
M51
M93
G00 X1721.06 Y-109.09
M94 F1788
G41 D21
N93 M07
G01 X1726.63 Y-109.72
M50
G03 X1725.08 Y-101.83 I-9.81 J2.18
G03 X1707.12 Y-96.29 I-11.88 J-6.64
G03 X1700.42 Y-113.38 I5.83 J-12.14
G03 X1717.65 Y-120.81 I12.46 J5.21
G03 X1725.29 Y-114.33 I-4.45 J12.99
G01 X1726.46 Y-111.18
G01 X1726.63 Y-109.72
G01 X1726.80 Y-108.27
M08
G40
M51
M93
G00 X1522.44 Y-42.91
M94 F1375
G41 D21
N94 M07
G01 X1526.40 Y-46.87
M50
G03 X1528.37 Y-42.09 I-4.77 J4.77
G03 X1521.62 Y-35.34 I-6.75 J0.00
G03 X1514.87 Y-42.09 I0.00 J-6.75
G03 X1521.62 Y-48.84 I6.75 J0.00
G03 X1526.40 Y-46.87 I0.00 J6.75
G03 X1527.67 Y-45.09 I-4.77 J4.77
M08
G40
M51
M93
G00 X1522.44 Y-94.91
M94 F1375
G41 D21
N95 M07
G01 X1526.40 Y-98.87
M50
G03 X1528.37 Y-94.09 I-4.77 J4.77
G03 X1521.62 Y-87.34 I-6.75 J0.00
G03 X1514.87 Y-94.09 I0.00 J-6.75
G03 X1521.62 Y-100.84 I6.75 J0.00
G03 X1526.40 Y-98.87 I0.00 J6.75
G03 X1527.67 Y-97.09 I-4.77 J4.77
M08
G40
M51
M93
G00 X1360.73 Y-220.82
M94 F1719
G41 D21
N96 M07
G01 X1364.69 Y-224.78
M50
G03 X1368.47 Y-215.66 I-9.12 J9.12
G03 X1355.57 Y-202.76 I-12.90 J-0.00
G03 X1342.67 Y-215.66 I0.00 J-12.90
G03 X1355.57 Y-228.56 I12.90 J0.00
G03 X1364.69 Y-224.78 I0.00 J12.90
G03 X1366.10 Y-223.10 I-9.12 J9.12
M08
G40
M51
M93
G00 X1360.73 Y-523.56
M94 F1719
G41 D21
N97 M07
G01 X1364.69 Y-527.52
M50
G03 X1368.47 Y-518.40 I-9.12 J9.12
G03 X1355.57 Y-505.50 I-12.90 J-0.00
G03 X1342.67 Y-518.40 I0.00 J-12.90
G03 X1355.57 Y-531.30 I12.90 J0.00
G03 X1364.69 Y-527.52 I0.00 J12.90
G03 X1366.10 Y-525.84 I-9.12 J9.12
M08
G40
M51
M93
G00 X1360.73 Y-815.97
M94 F1719
G41 D21
N98 M07
G01 X1364.69 Y-812.01
M50
G03 X1355.57 Y-808.23 I-9.12 J-9.12
G03 X1342.67 Y-821.13 I0.00 J-12.90
G03 X1355.57 Y-834.03 I12.90 J0.00
G03 X1368.47 Y-821.13 I0.00 J12.90
G03 X1364.69 Y-812.01 I-12.90 J0.00
G03 X1363.01 Y-810.60 I-9.12 J-9.12
M08
G40
M51
M93
G00 X1360.73 Y-1118.71
M94 F1719
G41 D21
N99 M07
G01 X1364.69 Y-1114.75
M50
G03 X1355.57 Y-1110.97 I-9.12 J-9.12
G03 X1342.67 Y-1123.87 I0.00 J-12.90
G03 X1355.57 Y-1136.77 I12.90 J0.00
G03 X1368.47 Y-1123.87 I0.00 J12.90
G03 X1364.69 Y-1114.75 I-12.90 J0.00
G03 X1363.01 Y-1113.33 I-9.12 J-9.12
M08
G40
M51
M93
G00 X1371.93 Y-42.91
M94 F1375
G41 D21
N100 M07
G01 X1375.89 Y-46.87
M50
G03 X1377.87 Y-42.09 I-4.77 J4.77
G03 X1371.12 Y-35.34 I-6.75 J0.00
G03 X1364.37 Y-42.09 I0.00 J-6.75
G03 X1371.12 Y-48.84 I6.75 J0.00
G03 X1375.89 Y-46.87 I0.00 J6.75
G03 X1377.17 Y-45.09 I-4.77 J4.77
M08
G40
M51
M93
G00 X1371.93 Y-94.91
M94 F1375
G41 D21
N101 M07
G01 X1375.89 Y-98.87
M50
G03 X1377.87 Y-94.09 I-4.77 J4.77
G03 X1371.12 Y-87.34 I-6.75 J0.00
G03 X1364.37 Y-94.09 I0.00 J-6.75
G03 X1371.12 Y-100.84 I6.75 J0.00
G03 X1375.89 Y-98.87 I0.00 J6.75
G03 X1377.17 Y-97.09 I-4.77 J4.77
M08
G40
M51
M93
G00 X1437.16 Y-108.15
M94 F1788
G41 D21
N102 M07
G01 X1442.76 Y-108.06
M50
G03 X1440.10 Y-100.25 I-9.82 J1.01
G03 X1421.51 Y-97.23 I-10.90 J-8.39
G03 X1417.16 Y-114.70 I7.36 J-11.11
G03 X1435.12 Y-120.24 I11.88 J6.64
G03 X1441.98 Y-112.99 I-5.77 J12.32
G01 X1442.79 Y-109.73
G01 X1442.76 Y-108.06
G01 X1442.73 Y-106.38
M08
G40
M51
M93
G00 X1437.16 Y-410.89
M94 F1788
G41 D21
N103 M07
G01 X1442.76 Y-410.79
M50
G03 X1440.10 Y-402.98 I-9.82 J1.01
G03 X1421.51 Y-399.97 I-10.90 J-8.39
G03 X1417.16 Y-417.44 I7.36 J-11.11
G03 X1435.12 Y-422.98 I11.88 J6.64
G03 X1441.98 Y-415.73 I-5.77 J12.32
G01 X1442.79 Y-412.47
G01 X1442.76 Y-410.79
G01 X1442.73 Y-409.12
M08
G40
M51
M93
G00 X1437.16 Y-713.62
M94 F1788
G41 D21
N104 M07
G01 X1442.76 Y-713.53
M50
G03 X1440.10 Y-705.72 I-9.82 J1.01
G03 X1421.51 Y-702.70 I-10.90 J-8.39
G03 X1417.16 Y-720.18 I7.36 J-11.11
G03 X1435.12 Y-725.72 I11.88 J6.64
G03 X1441.98 Y-718.46 I-5.77 J12.32
G01 X1442.79 Y-715.21
G01 X1442.76 Y-713.53
G01 X1442.73 Y-711.86
M08
G40
M51
M93
G00 X1437.16 Y-1016.36
M94 F1788
G41 D21
N105 M07
G01 X1442.76 Y-1016.27
M50
G03 X1440.10 Y-1008.46 I-9.82 J1.01
G03 X1421.51 Y-1005.44 I-10.90 J-8.39
G03 X1417.16 Y-1022.91 I7.36 J-11.11
G03 X1435.12 Y-1028.45 I11.88 J6.64
G03 X1441.98 Y-1021.20 I-5.77 J12.32
G01 X1442.79 Y-1017.94
G01 X1442.76 Y-1016.27
G01 X1442.73 Y-1014.59
M08
G40
M51
M93
G00 X1621.43 Y-93.28
M94 F1375
G41 D21
N106 M07
G01 X1625.39 Y-89.32
M50
G03 X1620.62 Y-87.34 I-4.77 J-4.77
G03 X1613.87 Y-94.09 I0.00 J-6.75
G03 X1620.62 Y-100.84 I6.75 J0.00
G03 X1627.37 Y-94.09 I0.00 J6.75
G03 X1625.39 Y-89.32 I-6.75 J-0.00
G03 X1623.61 Y-88.04 I-4.77 J-4.77
M08
G40
M51
M93
G00 X1621.43 Y-41.28
M94 F1375
G41 D21
N107 M07
G01 X1625.39 Y-37.32
M50
G03 X1620.62 Y-35.34 I-4.77 J-4.77
G03 X1613.87 Y-42.09 I0.00 J-6.75
G03 X1620.62 Y-48.84 I6.75 J0.00
G03 X1627.37 Y-42.09 I0.00 J6.75
G03 X1625.39 Y-37.32 I-6.75 J-0.00
G03 X1623.61 Y-36.04 I-4.77 J-4.77
M08
G40
M51
M93
G00 X1771.94 Y-94.91
M94 F1375
G41 D21
N108 M07
G01 X1775.90 Y-98.87
M50
G03 X1777.87 Y-94.09 I-4.77 J4.77
G03 X1771.12 Y-87.34 I-6.75 J0.00
G03 X1764.37 Y-94.09 I0.00 J-6.75
G03 X1771.12 Y-100.84 I6.75 J0.00
G03 X1775.90 Y-98.87 I0.00 J6.75
G03 X1777.17 Y-97.09 I-4.77 J4.77
M08
G40
M51
M93
G00 X1771.94 Y-42.91
M94 F1375
G41 D21
N109 M07
G01 X1775.90 Y-46.87
M50
G03 X1777.87 Y-42.09 I-4.77 J4.77
G03 X1771.12 Y-35.34 I-6.75 J0.00
G03 X1764.37 Y-42.09 I0.00 J-6.75
G03 X1771.12 Y-48.84 I6.75 J0.00
G03 X1775.90 Y-46.87 I0.00 J6.75
G03 X1777.17 Y-45.09 I-4.77 J4.77
M08
G40
M51
M93
G00 X1791.84 Y-1129.03
M94 F1719
G41 D21
N110 M07
G01 X1795.80 Y-1132.99
M50
G03 X1799.58 Y-1123.87 I-9.12 J9.12
G03 X1786.68 Y-1110.97 I-12.90 J0.00
G03 X1773.78 Y-1123.87 I0.00 J-12.90
G03 X1786.68 Y-1136.77 I12.90 J0.00
G03 X1795.80 Y-1132.99 I0.00 J12.90
G03 X1797.21 Y-1131.31 I-9.12 J9.12
M08
G40
M51
M93
G00 X1791.84 Y-815.97
M94 F1719
G41 D21
N111 M07
G01 X1795.80 Y-812.01
M50
G03 X1786.68 Y-808.23 I-9.12 J-9.12
G03 X1773.78 Y-821.13 I0.00 J-12.90
G03 X1786.68 Y-834.03 I12.90 J0.00
G03 X1799.58 Y-821.13 I0.00 J12.90
G03 X1795.80 Y-812.01 I-12.90 J0.00
G03 X1794.12 Y-810.60 I-9.12 J-9.12
M08
G40
M51
M93
G00 X1791.84 Y-513.23
M94 F1719
G41 D21
N112 M07
G01 X1795.80 Y-509.27
M50
G03 X1786.68 Y-505.50 I-9.12 J-9.12
G03 X1773.78 Y-518.40 I0.00 J-12.90
G03 X1786.68 Y-531.30 I12.90 J0.00
G03 X1799.58 Y-518.40 I0.00 J12.90
G03 X1795.80 Y-509.27 I-12.90 J0.00
G03 X1794.12 Y-507.86 I-9.12 J-9.12
M08
G40
M51
M93
G00 X1791.84 Y-220.82
M94 F1719
G41 D21
N113 M07
G01 X1795.80 Y-224.78
M50
G03 X1799.58 Y-215.66 I-9.12 J9.12
G03 X1786.68 Y-202.76 I-12.90 J-0.00
G03 X1773.78 Y-215.66 I0.00 J-12.90
G03 X1786.68 Y-228.56 I12.90 J0.00
G03 X1795.80 Y-224.78 I0.00 J12.90
G03 X1797.21 Y-223.10 I-9.12 J9.12
M08
G40
M51
M93
G00 X1881.64 Y-963.11
M94 F2750
G41 D21
N114 M07
G01 X1881.64 Y-968.71
G01 X1881.64 Y-1331.59
G01 X1826.89 Y-1331.59
G02 X1824.49 Y-1330.50 I-0.22 J2.70
G02 X1822.25 Y-1327.72 I4.74 J6.11
G02 X1819.37 Y-1322.56 I24.79 J17.21
G02 X1818.93 Y-1321.70 I297.48 J153.16
G01 X1738.64 Y-1204.00
G03 X1737.39 Y-1201.59 I-8004.72 J-4141.55
G01 X1653.82 Y-1082.77
G03 X1652.57 Y-1080.50 I-88.80 J-47.43
G01 X1576.59 Y-982.33
G03 X1573.51 Y-978.19 I-30.52 J-19.47
G03 X1570.95 Y-977.12 I-3.39 J-4.52
G03 X1568.64 Y-978.27 I-0.02 J-2.84
G03 X1566.34 Y-981.20 I5.68 J-6.85
G03 X1565.65 Y-982.33 I27.37 J-17.37
G01 X1489.67 Y-1080.50
G03 X1488.42 Y-1082.77 I37.68 J-22.23
G01 X1404.85 Y-1201.59
G03 X1403.60 Y-1204.00 I93.96 J-50.16
G01 X1323.31 Y-1321.70
G02 X1319.94 Y-1327.81 I-3250.65 J1791.24
G02 X1317.22 Y-1330.92 I-18.91 J13.79
G02 X1315.35 Y-1331.59 I-2.50 J4.01
G01 X1260.60 Y-1331.59
G01 X1260.60 Y-968.71
G01 X1294.10 Y-968.71
G03 X1304.10 Y-958.71 I0.00 J10.00
G01 X1304.10 Y-635.94
G03 X1294.10 Y-625.94 I-10.00 J0.00
G01 X1260.60 Y-625.94
G01 X1260.60 Y-596.89
G03 X1274.87 Y-590.16 I-1.27 J21.19
G03 X1283.49 Y-574.51 I-20.44 J21.46
G03 X1276.91 Y-542.58 I-37.52 J8.91
G03 X1263.30 Y-534.01 I-20.45 J-17.37
G01 X1260.60 Y-533.63
G01 X1260.60 Y-504.58
G01 X1294.10 Y-504.58
G03 X1304.10 Y-494.58 I0.00 J10.00
G01 X1304.10 Y-171.81
G03 X1294.10 Y-161.81 I-10.00 J0.00
G01 X1260.60 Y-161.81
G01 X1260.60 Y-131.81
G01 X1294.10 Y-131.81
G03 X1304.10 Y-121.81 I0.00 J10.00
G01 X1304.10 Y-11.59
G01 X1838.14 Y-11.59
G01 X1838.14 Y-121.81
G03 X1848.14 Y-131.81 I10.00 J-0.00
G01 X1881.64 Y-131.81
G01 X1881.64 Y-161.81
G01 X1848.14 Y-161.81
G03 X1838.14 Y-171.81 I0.00 J-10.00
G01 X1838.14 Y-494.58
G03 X1848.14 Y-504.58 I10.00 J0.00
G01 X1881.64 Y-504.58
G01 X1881.64 Y-533.63
G03 X1867.37 Y-540.36 I1.27 J-21.19
G03 X1858.75 Y-556.01 I20.44 J-21.46
G03 X1865.33 Y-587.94 I37.52 J-8.91
G03 X1878.95 Y-596.51 I20.45 J17.37
G01 X1881.64 Y-596.89
G01 X1881.64 Y-625.94
G01 X1848.14 Y-625.94
G03 X1838.14 Y-635.94 I0.00 J-10.00
G01 X1838.14 Y-958.71
G03 X1848.14 Y-968.71 I10.00 J0.00
G01 X1880.54 Y-968.71
M50
G01 X1881.64 Y-968.71
G03 X1883.64 Y-966.71 I0.00 J2.00
M08
G40
M51
M93
G00 X2197.11 Y-479.67
M94 F1581
G41 D21
N115 M07
G01 X2199.42 Y-479.67
M50
G01 X2199.42 Y-451.87
G03 X2196.42 Y-448.87 I-3.00 J0.00
G03 X2193.42 Y-451.87 I0.00 J-3.00
G01 X2193.42 Y-507.47
G03 X2196.42 Y-510.47 I3.00 J-0.00
G03 X2199.42 Y-507.47 I0.00 J3.00
G01 X2199.42 Y-479.67
G01 X2199.42 Y-477.47
M08
G40
M51
M93
G00 X2197.11 Y-627.51
M94 F1581
G41 D21
N116 M07
G01 X2199.42 Y-627.51
M50
G01 X2199.42 Y-599.71
G03 X2196.42 Y-596.71 I-3.00 J0.00
G03 X2193.42 Y-599.71 I0.00 J-3.00
G01 X2193.42 Y-655.31
G03 X2196.42 Y-658.31 I3.00 J0.00
G03 X2199.42 Y-655.31 I0.00 J3.00
G01 X2199.42 Y-627.51
G01 X2199.42 Y-625.31
M08
G40
M51
M93
G00 X2197.11 Y-775.35
M94 F1581
G41 D21
N117 M07
G01 X2199.42 Y-775.35
M50
G01 X2199.42 Y-747.55
G03 X2196.42 Y-744.55 I-3.00 J0.00
G03 X2193.42 Y-747.55 I0.00 J-3.00
G01 X2193.42 Y-803.15
G03 X2196.42 Y-806.15 I3.00 J0.00
G03 X2199.42 Y-803.15 I0.00 J3.00
G01 X2199.42 Y-775.35
G01 X2199.42 Y-773.15
M08
G40
M51
M93
G00 X2197.11 Y-923.19
M94 F1581
G41 D21
N118 M07
G01 X2199.42 Y-923.19
M50
G01 X2199.42 Y-895.39
G03 X2196.42 Y-892.39 I-3.00 J0.00
G03 X2193.42 Y-895.39 I0.00 J-3.00
G01 X2193.42 Y-950.99
G03 X2196.42 Y-953.99 I3.00 J0.00
G03 X2199.42 Y-950.99 I0.00 J3.00
G01 X2199.42 Y-923.19
G01 X2199.42 Y-920.99
M08
G40
M51
M93
G00 X2197.11 Y-1071.03
M94 F1581
G41 D21
N119 M07
G01 X2199.42 Y-1071.03
M50
G01 X2199.42 Y-1043.23
G03 X2196.42 Y-1040.23 I-3.00 J0.00
G03 X2193.42 Y-1043.23 I0.00 J-3.00
G01 X2193.42 Y-1098.83
G03 X2196.42 Y-1101.83 I3.00 J0.00
G03 X2199.42 Y-1098.83 I0.00 J3.00
G01 X2199.42 Y-1071.03
G01 X2199.42 Y-1068.83
M08
G40
M51
M93
G00 X2197.11 Y-1218.87
M94 F1581
G41 D21
N120 M07
G01 X2199.42 Y-1218.87
M50
G01 X2199.42 Y-1191.07
G03 X2196.42 Y-1188.07 I-3.00 J0.00
G03 X2193.42 Y-1191.07 I0.00 J-3.00
G01 X2193.42 Y-1246.67
G03 X2196.42 Y-1249.67 I3.00 J0.00
G03 X2199.42 Y-1246.67 I0.00 J3.00
G01 X2199.42 Y-1218.87
G01 X2199.42 Y-1216.67
M08
G40
M51
M93
G00 X2197.11 Y-1292.79
M94 F1581
G41 D21
N121 M07
G01 X2199.42 Y-1292.79
M50
G01 X2199.42 Y-1264.99
G03 X2196.42 Y-1261.99 I-3.00 J0.00
G03 X2193.42 Y-1264.99 I0.00 J-3.00
G01 X2193.42 Y-1320.59
G03 X2196.42 Y-1323.59 I3.00 J0.00
G03 X2199.42 Y-1320.59 I0.00 J3.00
G01 X2199.42 Y-1292.79
G01 X2199.42 Y-1290.59
M08
G40
M51
M93
G00 X2197.11 Y-1144.95
M94 F1581
G41 D21
N122 M07
G01 X2199.42 Y-1144.95
M50
G01 X2199.42 Y-1117.15
G03 X2196.42 Y-1114.15 I-3.00 J0.00
G03 X2193.42 Y-1117.15 I0.00 J-3.00
G01 X2193.42 Y-1172.75
G03 X2196.42 Y-1175.75 I3.00 J0.00
G03 X2199.42 Y-1172.75 I0.00 J3.00
G01 X2199.42 Y-1144.95
G01 X2199.42 Y-1142.75
M08
G40
M51
M93
G00 X2197.11 Y-997.11
M94 F1581
G41 D21
N123 M07
G01 X2199.42 Y-997.11
M50
G01 X2199.42 Y-969.31
G03 X2196.42 Y-966.31 I-3.00 J0.00
G03 X2193.42 Y-969.31 I0.00 J-3.00
G01 X2193.42 Y-1024.91
G03 X2196.42 Y-1027.91 I3.00 J0.00
G03 X2199.42 Y-1024.91 I0.00 J3.00
G01 X2199.42 Y-997.11
G01 X2199.42 Y-994.91
M08
G40
M51
M93
G00 X2197.11 Y-849.27
M94 F1581
G41 D21
N124 M07
G01 X2199.42 Y-849.27
M50
G01 X2199.42 Y-821.47
G03 X2196.42 Y-818.47 I-3.00 J0.00
G03 X2193.42 Y-821.47 I0.00 J-3.00
G01 X2193.42 Y-877.07
G03 X2196.42 Y-880.07 I3.00 J0.00
G03 X2199.42 Y-877.07 I0.00 J3.00
G01 X2199.42 Y-849.27
G01 X2199.42 Y-847.07
M08
G40
M51
M93
G00 X2197.11 Y-701.43
M94 F1581
G41 D21
N125 M07
G01 X2199.42 Y-701.43
M50
G01 X2199.42 Y-673.63
G03 X2196.42 Y-670.63 I-3.00 J0.00
G03 X2193.42 Y-673.63 I0.00 J-3.00
G01 X2193.42 Y-729.23
G03 X2196.42 Y-732.23 I3.00 J0.00
G03 X2199.42 Y-729.23 I0.00 J3.00
G01 X2199.42 Y-701.43
G01 X2199.42 Y-699.23
M08
G40
M51
M93
G00 X2197.11 Y-553.59
M94 F1581
G41 D21
N126 M07
G01 X2199.42 Y-553.59
M50
G01 X2199.42 Y-525.79
G03 X2196.42 Y-522.79 I-3.00 J0.00
G03 X2193.42 Y-525.79 I0.00 J-3.00
G01 X2193.42 Y-581.39
G03 X2196.42 Y-584.39 I3.00 J-0.00
G03 X2199.42 Y-581.39 I0.00 J3.00
G01 X2199.42 Y-553.59
G01 X2199.42 Y-551.39
M08
G40
M51
M93
G00 X2197.11 Y-405.75
M94 F1581
G41 D21
N127 M07
G01 X2199.42 Y-405.75
M50
G01 X2199.42 Y-377.95
G03 X2196.42 Y-374.95 I-3.00 J0.00
G03 X2193.42 Y-377.95 I0.00 J-3.00
G01 X2193.42 Y-433.55
G03 X2196.42 Y-436.55 I3.00 J-0.00
G03 X2199.42 Y-433.55 I0.00 J3.00
G01 X2199.42 Y-405.75
G01 X2199.42 Y-403.55
M08
G40
M51
M93
G00 X2062.46 Y-326.59
M94 F1788
G41 D21
N128 M07
G01 X2068.06 Y-326.50
M50
G03 X2065.40 Y-318.69 I-9.82 J1.01
G03 X2046.81 Y-315.67 I-10.90 J-8.39
G03 X2042.46 Y-333.15 I7.36 J-11.11
G03 X2060.42 Y-338.69 I11.88 J6.64
G03 X2067.28 Y-331.44 I-5.77 J12.32
G01 X2068.09 Y-328.18
G01 X2068.06 Y-326.50
G01 X2068.04 Y-324.83
M08
G40
M51
M93
G00 X2062.46 Y-629.33
M94 F1788
G41 D21
N129 M07
G01 X2068.06 Y-629.24
M50
G03 X2065.40 Y-621.43 I-9.82 J1.01
G03 X2046.81 Y-618.41 I-10.90 J-8.39
G03 X2042.46 Y-635.89 I7.36 J-11.11
G03 X2060.42 Y-641.42 I11.88 J6.64
G03 X2067.28 Y-634.17 I-5.77 J12.32
G01 X2068.09 Y-630.92
G01 X2068.06 Y-629.24
G01 X2068.04 Y-627.56
M08
G40
M51
M93
G00 X2062.46 Y-932.07
M94 F1788
G41 D21
N130 M07
G01 X2068.06 Y-931.98
M50
G03 X2065.40 Y-924.17 I-9.82 J1.01
G03 X2046.81 Y-921.15 I-10.90 J-8.39
G03 X2042.46 Y-938.62 I7.36 J-11.11
G03 X2060.42 Y-944.16 I11.88 J6.64
G03 X2067.28 Y-936.91 I-5.77 J12.32
G01 X2068.09 Y-933.65
G01 X2068.06 Y-931.98
G01 X2068.04 Y-930.30
M08
G40
M51
M93
G00 X2062.46 Y-1234.81
M94 F1788
G41 D21
N131 M07
G01 X2068.06 Y-1234.71
M50
G03 X2065.40 Y-1226.90 I-9.82 J1.01
G03 X2046.81 Y-1223.89 I-10.90 J-8.39
G03 X2042.46 Y-1241.36 I7.36 J-11.11
G03 X2060.42 Y-1246.90 I11.88 J6.64
G03 X2067.28 Y-1239.65 I-5.77 J12.32
G01 X2068.09 Y-1236.39
G01 X2068.06 Y-1234.71
G01 X2068.04 Y-1233.04
M08
G40
M51
M93
G00 X2246.73 Y-1301.91
M94 F1375
G41 D21
N132 M07
G01 X2250.69 Y-1305.87
M50
G03 X2252.67 Y-1301.09 I-4.77 J4.77
G03 X2245.92 Y-1294.34 I-6.75 J0.00
G03 X2239.17 Y-1301.09 I0.00 J-6.75
G03 X2245.92 Y-1307.84 I6.75 J0.00
G03 X2250.69 Y-1305.87 I0.00 J6.75
G03 X2251.97 Y-1304.09 I-4.77 J4.77
M08
G40
M51
M93
G00 X2246.73 Y-1249.91
M94 F1375
G41 D21
N133 M07
G01 X2250.69 Y-1253.87
M50
G03 X2252.67 Y-1249.09 I-4.77 J4.77
G03 X2245.92 Y-1242.34 I-6.75 J0.00
G03 X2239.17 Y-1249.09 I0.00 J-6.75
G03 X2245.92 Y-1255.84 I6.75 J0.00
G03 X2250.69 Y-1253.87 I0.00 J6.75
G03 X2251.97 Y-1252.09 I-4.77 J4.77
M08
G40
M51
M93
G00 X2417.14 Y-1132.69
M94 F1719
G41 D21
N134 M07
G01 X2421.10 Y-1136.65
M50
G03 X2424.88 Y-1127.53 I-9.12 J9.12
G03 X2411.98 Y-1114.63 I-12.90 J-0.00
G03 X2399.08 Y-1127.53 I0.00 J-12.90
G03 X2411.98 Y-1140.43 I12.90 J0.00
G03 X2421.10 Y-1136.65 I-0.00 J12.90
G03 X2422.51 Y-1134.97 I-9.12 J9.12
M08
G40
M51
M93
G00 X2417.14 Y-829.95
M94 F1719
G41 D21
N135 M07
G01 X2421.10 Y-833.91
M50
G03 X2424.88 Y-824.79 I-9.12 J9.12
G03 X2411.98 Y-811.89 I-12.90 J-0.00
G03 X2399.08 Y-824.79 I-0.00 J-12.90
G03 X2411.98 Y-837.69 I12.90 J0.00
G03 X2421.10 Y-833.91 I0.00 J12.90
G03 X2422.51 Y-832.23 I-9.12 J9.12
M08
G40
M51
M93
G00 X2417.14 Y-527.22
M94 F1719
G41 D21
N136 M07
G01 X2421.10 Y-531.18
M50
G03 X2424.88 Y-522.06 I-9.12 J9.12
G03 X2411.98 Y-509.16 I-12.90 J-0.00
G03 X2399.08 Y-522.06 I-0.00 J-12.90
G03 X2411.98 Y-534.96 I12.90 J0.00
G03 X2421.10 Y-531.18 I0.00 J12.90
G03 X2422.51 Y-529.50 I-9.12 J9.12
M08
G40
M51
M93
G00 X2417.14 Y-214.16
M94 F1719
G41 D21
N137 M07
G01 X2421.10 Y-210.20
M50
G03 X2411.98 Y-206.42 I-9.12 J-9.12
G03 X2399.08 Y-219.32 I-0.00 J-12.90
G03 X2411.98 Y-232.22 I12.90 J0.00
G03 X2424.88 Y-219.32 I0.00 J12.90
G03 X2421.10 Y-210.20 I-12.90 J-0.00
G03 X2419.42 Y-208.78 I-9.12 J-9.12
M08
G40
M51
M93
G00 X2397.24 Y-1301.91
M94 F1375
G41 D21
N138 M07
G01 X2401.20 Y-1305.87
M50
G03 X2403.17 Y-1301.09 I-4.77 J4.77
G03 X2396.42 Y-1294.34 I-6.75 J0.00
G03 X2389.67 Y-1301.09 I0.00 J-6.75
G03 X2396.42 Y-1307.84 I6.75 J0.00
G03 X2401.20 Y-1305.87 I0.00 J6.75
G03 X2402.47 Y-1304.09 I-4.77 J4.77
M08
G40
M51
M93
G00 X2397.24 Y-1249.91
M94 F1375
G41 D21
N139 M07
G01 X2401.20 Y-1253.87
M50
G03 X2403.17 Y-1249.09 I-4.77 J4.77
G03 X2396.42 Y-1242.34 I-6.75 J0.00
G03 X2389.67 Y-1249.09 I0.00 J-6.75
G03 X2396.42 Y-1255.84 I6.75 J0.00
G03 X2401.20 Y-1253.87 I0.00 J6.75
G03 X2402.47 Y-1252.09 I-4.77 J4.77
M08
G40
M51
M93
G00 X2346.37 Y-1235.74
M94 F1788
G41 D21
N140 M07
G01 X2351.93 Y-1236.38
M50
G03 X2350.38 Y-1228.49 I-9.81 J2.18
G03 X2332.42 Y-1222.95 I-11.88 J-6.64
G03 X2325.72 Y-1240.04 I5.83 J-12.14
G03 X2342.95 Y-1247.46 I12.46 J5.21
G03 X2350.59 Y-1240.99 I-4.45 J12.99
G01 X2351.76 Y-1237.84
G01 X2351.93 Y-1236.38
G01 X2352.10 Y-1234.92
M08
G40
M51
M93
G00 X2346.37 Y-933.01
M94 F1788
G41 D21
N141 M07
G01 X2351.93 Y-933.64
M50
G03 X2350.38 Y-925.75 I-9.81 J2.18
G03 X2332.42 Y-920.21 I-11.88 J-6.64
G03 X2325.72 Y-937.30 I5.83 J-12.14
G03 X2342.95 Y-944.73 I12.46 J5.21
G03 X2350.59 Y-938.25 I-4.45 J12.99
G01 X2351.76 Y-935.10
G01 X2351.93 Y-933.64
G01 X2352.10 Y-932.19
M08
G40
M51
M93
G00 X2346.37 Y-630.27
M94 F1788
G41 D21
N142 M07
G01 X2351.93 Y-630.91
M50
G03 X2350.38 Y-623.01 I-9.81 J2.18
G03 X2332.42 Y-617.47 I-11.88 J-6.64
G03 X2325.72 Y-634.56 I5.83 J-12.14
G03 X2342.95 Y-641.99 I12.46 J5.21
G03 X2350.59 Y-635.51 I-4.45 J12.99
G01 X2351.76 Y-632.36
G01 X2351.93 Y-630.91
G01 X2352.10 Y-629.45
M08
G40
M51
M93
G00 X2346.37 Y-327.53
M94 F1788
G41 D21
N143 M07
G01 X2351.93 Y-328.17
M50
G03 X2350.38 Y-320.27 I-9.81 J2.18
G03 X2332.42 Y-314.73 I-11.88 J-6.64
G03 X2325.72 Y-331.83 I5.83 J-12.14
G03 X2342.95 Y-339.25 I12.46 J5.21
G03 X2350.59 Y-332.78 I-4.45 J12.99
G01 X2351.76 Y-329.63
G01 X2351.93 Y-328.17
G01 X2352.10 Y-326.71
M08
G40
M51
M93
G00 X2147.74 Y-1249.91
M94 F1375
G41 D21
N144 M07
G01 X2151.70 Y-1253.87
M50
G03 X2153.67 Y-1249.09 I-4.77 J4.77
G03 X2146.92 Y-1242.34 I-6.75 J0.00
G03 X2140.17 Y-1249.09 I0.00 J-6.75
G03 X2146.92 Y-1255.84 I6.75 J0.00
G03 X2151.70 Y-1253.87 I0.00 J6.75
G03 X2152.97 Y-1252.09 I-4.77 J4.77
M08
G40
M51
M93
G00 X2147.74 Y-1301.91
M94 F1375
G41 D21
N145 M07
G01 X2151.70 Y-1305.87
M50
G03 X2153.67 Y-1301.09 I-4.77 J4.77
G03 X2146.92 Y-1294.34 I-6.75 J0.00
G03 X2140.17 Y-1301.09 I0.00 J-6.75
G03 X2146.92 Y-1307.84 I6.75 J0.00
G03 X2151.70 Y-1305.87 I0.00 J6.75
G03 X2152.97 Y-1304.09 I-4.77 J4.77
M08
G40
M51
M93
G00 X1997.23 Y-1249.91
M94 F1375
G41 D21
N146 M07
G01 X2001.19 Y-1253.87
M50
G03 X2003.17 Y-1249.09 I-4.77 J4.77
G03 X1996.42 Y-1242.34 I-6.75 J0.00
G03 X1989.67 Y-1249.09 I0.00 J-6.75
G03 X1996.42 Y-1255.84 I6.75 J-0.00
G03 X2001.19 Y-1253.87 I0.00 J6.75
G03 X2002.47 Y-1252.09 I-4.77 J4.77
M08
G40
M51
M93
G00 X1997.23 Y-1301.91
M94 F1375
G41 D21
N147 M07
G01 X2001.19 Y-1305.87
M50
G03 X2003.17 Y-1301.09 I-4.77 J4.77
G03 X1996.42 Y-1294.34 I-6.75 J0.00
G03 X1989.67 Y-1301.09 I0.00 J-6.75
G03 X1996.42 Y-1307.84 I6.75 J-0.00
G03 X2001.19 Y-1305.87 I0.00 J6.75
G03 X2002.47 Y-1304.09 I-4.77 J4.77
M08
G40
M51
M93
G00 X1986.03 Y-224.48
M94 F1719
G41 D21
N148 M07
G01 X1989.99 Y-228.44
M50
G03 X1993.77 Y-219.32 I-9.12 J9.12
G03 X1980.87 Y-206.42 I-12.90 J-0.00
G03 X1967.97 Y-219.32 I0.00 J-12.90
G03 X1980.87 Y-232.22 I12.90 J0.00
G03 X1989.99 Y-228.44 I0.00 J12.90
G03 X1991.40 Y-226.76 I-9.12 J9.12
M08
G40
M51
M93
G00 X1986.03 Y-527.22
M94 F1719
G41 D21
N149 M07
G01 X1989.99 Y-531.18
M50
G03 X1993.77 Y-522.06 I-9.12 J9.12
G03 X1980.87 Y-509.16 I-12.90 J-0.00
G03 X1967.97 Y-522.06 I0.00 J-12.90
G03 X1980.87 Y-534.96 I12.90 J0.00
G03 X1989.99 Y-531.18 I0.00 J12.90
G03 X1991.40 Y-529.50 I-9.12 J9.12
M08
G40
M51
M93
G00 X1986.03 Y-829.95
M94 F1719
G41 D21
N150 M07
G01 X1989.99 Y-833.91
M50
G03 X1993.77 Y-824.79 I-9.12 J9.12
G03 X1980.87 Y-811.89 I-12.90 J-0.00
G03 X1967.97 Y-824.79 I0.00 J-12.90
G03 X1980.87 Y-837.69 I12.90 J-0.00
G03 X1989.99 Y-833.91 I0.00 J12.90
G03 X1991.40 Y-832.23 I-9.12 J9.12
M08
G40
M51
M93
G00 X1986.03 Y-1132.69
M94 F1719
G41 D21
N151 M07
G01 X1989.99 Y-1136.65
M50
G03 X1993.77 Y-1127.53 I-9.12 J9.12
G03 X1980.87 Y-1114.63 I-12.90 J0.00
G03 X1967.97 Y-1127.53 I0.00 J-12.90
G03 X1980.87 Y-1140.43 I12.90 J-0.00
G03 X1989.99 Y-1136.65 I0.00 J12.90
G03 X1991.40 Y-1134.97 I-9.12 J9.12
M08
G40
M51
M93
G00 X2469.04 Y-848.61
M94 F2750
G41 D21
N152 M07
G01 X2463.44 Y-848.61
G01 X2463.44 Y-1171.38
G03 X2473.44 Y-1181.38 I10.00 J0.00
G01 X2506.94 Y-1181.38
G01 X2506.94 Y-1211.38
G01 X2473.44 Y-1211.38
G03 X2463.44 Y-1221.38 I0.00 J-10.00
G01 X2463.44 Y-1331.59
G01 X1929.40 Y-1331.59
G01 X1929.40 Y-1221.38
G03 X1919.40 Y-1211.38 I-10.00 J0.00
G01 X1885.90 Y-1211.38
G01 X1885.90 Y-1181.38
G01 X1919.40 Y-1181.38
G03 X1929.40 Y-1171.38 I0.00 J10.00
G01 X1929.40 Y-848.61
G03 X1919.40 Y-838.61 I-10.00 J0.00
G01 X1885.90 Y-838.61
G01 X1885.90 Y-809.56
G03 X1900.17 Y-802.83 I-1.27 J21.19
G03 X1908.79 Y-787.18 I-20.44 J21.46
G03 X1902.21 Y-755.25 I-37.52 J8.91
G03 X1888.60 Y-746.68 I-20.45 J-17.37
G01 X1885.90 Y-746.30
G01 X1885.90 Y-717.25
G01 X1919.40 Y-717.25
G03 X1929.40 Y-707.25 I0.00 J10.00
G01 X1929.40 Y-384.48
G03 X1919.40 Y-374.48 I-10.00 J0.00
G01 X1885.90 Y-374.48
G01 X1885.90 Y-11.59
G01 X1940.65 Y-11.59
G02 X1943.05 Y-12.68 I0.22 J-2.70
G02 X1945.30 Y-15.47 I-4.74 J-6.11
G02 X1948.17 Y-20.63 I-24.79 J-17.21
G02 X1948.62 Y-21.49 I-297.48 J-153.16
G01 X2028.90 Y-139.18
G03 X2030.15 Y-141.59 I8004.72 J4141.54
G01 X2113.72 Y-260.42
G03 X2114.97 Y-262.68 I88.80 J47.43
G01 X2190.95 Y-360.86
G03 X2194.03 Y-365.00 I30.52 J19.47
G03 X2196.59 Y-366.06 I3.39 J4.52
G03 X2198.90 Y-364.91 I0.02 J2.84
G03 X2201.21 Y-361.98 I-5.68 J6.85
G03 X2201.89 Y-360.86 I-27.37 J17.37
G01 X2277.87 Y-262.68
G03 X2279.12 Y-260.42 I-37.68 J22.23
G01 X2362.69 Y-141.59
G03 X2363.94 Y-139.18 I-93.96 J50.16
G01 X2444.23 Y-21.49
G02 X2447.60 Y-15.38 I3250.65 J-1791.24
G02 X2450.32 Y-12.27 I18.91 J-13.79
G02 X2452.19 Y-11.59 I2.50 J-4.01
G01 X2506.94 Y-11.59
G01 X2506.94 Y-374.48
G01 X2473.44 Y-374.48
G03 X2463.44 Y-384.48 I0.00 J-10.00
G01 X2463.44 Y-707.25
G03 X2473.44 Y-717.25 I10.00 J0.00
G01 X2506.94 Y-717.25
G01 X2506.94 Y-746.30
G03 X2492.67 Y-753.03 I1.27 J-21.19
G03 X2484.05 Y-768.68 I20.44 J-21.46
G03 X2490.64 Y-800.61 I37.52 J-8.91
G03 X2504.25 Y-809.18 I20.45 J17.37
G01 X2506.94 Y-809.56
G01 X2506.94 Y-838.61
G01 X2473.44 Y-838.61
G03 X2463.50 Y-847.52 I0.00 J-10.00
M50
G03 X2463.44 Y-848.61 I9.94 J-1.10
G03 X2465.44 Y-850.61 I2.00 J0.00
M08
G40
M51
M93
(PlanFooterCommand)
M64
T0
M65
#CS OFF
M30
