(PP_NAME=	  PP_Din)
(PP_VERSION=	  4.0)
(PP_INI_NAME=	  GC_PLASMA_4.5.ini)
(PP_INI_VERSION=  2014-02-26)
(PLANNAME=        svejselære 2 del 1)
(MACHINE= 	  PowerMAX105_MS_45)
(MATERIAL= 	  S235JR)
(THICKNESS= 	  2)
#CONTOUR MODE [DEV PATH_DEV=0.2 RELEVANT_PATH=0.1]
#TRC [CONV_CIR_TO_LIN=1]
G71
G90
#CS ON [V.A.ABS.X, V.A.ABS.Y, 0, 0, 0, V.E.ROTATION]
M190
G162
G141
G237
G00 X105.98 Y-185.00
M64
T21
M65
M94 F1850
G41 D21
N1 M07
G01 X107.87 Y-185.00
M50
G01 X107.87 Y-177.50
G03 X104.87 Y-174.50 I-3.00 J0.00
G03 X101.87 Y-177.50 I0.00 J-3.00
G01 X101.87 Y-192.50
G03 X104.87 Y-195.50 I3.00 J0.00
G03 X107.87 Y-192.50 I0.00 J3.00
G01 X107.87 Y-185.00
G01 X107.87 Y-181.90
M08
G40
M51
M93
G00 X105.98 Y-158.50
M94 F1850
G41 D21
N2 M07
G01 X107.87 Y-158.50
M50
G01 X107.87 Y-151.00
G03 X104.87 Y-148.00 I-3.00 J0.00
G03 X101.87 Y-151.00 I0.00 J-3.00
G01 X101.87 Y-166.00
G03 X104.87 Y-169.00 I3.00 J0.00
G03 X107.87 Y-166.00 I0.00 J3.00
G01 X107.87 Y-158.50
G01 X107.87 Y-155.40
M08
G40
M51
M93
G00 X104.87 Y-111.50
M94 F1850
G41 D21
N3 M07
G01 X104.87 Y-116.00
M50
G03 X107.87 Y-113.00 I0.00 J3.00
G01 X107.87 Y-98.00
G03 X104.87 Y-95.00 I-3.00 J0.00
G03 X101.87 Y-98.00 I0.00 J-3.00
G01 X101.87 Y-113.00
G03 X104.87 Y-116.00 I3.00 J0.00
G03 X107.45 Y-114.54 I0.00 J3.00
M08
G40
M51
M93
G00 X105.98 Y-132.00
M94 F1850
G41 D21
N4 M07
G01 X107.87 Y-132.00
M50
G01 X107.87 Y-124.50
G03 X104.87 Y-121.50 I-3.00 J0.00
G03 X101.87 Y-124.50 I0.00 J-3.00
G01 X101.87 Y-139.50
G03 X104.87 Y-142.50 I3.00 J0.00
G03 X107.87 Y-139.50 I0.00 J3.00
G01 X107.87 Y-132.00
G01 X107.87 Y-128.90
M08
G40
M51
M93
G00 X105.98 Y-52.50
M94 F1850
G41 D21
N5 M07
G01 X107.87 Y-52.50
M50
G01 X107.87 Y-45.00
G03 X104.87 Y-42.00 I-3.00 J0.00
G03 X101.87 Y-45.00 I0.00 J-3.00
G01 X101.87 Y-60.00
G03 X104.87 Y-63.00 I3.00 J0.00
G03 X107.87 Y-60.00 I0.00 J3.00
G01 X107.87 Y-52.50
G01 X107.87 Y-49.40
M08
G40
M51
M93
G00 X105.98 Y-79.00
M94 F1850
G41 D21
N6 M07
G01 X107.87 Y-79.00
M50
G01 X107.87 Y-71.50
G03 X104.87 Y-68.50 I-3.00 J0.00
G03 X101.87 Y-71.50 I0.00 J-3.00
G01 X101.87 Y-86.50
G03 X104.87 Y-89.50 I3.00 J0.00
G03 X107.87 Y-86.50 I0.00 J3.00
G01 X107.87 Y-79.00
G01 X107.87 Y-75.90
M08
G40
M51
M93
G00 X105.98 Y-26.00
M94 F1850
G41 D21
N7 M07
G01 X107.87 Y-26.00
M50
G01 X107.87 Y-18.50
G03 X104.87 Y-15.50 I-3.00 J0.00
G03 X101.87 Y-18.50 I0.00 J-3.00
G01 X101.87 Y-33.50
G03 X104.87 Y-36.50 I3.00 J0.00
G03 X107.87 Y-33.50 I0.00 J3.00
G01 X107.87 Y-26.00
G01 X107.87 Y-22.90
M08
G40
M51
M93
G00 X10.00 Y-174.84
M94 F3700
G41 D21
N8 M07
G01 X10.00 Y-170.34
G01 X10.00 Y-10.00
G01 X199.75 Y-10.00
G01 X199.75 Y-170.34
G01 X172.95 Y-170.34
G03 X170.40 Y-171.35 I-0.23 J-3.16
G03 X168.02 Y-173.46 I5.40 J-8.51
G02 X167.01 Y-174.36 I-33.56 J36.45
G01 X124.37 Y-200.00
G01 X85.38 Y-200.00
G01 X42.74 Y-174.36
G02 X40.34 Y-172.16 I8.90 J12.11
G03 X37.87 Y-170.54 I-12.11 J-15.74
G03 X36.85 Y-170.34 I-1.23 J-3.66
G01 X36.79 Y-170.34
G01 X10.90 Y-170.34
M50
G01 X10.00 Y-170.34
G03 X7.60 Y-172.74 I-0.00 J-2.40
M08
G40
M51
M93
(PlanFooterCommand)
M64
T0
M65
#CS OFF
M30
